(G-CODE GENERATED BY FLATCAM v8.991 - www.flatcam.org - Version Date: 2019/12/27)

(Name: 01a - 0_5mm Step_Direction_Board-B_Cu.gbr_iso_cnc)
(Type: G-code from Geometry)
(Units: MM)

(Created on Tuesday, 10 March 2020 at 12:59)

(TOOL DIAMETER: 0.5 mm)
(Feedrate: 350.0 mm/min)
(Feedrate_Z: 800.0 mm/min)
(Feedrate rapids 1500.0 mm/min)

(Z_Cut: -0.03 mm)
(Z_Move: 2.0 mm)
(Z Toolchange: 15.0 mm)
(X,Y Toolchange: 0.0000, 0.0000 mm)
(Z Start: None mm)
(Z End: 15.0 mm)
(Steps per circle: 64)
(Preprocessor Geometry: default)

(X range:   -0.0997 ...   65.0997  mm)
(Y range:    0.2849 ...   19.2151  mm)

(Spindle Speed: 24000 RPM)
G21
G90
G94




G01 F350.00
G00 Z2.0000

M03 S24000
M08
G00 X9.5067 Y6.0217
G01 F800.00
G01 Z-0.0300
G01 F350.00
G01 X9.4744 Y6.0333
G01 X9.4509 Y6.0404
G01 X9.3653 Y6.0619
G01 X9.3412 Y6.0667
G01 X9.2538 Y6.0796
G01 X9.2294 Y6.0820
G01 X9.1412 Y6.0864
G01 X9.1167 Y6.0864
G01 X9.0285 Y6.0820
G01 X9.0040 Y6.0796
G01 X8.9167 Y6.0667
G01 X8.8926 Y6.0619
G01 X8.8069 Y6.0404
G01 X8.7835 Y6.0333
G01 X8.7003 Y6.0035
G01 X8.6776 Y5.9941
G01 X8.5978 Y5.9564
G01 X8.5762 Y5.9448
G01 X8.5004 Y5.8994
G01 X8.4800 Y5.8858
G01 X8.4091 Y5.8332
G01 X8.3901 Y5.8176
G01 X8.3247 Y5.7583
G01 X8.3073 Y5.7409
G01 X8.2480 Y5.6755
G01 X8.2324 Y5.6565
G01 X8.1798 Y5.5856
G01 X8.1662 Y5.5652
G01 X8.1208 Y5.4894
G01 X8.1092 Y5.4678
G01 X8.0715 Y5.3880
G01 X8.0621 Y5.3653
G01 X8.0323 Y5.2821
G01 X8.0252 Y5.2587
G01 X8.0037 Y5.1730
G01 X7.9989 Y5.1489
G01 X7.9860 Y5.0616
G01 X7.9836 Y5.0371
G01 X7.9792 Y4.9489
G01 X7.9789 Y4.9367
G01 X7.9789 Y3.1367
G01 X7.9792 Y3.1244
G01 X7.9836 Y3.0362
G01 X7.9860 Y3.0118
G01 X7.9989 Y2.9244
G01 X8.0037 Y2.9003
G01 X8.0252 Y2.8147
G01 X8.0323 Y2.7912
G01 X8.0621 Y2.7080
G01 X8.0715 Y2.6853
G01 X8.1092 Y2.6055
G01 X8.1208 Y2.5839
G01 X8.1662 Y2.5081
G01 X8.1798 Y2.4877
G01 X8.2324 Y2.4168
G01 X8.2480 Y2.3978
G01 X8.3073 Y2.3324
G01 X8.3247 Y2.3150
G01 X8.3901 Y2.2557
G01 X8.4091 Y2.2401
G01 X8.4800 Y2.1875
G01 X8.5004 Y2.1739
G01 X8.5762 Y2.1285
G01 X8.5978 Y2.1169
G01 X8.6776 Y2.0792
G01 X8.7003 Y2.0698
G01 X8.7835 Y2.0400
G01 X8.8069 Y2.0329
G01 X8.8926 Y2.0114
G01 X8.9167 Y2.0067
G01 X9.0040 Y1.9937
G01 X9.0285 Y1.9913
G01 X9.1167 Y1.9870
G01 X9.1412 Y1.9870
G01 X9.2294 Y1.9913
G01 X9.2538 Y1.9937
G01 X9.3412 Y2.0067
G01 X9.3653 Y2.0114
G01 X9.4509 Y2.0329
G01 X9.4744 Y2.0400
G01 X9.5576 Y2.0698
G01 X9.5802 Y2.0792
G01 X9.6601 Y2.1169
G01 X9.6817 Y2.1285
G01 X9.7575 Y2.1739
G01 X9.7779 Y2.1875
G01 X9.8488 Y2.2401
G01 X9.8678 Y2.2557
G01 X9.9332 Y2.3150
G01 X9.9506 Y2.3324
G01 X10.0099 Y2.3978
G01 X10.0255 Y2.4168
G01 X10.0781 Y2.4877
G01 X10.0917 Y2.5081
G01 X10.1371 Y2.5839
G01 X10.1487 Y2.6055
G01 X10.1864 Y2.6853
G01 X10.1958 Y2.7080
G01 X10.2256 Y2.7912
G01 X10.2327 Y2.8147
G01 X10.2542 Y2.9003
G01 X10.2589 Y2.9244
G01 X10.2719 Y3.0118
G01 X10.2743 Y3.0362
G01 X10.2786 Y3.1244
G01 X10.2789 Y3.1367
G01 X10.2789 Y4.9367
G01 X10.2786 Y4.9489
G01 X10.2743 Y5.0371
G01 X10.2719 Y5.0616
G01 X10.2589 Y5.1489
G01 X10.2542 Y5.1730
G01 X10.2327 Y5.2587
G01 X10.2256 Y5.2821
G01 X10.2140 Y5.3144
G01 X12.5204 Y7.6209
G01 X12.5454 Y7.6479
G01 X12.5610 Y7.6669
G01 X12.5756 Y7.6866
G01 X12.5892 Y7.7070
G01 X12.6018 Y7.7281
G01 X12.6134 Y7.7497
G01 X12.6239 Y7.7719
G01 X12.6333 Y7.7946
G01 X12.6415 Y7.8177
G01 X12.6487 Y7.8412
G01 X12.6546 Y7.8650
G01 X12.6594 Y7.8890
G01 X12.6630 Y7.9133
G01 X12.6654 Y7.9377
G01 X12.6669 Y7.9745
G01 X12.6669 Y9.4824
G01 X12.6654 Y9.5192
G01 X12.6630 Y9.5436
G01 X12.6594 Y9.5679
G01 X12.6546 Y9.5919
G01 X12.6487 Y9.6158
G01 X12.6415 Y9.6392
G01 X12.6333 Y9.6623
G01 X12.6239 Y9.6850
G01 X12.6134 Y9.7072
G01 X12.6018 Y9.7288
G01 X12.5892 Y9.7499
G01 X12.5756 Y9.7703
G01 X12.5610 Y9.7900
G01 X12.5454 Y9.8090
G01 X12.5204 Y9.8360
G01 X12.1378 Y10.2186
G01 X12.1108 Y10.2436
G01 X12.0918 Y10.2592
G01 X12.0721 Y10.2738
G01 X12.0517 Y10.2874
G01 X12.0306 Y10.3000
G01 X12.0090 Y10.3116
G01 X11.9868 Y10.3221
G01 X11.9641 Y10.3315
G01 X11.9410 Y10.3397
G01 X11.9176 Y10.3469
G01 X11.8937 Y10.3528
G01 X11.8697 Y10.3576
G01 X11.8454 Y10.3612
G01 X11.8210 Y10.3636
G01 X11.7842 Y10.3651
G01 X11.5241 Y10.3651
G01 X11.5025 Y10.3754
G01 X11.4794 Y10.3836
G01 X11.4556 Y10.3896
G01 X11.4313 Y10.3932
G01 X11.4068 Y10.3944
G01 X9.4256 Y10.3944
G01 X9.4011 Y10.3932
G01 X9.3768 Y10.3896
G01 X9.3530 Y10.3836
G01 X9.3299 Y10.3754
G01 X9.3078 Y10.3649
G01 X9.2867 Y10.3523
G01 X9.2670 Y10.3377
G01 X9.2488 Y10.3212
G01 X9.2323 Y10.3030
G01 X9.2177 Y10.2833
G01 X9.2051 Y10.2622
G01 X9.1946 Y10.2401
G01 X9.1864 Y10.2170
G01 X9.1804 Y10.1932
G01 X9.1768 Y10.1689
G01 X9.1756 Y10.1444
G01 X9.1756 Y9.5856
G01 X9.1768 Y9.5611
G01 X9.1804 Y9.5368
G01 X9.1864 Y9.5130
G01 X9.1946 Y9.4899
G01 X9.2051 Y9.4678
G01 X9.2177 Y9.4467
G01 X9.2323 Y9.4270
G01 X9.2488 Y9.4088
G01 X9.2670 Y9.3923
G01 X9.2867 Y9.3777
G01 X9.3078 Y9.3651
G01 X9.3299 Y9.3546
G01 X9.3530 Y9.3464
G01 X9.3768 Y9.3404
G01 X9.4011 Y9.3368
G01 X9.4256 Y9.3356
G01 X11.4068 Y9.3356
G01 X11.4313 Y9.3368
G01 X11.4556 Y9.3404
G01 X11.4794 Y9.3464
G01 X11.5025 Y9.3546
G01 X11.5241 Y9.3649
G01 X11.5770 Y9.3649
G01 X11.6667 Y9.2752
G01 X11.6667 Y8.1817
G01 X9.5067 Y6.0217
G00 Z2.0000
G00 X10.0239 Y8.0656
G01 F800.00
G01 Z-0.0300
G01 F350.00
G01 X9.4256 Y8.0656
G01 X9.4011 Y8.0668
G01 X9.3768 Y8.0704
G01 X9.3530 Y8.0764
G01 X9.3299 Y8.0846
G01 X9.3188 Y8.0899
G01 X9.2966 Y8.0899
G01 X9.3257 Y8.0743
G01 X9.3747 Y8.0595
G01 X9.4490 Y8.0522
G01 X10.0131 Y8.0548
G01 X10.0239 Y8.0656
G00 Z2.0000
G00 X15.8439 Y6.0164
G01 F800.00
G01 Z-0.0300
G01 F350.00
G01 X15.8439 Y8.0656
G01 X16.3344 Y8.0656
G01 X16.3589 Y8.0668
G01 X16.3832 Y8.0704
G01 X16.4070 Y8.0764
G01 X16.4301 Y8.0846
G01 X16.4522 Y8.0951
G01 X16.4733 Y8.1077
G01 X16.4930 Y8.1223
G01 X16.5112 Y8.1388
G01 X16.5277 Y8.1570
G01 X16.5423 Y8.1767
G01 X16.5549 Y8.1978
G01 X16.5654 Y8.2199
G01 X16.5736 Y8.2430
G01 X16.5796 Y8.2668
G01 X16.5832 Y8.2911
G01 X16.5844 Y8.3156
G01 X16.5844 Y8.8744
G01 X16.5832 Y8.8989
G01 X16.5796 Y8.9232
G01 X16.5736 Y8.9470
G01 X16.5654 Y8.9701
G01 X16.5549 Y8.9922
G01 X16.5423 Y9.0133
G01 X16.5277 Y9.0330
G01 X16.5112 Y9.0512
G01 X16.4930 Y9.0677
G01 X16.4733 Y9.0823
G01 X16.4522 Y9.0949
G01 X16.4301 Y9.1054
G01 X16.4070 Y9.1136
G01 X16.3832 Y9.1196
G01 X16.3589 Y9.1232
G01 X16.3344 Y9.1244
G01 X14.3532 Y9.1244
G01 X14.3287 Y9.1232
G01 X14.3044 Y9.1196
G01 X14.2806 Y9.1136
G01 X14.2575 Y9.1054
G01 X14.2354 Y9.0949
G01 X14.2143 Y9.0823
G01 X14.1946 Y9.0677
G01 X14.1764 Y9.0512
G01 X14.1599 Y9.0330
G01 X14.1453 Y9.0133
G01 X14.1327 Y8.9922
G01 X14.1222 Y8.9701
G01 X14.1140 Y8.9470
G01 X14.1080 Y8.9232
G01 X14.1044 Y8.8989
G01 X14.1032 Y8.8744
G01 X14.1032 Y8.3156
G01 X14.1044 Y8.2911
G01 X14.1080 Y8.2668
G01 X14.1140 Y8.2430
G01 X14.1222 Y8.2199
G01 X14.1327 Y8.1978
G01 X14.1453 Y8.1767
G01 X14.1599 Y8.1570
G01 X14.1764 Y8.1388
G01 X14.1946 Y8.1223
G01 X14.2143 Y8.1077
G01 X14.2354 Y8.0951
G01 X14.2575 Y8.0846
G01 X14.2806 Y8.0764
G01 X14.3044 Y8.0704
G01 X14.3287 Y8.0668
G01 X14.3532 Y8.0656
G01 X14.8437 Y8.0656
G01 X14.8437 Y5.4418
G01 X14.8452 Y5.4050
G01 X14.8476 Y5.3806
G01 X14.8512 Y5.3563
G01 X14.8560 Y5.3323
G01 X14.8619 Y5.3084
G01 X14.8691 Y5.2850
G01 X14.8773 Y5.2619
G01 X14.8867 Y5.2392
G01 X14.8972 Y5.2170
G01 X14.9088 Y5.1954
G01 X14.9214 Y5.1743
G01 X14.9350 Y5.1539
G01 X14.9496 Y5.1342
G01 X14.9652 Y5.1152
G01 X14.9902 Y5.0882
G01 X15.5989 Y4.4794
G01 X15.5989 Y2.4867
G01 X15.6005 Y2.4499
G01 X15.6029 Y2.4255
G01 X15.6065 Y2.4012
G01 X15.6112 Y2.3771
G01 X15.6172 Y2.3533
G01 X15.6243 Y2.3299
G01 X15.6326 Y2.3068
G01 X15.6420 Y2.2841
G01 X15.6525 Y2.2619
G01 X15.6640 Y2.2403
G01 X15.6766 Y2.2192
G01 X15.6903 Y2.1988
G01 X15.7049 Y2.1791
G01 X15.7205 Y2.1602
G01 X15.7369 Y2.1420
G01 X15.7543 Y2.1246
G01 X15.7725 Y2.1082
G01 X15.7914 Y2.0926
G01 X15.8111 Y2.0780
G01 X15.8315 Y2.0644
G01 X15.8526 Y2.0517
G01 X15.8742 Y2.0402
G01 X15.8964 Y2.0297
G01 X15.9191 Y2.0203
G01 X15.9422 Y2.0120
G01 X15.9656 Y2.0049
G01 X15.9894 Y1.9989
G01 X16.0135 Y1.9942
G01 X16.0378 Y1.9906
G01 X16.0622 Y1.9882
G01 X16.0989 Y1.9867
G01 X17.3989 Y1.9867
G01 X17.4112 Y1.9870
G01 X17.4357 Y1.9882
G01 X17.4601 Y1.9906
G01 X17.4844 Y1.9942
G01 X17.5085 Y1.9989
G01 X17.5323 Y2.0049
G01 X17.5557 Y2.0120
G01 X17.5788 Y2.0203
G01 X17.6015 Y2.0297
G01 X17.6237 Y2.0402
G01 X17.6453 Y2.0517
G01 X17.6664 Y2.0644
G01 X17.6868 Y2.0780
G01 X17.7065 Y2.0926
G01 X17.7254 Y2.1082
G01 X17.7436 Y2.1246
G01 X17.7610 Y2.1420
G01 X17.7774 Y2.1602
G01 X17.7930 Y2.1791
G01 X17.8076 Y2.1988
G01 X17.8212 Y2.2192
G01 X17.8339 Y2.2403
G01 X17.8454 Y2.2619
G01 X17.8559 Y2.2841
G01 X17.8653 Y2.3068
G01 X17.8736 Y2.3299
G01 X17.8807 Y2.3533
G01 X17.8866 Y2.3771
G01 X17.8914 Y2.4012
G01 X17.8950 Y2.4255
G01 X17.8974 Y2.4499
G01 X17.8989 Y2.4867
G01 X17.8989 Y5.5867
G01 X17.8974 Y5.6234
G01 X17.8950 Y5.6478
G01 X17.8914 Y5.6721
G01 X17.8866 Y5.6962
G01 X17.8807 Y5.7200
G01 X17.8736 Y5.7434
G01 X17.8653 Y5.7665
G01 X17.8559 Y5.7892
G01 X17.8454 Y5.8114
G01 X17.8339 Y5.8330
G01 X17.8212 Y5.8541
G01 X17.8076 Y5.8745
G01 X17.7930 Y5.8942
G01 X17.7774 Y5.9131
G01 X17.7610 Y5.9313
G01 X17.7436 Y5.9487
G01 X17.7254 Y5.9651
G01 X17.7065 Y5.9807
G01 X17.6868 Y5.9953
G01 X17.6664 Y6.0090
G01 X17.6453 Y6.0216
G01 X17.6237 Y6.0331
G01 X17.6015 Y6.0436
G01 X17.5788 Y6.0530
G01 X17.5557 Y6.0613
G01 X17.5323 Y6.0684
G01 X17.5085 Y6.0744
G01 X17.4844 Y6.0791
G01 X17.4601 Y6.0827
G01 X17.4357 Y6.0851
G01 X17.3989 Y6.0867
G01 X16.0989 Y6.0867
G01 X16.0867 Y6.0864
G01 X16.0622 Y6.0851
G01 X16.0378 Y6.0827
G01 X16.0135 Y6.0791
G01 X15.9894 Y6.0744
G01 X15.9656 Y6.0684
G01 X15.9422 Y6.0613
G01 X15.9191 Y6.0530
G01 X15.8964 Y6.0436
G01 X15.8742 Y6.0331
G01 X15.8526 Y6.0216
G01 X15.8439 Y6.0164
G00 Z2.0000
G00 X16.4517 Y10.6349
G01 F800.00
G01 Z-0.0300
G01 F350.00
G01 X16.8344 Y10.6349
G01 X16.8712 Y10.6364
G01 X16.8956 Y10.6388
G01 X16.9199 Y10.6424
G01 X16.9439 Y10.6472
G01 X16.9678 Y10.6531
G01 X16.9912 Y10.6603
G01 X17.0143 Y10.6685
G01 X17.0370 Y10.6779
G01 X17.0592 Y10.6884
G01 X17.0808 Y10.7000
G01 X17.1019 Y10.7126
G01 X17.1223 Y10.7262
G01 X17.1420 Y10.7408
G01 X17.1610 Y10.7564
G01 X17.1792 Y10.7729
G01 X17.1880 Y10.7814
G01 X17.4480 Y11.0414
G01 X17.4565 Y11.0502
G01 X17.4730 Y11.0684
G01 X17.4886 Y11.0874
G01 X17.5032 Y11.1071
G01 X17.5168 Y11.1275
G01 X17.5294 Y11.1486
G01 X17.5410 Y11.1702
G01 X17.5515 Y11.1924
G01 X17.5609 Y11.2151
G01 X17.5691 Y11.2382
G01 X17.5763 Y11.2616
G01 X17.5822 Y11.2855
G01 X17.5870 Y11.3095
G01 X17.5906 Y11.3338
G01 X17.5930 Y11.3582
G01 X17.5945 Y11.3950
G01 X17.5945 Y13.8478
G01 X17.5930 Y13.8846
G01 X17.5906 Y13.9090
G01 X17.5870 Y13.9333
G01 X17.5822 Y13.9573
G01 X17.5763 Y13.9811
G01 X17.5691 Y14.0046
G01 X17.5609 Y14.0277
G01 X17.5515 Y14.0504
G01 X17.5410 Y14.0726
G01 X17.5294 Y14.0942
G01 X17.5168 Y14.1153
G01 X17.5032 Y14.1357
G01 X17.4886 Y14.1554
G01 X17.4730 Y14.1744
G01 X17.4480 Y14.2014
G01 X15.9198 Y15.7297
G01 X15.8927 Y15.7546
G01 X15.8738 Y15.7702
G01 X15.8540 Y15.7848
G01 X15.8336 Y15.7984
G01 X15.8126 Y15.8111
G01 X15.7910 Y15.8226
G01 X15.7688 Y15.8331
G01 X15.7461 Y15.8425
G01 X15.7230 Y15.8508
G01 X15.6995 Y15.8579
G01 X15.6757 Y15.8639
G01 X15.6516 Y15.8686
G01 X15.6274 Y15.8723
G01 X15.6029 Y15.8747
G01 X15.5662 Y15.8762
G01 X15.3162 Y15.8762
G01 X15.3162 Y16.2260
G01 X15.3150 Y16.2505
G01 X15.3114 Y16.2748
G01 X15.3054 Y16.2986
G01 X15.2971 Y16.3217
G01 X15.2866 Y16.3439
G01 X15.2740 Y16.3649
G01 X15.2594 Y16.3846
G01 X15.2429 Y16.4028
G01 X15.2248 Y16.4193
G01 X15.2050 Y16.4339
G01 X15.1840 Y16.4465
G01 X15.1618 Y16.4570
G01 X15.1387 Y16.4653
G01 X15.1149 Y16.4712
G01 X15.0907 Y16.4748
G01 X15.0662 Y16.4760
G01 X13.3662 Y16.4760
G01 X13.3416 Y16.4748
G01 X13.3174 Y16.4712
G01 X13.2936 Y16.4653
G01 X13.2705 Y16.4570
G01 X13.2483 Y16.4465
G01 X13.2273 Y16.4339
G01 X13.2076 Y16.4193
G01 X13.1894 Y16.4028
G01 X13.1729 Y16.3846
G01 X13.1583 Y16.3649
G01 X13.1457 Y16.3439
G01 X13.1352 Y16.3217
G01 X13.1269 Y16.2986
G01 X13.1210 Y16.2748
G01 X13.1174 Y16.2505
G01 X13.1162 Y16.2260
G01 X13.1162 Y14.5260
G01 X13.1174 Y14.5015
G01 X13.1210 Y14.4773
G01 X13.1269 Y14.4535
G01 X13.1352 Y14.4304
G01 X13.1457 Y14.4082
G01 X13.1583 Y14.3871
G01 X13.1729 Y14.3674
G01 X13.1894 Y14.3493
G01 X13.2076 Y14.3328
G01 X13.2273 Y14.3182
G01 X13.2483 Y14.3056
G01 X13.2705 Y14.2951
G01 X13.2936 Y14.2868
G01 X13.3174 Y14.2808
G01 X13.3416 Y14.2772
G01 X13.3662 Y14.2760
G01 X15.0662 Y14.2760
G01 X15.0907 Y14.2772
G01 X15.1149 Y14.2808
G01 X15.1387 Y14.2868
G01 X15.1618 Y14.2951
G01 X15.1840 Y14.3056
G01 X15.2050 Y14.3182
G01 X15.2248 Y14.3328
G01 X15.2429 Y14.3493
G01 X15.2594 Y14.3674
G01 X15.2740 Y14.3871
G01 X15.2866 Y14.4082
G01 X15.2971 Y14.4304
G01 X15.3054 Y14.4535
G01 X15.3114 Y14.4773
G01 X15.3150 Y14.5015
G01 X15.3162 Y14.5260
G01 X15.3162 Y14.8759
G01 X15.3590 Y14.8759
G01 X16.5943 Y13.6406
G01 X16.5943 Y11.6351
G01 X16.4517 Y11.6351
G01 X16.4301 Y11.6454
G01 X16.4070 Y11.6536
G01 X16.3832 Y11.6596
G01 X16.3589 Y11.6632
G01 X16.3344 Y11.6644
G01 X14.3532 Y11.6644
G01 X14.3287 Y11.6632
G01 X14.3044 Y11.6596
G01 X14.2806 Y11.6536
G01 X14.2575 Y11.6454
G01 X14.2354 Y11.6349
G01 X14.2143 Y11.6223
G01 X14.1946 Y11.6077
G01 X14.1764 Y11.5912
G01 X14.1599 Y11.5730
G01 X14.1453 Y11.5533
G01 X14.1327 Y11.5322
G01 X14.1222 Y11.5101
G01 X14.1140 Y11.4870
G01 X14.1080 Y11.4632
G01 X14.1044 Y11.4389
G01 X14.1032 Y11.4144
G01 X14.1032 Y10.8556
G01 X14.1044 Y10.8311
G01 X14.1080 Y10.8068
G01 X14.1140 Y10.7830
G01 X14.1222 Y10.7599
G01 X14.1327 Y10.7378
G01 X14.1453 Y10.7167
G01 X14.1599 Y10.6970
G01 X14.1764 Y10.6788
G01 X14.1946 Y10.6623
G01 X14.2143 Y10.6477
G01 X14.2354 Y10.6351
G01 X14.2575 Y10.6246
G01 X14.2806 Y10.6164
G01 X14.3044 Y10.6104
G01 X14.3287 Y10.6068
G01 X14.3532 Y10.6056
G01 X14.8437 Y10.6056
G01 X14.8437 Y10.3944
G01 X14.3532 Y10.3944
G01 X14.3287 Y10.3932
G01 X14.3044 Y10.3896
G01 X14.2806 Y10.3836
G01 X14.2575 Y10.3754
G01 X14.2354 Y10.3649
G01 X14.2143 Y10.3523
G01 X14.1946 Y10.3377
G01 X14.1764 Y10.3212
G01 X14.1599 Y10.3030
G01 X14.1453 Y10.2833
G01 X14.1327 Y10.2622
G01 X14.1222 Y10.2401
G01 X14.1140 Y10.2170
G01 X14.1080 Y10.1932
G01 X14.1044 Y10.1689
G01 X14.1032 Y10.1444
G01 X14.1032 Y9.5856
G01 X14.1044 Y9.5611
G01 X14.1080 Y9.5368
G01 X14.1140 Y9.5130
G01 X14.1222 Y9.4899
G01 X14.1327 Y9.4678
G01 X14.1453 Y9.4467
G01 X14.1599 Y9.4270
G01 X14.1764 Y9.4088
G01 X14.1946 Y9.3923
G01 X14.2143 Y9.3777
G01 X14.2354 Y9.3651
G01 X14.2575 Y9.3546
G01 X14.2806 Y9.3464
G01 X14.3044 Y9.3404
G01 X14.3287 Y9.3368
G01 X14.3532 Y9.3356
G01 X16.3344 Y9.3356
G01 X16.3589 Y9.3368
G01 X16.3832 Y9.3404
G01 X16.4070 Y9.3464
G01 X16.4301 Y9.3546
G01 X16.4522 Y9.3651
G01 X16.4733 Y9.3777
G01 X16.4930 Y9.3923
G01 X16.5112 Y9.4088
G01 X16.5277 Y9.4270
G01 X16.5423 Y9.4467
G01 X16.5549 Y9.4678
G01 X16.5654 Y9.4899
G01 X16.5736 Y9.5130
G01 X16.5796 Y9.5368
G01 X16.5832 Y9.5611
G01 X16.5844 Y9.5856
G01 X16.5844 Y10.1444
G01 X16.5832 Y10.1689
G01 X16.5796 Y10.1932
G01 X16.5736 Y10.2170
G01 X16.5654 Y10.2401
G01 X16.5549 Y10.2622
G01 X16.5423 Y10.2833
G01 X16.5277 Y10.3030
G01 X16.5112 Y10.3212
G01 X16.4930 Y10.3377
G01 X16.4733 Y10.3523
G01 X16.4522 Y10.3649
G01 X16.4301 Y10.3754
G01 X16.4070 Y10.3836
G01 X16.3832 Y10.3896
G01 X16.3589 Y10.3932
G01 X16.3344 Y10.3944
G01 X15.8439 Y10.3944
G01 X15.8439 Y10.6056
G01 X16.3344 Y10.6056
G01 X16.3589 Y10.6068
G01 X16.3832 Y10.6104
G01 X16.4070 Y10.6164
G01 X16.4301 Y10.6246
G01 X16.4517 Y10.6349
G00 Z2.0000
G00 X23.0639 Y8.0656
G01 F800.00
G01 Z-0.0300
G01 F350.00
G01 X22.4656 Y8.0656
G01 X22.4411 Y8.0668
G01 X22.4168 Y8.0704
G01 X22.3930 Y8.0764
G01 X22.3699 Y8.0846
G01 X22.3588 Y8.0899
G01 X22.3366 Y8.0899
G01 X22.3657 Y8.0743
G01 X22.4147 Y8.0595
G01 X22.4890 Y8.0522
G01 X23.0531 Y8.0548
G01 X23.0639 Y8.0656
G00 Z2.0000
G00 X22.5467 Y6.0217
G01 F800.00
G01 Z-0.0300
G01 F350.00
G01 X22.5144 Y6.0333
G01 X22.4909 Y6.0404
G01 X22.4053 Y6.0619
G01 X22.3812 Y6.0667
G01 X22.2938 Y6.0796
G01 X22.2694 Y6.0820
G01 X22.1812 Y6.0864
G01 X22.1567 Y6.0864
G01 X22.0685 Y6.0820
G01 X22.0440 Y6.0796
G01 X21.9567 Y6.0667
G01 X21.9326 Y6.0619
G01 X21.8469 Y6.0404
G01 X21.8235 Y6.0333
G01 X21.7403 Y6.0035
G01 X21.7176 Y5.9941
G01 X21.6378 Y5.9564
G01 X21.6162 Y5.9448
G01 X21.5404 Y5.8994
G01 X21.5200 Y5.8858
G01 X21.4491 Y5.8332
G01 X21.4301 Y5.8176
G01 X21.3647 Y5.7583
G01 X21.3473 Y5.7409
G01 X21.2880 Y5.6755
G01 X21.2724 Y5.6565
G01 X21.2198 Y5.5856
G01 X21.2062 Y5.5652
G01 X21.1608 Y5.4894
G01 X21.1492 Y5.4678
G01 X21.1115 Y5.3880
G01 X21.1021 Y5.3653
G01 X21.0723 Y5.2821
G01 X21.0652 Y5.2587
G01 X21.0437 Y5.1730
G01 X21.0389 Y5.1489
G01 X21.0260 Y5.0616
G01 X21.0236 Y5.0371
G01 X21.0192 Y4.9489
G01 X21.0189 Y4.9367
G01 X21.0189 Y3.1367
G01 X21.0192 Y3.1244
G01 X21.0236 Y3.0362
G01 X21.0260 Y3.0118
G01 X21.0389 Y2.9244
G01 X21.0437 Y2.9003
G01 X21.0652 Y2.8147
G01 X21.0723 Y2.7912
G01 X21.1021 Y2.7080
G01 X21.1115 Y2.6853
G01 X21.1492 Y2.6055
G01 X21.1608 Y2.5839
G01 X21.2062 Y2.5081
G01 X21.2198 Y2.4877
G01 X21.2724 Y2.4168
G01 X21.2880 Y2.3978
G01 X21.3473 Y2.3324
G01 X21.3647 Y2.3150
G01 X21.4301 Y2.2557
G01 X21.4491 Y2.2401
G01 X21.5200 Y2.1875
G01 X21.5404 Y2.1739
G01 X21.6162 Y2.1285
G01 X21.6378 Y2.1169
G01 X21.7176 Y2.0792
G01 X21.7403 Y2.0698
G01 X21.8235 Y2.0400
G01 X21.8469 Y2.0329
G01 X21.9326 Y2.0114
G01 X21.9567 Y2.0067
G01 X22.0440 Y1.9937
G01 X22.0685 Y1.9913
G01 X22.1567 Y1.9870
G01 X22.1812 Y1.9870
G01 X22.2694 Y1.9913
G01 X22.2938 Y1.9937
G01 X22.3812 Y2.0067
G01 X22.4053 Y2.0114
G01 X22.4909 Y2.0329
G01 X22.5144 Y2.0400
G01 X22.5976 Y2.0698
G01 X22.6202 Y2.0792
G01 X22.7001 Y2.1169
G01 X22.7217 Y2.1285
G01 X22.7975 Y2.1739
G01 X22.8179 Y2.1875
G01 X22.8888 Y2.2401
G01 X22.9078 Y2.2557
G01 X22.9732 Y2.3150
G01 X22.9906 Y2.3324
G01 X23.0499 Y2.3978
G01 X23.0655 Y2.4168
G01 X23.1181 Y2.4877
G01 X23.1317 Y2.5081
G01 X23.1771 Y2.5839
G01 X23.1887 Y2.6055
G01 X23.2264 Y2.6853
G01 X23.2358 Y2.7080
G01 X23.2656 Y2.7912
G01 X23.2727 Y2.8147
G01 X23.2942 Y2.9003
G01 X23.2989 Y2.9244
G01 X23.3119 Y3.0118
G01 X23.3143 Y3.0362
G01 X23.3186 Y3.1244
G01 X23.3189 Y3.1367
G01 X23.3189 Y4.9367
G01 X23.3186 Y4.9489
G01 X23.3143 Y5.0371
G01 X23.3119 Y5.0616
G01 X23.2989 Y5.1489
G01 X23.2942 Y5.1730
G01 X23.2727 Y5.2587
G01 X23.2656 Y5.2821
G01 X23.2540 Y5.3144
G01 X25.5604 Y7.6209
G01 X25.5854 Y7.6479
G01 X25.6010 Y7.6669
G01 X25.6156 Y7.6866
G01 X25.6292 Y7.7070
G01 X25.6418 Y7.7281
G01 X25.6534 Y7.7497
G01 X25.6639 Y7.7719
G01 X25.6733 Y7.7946
G01 X25.6815 Y7.8177
G01 X25.6887 Y7.8412
G01 X25.6946 Y7.8650
G01 X25.6994 Y7.8890
G01 X25.7030 Y7.9133
G01 X25.7054 Y7.9377
G01 X25.7069 Y7.9745
G01 X25.7069 Y9.4824
G01 X25.7054 Y9.5192
G01 X25.7030 Y9.5436
G01 X25.6994 Y9.5679
G01 X25.6946 Y9.5919
G01 X25.6887 Y9.6158
G01 X25.6815 Y9.6392
G01 X25.6733 Y9.6623
G01 X25.6639 Y9.6850
G01 X25.6534 Y9.7072
G01 X25.6418 Y9.7288
G01 X25.6292 Y9.7499
G01 X25.6156 Y9.7703
G01 X25.6010 Y9.7900
G01 X25.5854 Y9.8090
G01 X25.5604 Y9.8360
G01 X25.1778 Y10.2186
G01 X25.1508 Y10.2436
G01 X25.1318 Y10.2592
G01 X25.1121 Y10.2738
G01 X25.0917 Y10.2874
G01 X25.0706 Y10.3000
G01 X25.0490 Y10.3116
G01 X25.0268 Y10.3221
G01 X25.0041 Y10.3315
G01 X24.9810 Y10.3397
G01 X24.9576 Y10.3469
G01 X24.9337 Y10.3528
G01 X24.9097 Y10.3576
G01 X24.8854 Y10.3612
G01 X24.8610 Y10.3636
G01 X24.8242 Y10.3651
G01 X24.5641 Y10.3651
G01 X24.5425 Y10.3754
G01 X24.5194 Y10.3836
G01 X24.4956 Y10.3896
G01 X24.4713 Y10.3932
G01 X24.4468 Y10.3944
G01 X22.4656 Y10.3944
G01 X22.4411 Y10.3932
G01 X22.4168 Y10.3896
G01 X22.3930 Y10.3836
G01 X22.3699 Y10.3754
G01 X22.3478 Y10.3649
G01 X22.3267 Y10.3523
G01 X22.3070 Y10.3377
G01 X22.2888 Y10.3212
G01 X22.2723 Y10.3030
G01 X22.2577 Y10.2833
G01 X22.2451 Y10.2622
G01 X22.2346 Y10.2401
G01 X22.2264 Y10.2170
G01 X22.2204 Y10.1932
G01 X22.2168 Y10.1689
G01 X22.2156 Y10.1444
G01 X22.2156 Y9.5856
G01 X22.2168 Y9.5611
G01 X22.2204 Y9.5368
G01 X22.2264 Y9.5130
G01 X22.2346 Y9.4899
G01 X22.2451 Y9.4678
G01 X22.2577 Y9.4467
G01 X22.2723 Y9.4270
G01 X22.2888 Y9.4088
G01 X22.3070 Y9.3923
G01 X22.3267 Y9.3777
G01 X22.3478 Y9.3651
G01 X22.3699 Y9.3546
G01 X22.3930 Y9.3464
G01 X22.4168 Y9.3404
G01 X22.4411 Y9.3368
G01 X22.4656 Y9.3356
G01 X24.4468 Y9.3356
G01 X24.4713 Y9.3368
G01 X24.4956 Y9.3404
G01 X24.5194 Y9.3464
G01 X24.5425 Y9.3546
G01 X24.5641 Y9.3649
G01 X24.6170 Y9.3649
G01 X24.7067 Y9.2752
G01 X24.7067 Y8.1817
G01 X22.5467 Y6.0217
G00 Z2.0000
G00 X28.8839 Y6.0164
G01 F800.00
G01 Z-0.0300
G01 F350.00
G01 X28.8839 Y8.0656
G01 X29.3744 Y8.0656
G01 X29.3989 Y8.0668
G01 X29.4232 Y8.0704
G01 X29.4470 Y8.0764
G01 X29.4701 Y8.0846
G01 X29.4922 Y8.0951
G01 X29.5133 Y8.1077
G01 X29.5330 Y8.1223
G01 X29.5512 Y8.1388
G01 X29.5677 Y8.1570
G01 X29.5823 Y8.1767
G01 X29.5949 Y8.1978
G01 X29.6054 Y8.2199
G01 X29.6136 Y8.2430
G01 X29.6196 Y8.2668
G01 X29.6232 Y8.2911
G01 X29.6244 Y8.3156
G01 X29.6244 Y8.8744
G01 X29.6232 Y8.8989
G01 X29.6196 Y8.9232
G01 X29.6136 Y8.9470
G01 X29.6054 Y8.9701
G01 X29.5949 Y8.9922
G01 X29.5823 Y9.0133
G01 X29.5677 Y9.0330
G01 X29.5512 Y9.0512
G01 X29.5330 Y9.0677
G01 X29.5133 Y9.0823
G01 X29.4922 Y9.0949
G01 X29.4701 Y9.1054
G01 X29.4470 Y9.1136
G01 X29.4232 Y9.1196
G01 X29.3989 Y9.1232
G01 X29.3744 Y9.1244
G01 X27.3932 Y9.1244
G01 X27.3687 Y9.1232
G01 X27.3444 Y9.1196
G01 X27.3206 Y9.1136
G01 X27.2975 Y9.1054
G01 X27.2754 Y9.0949
G01 X27.2543 Y9.0823
G01 X27.2346 Y9.0677
G01 X27.2164 Y9.0512
G01 X27.1999 Y9.0330
G01 X27.1853 Y9.0133
G01 X27.1727 Y8.9922
G01 X27.1622 Y8.9701
G01 X27.1540 Y8.9470
G01 X27.1480 Y8.9232
G01 X27.1444 Y8.8989
G01 X27.1432 Y8.8744
G01 X27.1432 Y8.3156
G01 X27.1444 Y8.2911
G01 X27.1480 Y8.2668
G01 X27.1540 Y8.2430
G01 X27.1622 Y8.2199
G01 X27.1727 Y8.1978
G01 X27.1853 Y8.1767
G01 X27.1999 Y8.1570
G01 X27.2164 Y8.1388
G01 X27.2346 Y8.1223
G01 X27.2543 Y8.1077
G01 X27.2754 Y8.0951
G01 X27.2975 Y8.0846
G01 X27.3206 Y8.0764
G01 X27.3444 Y8.0704
G01 X27.3687 Y8.0668
G01 X27.3932 Y8.0656
G01 X27.8837 Y8.0656
G01 X27.8837 Y5.4418
G01 X27.8852 Y5.4050
G01 X27.8876 Y5.3806
G01 X27.8912 Y5.3563
G01 X27.8960 Y5.3323
G01 X27.9019 Y5.3084
G01 X27.9091 Y5.2850
G01 X27.9173 Y5.2619
G01 X27.9267 Y5.2392
G01 X27.9372 Y5.2170
G01 X27.9488 Y5.1954
G01 X27.9614 Y5.1743
G01 X27.9750 Y5.1539
G01 X27.9896 Y5.1342
G01 X28.0052 Y5.1152
G01 X28.0302 Y5.0882
G01 X28.6389 Y4.4794
G01 X28.6389 Y2.4867
G01 X28.6405 Y2.4499
G01 X28.6429 Y2.4255
G01 X28.6465 Y2.4012
G01 X28.6512 Y2.3771
G01 X28.6572 Y2.3533
G01 X28.6643 Y2.3299
G01 X28.6726 Y2.3068
G01 X28.6820 Y2.2841
G01 X28.6925 Y2.2619
G01 X28.7040 Y2.2403
G01 X28.7166 Y2.2192
G01 X28.7303 Y2.1988
G01 X28.7449 Y2.1791
G01 X28.7605 Y2.1602
G01 X28.7769 Y2.1420
G01 X28.7943 Y2.1246
G01 X28.8125 Y2.1082
G01 X28.8314 Y2.0926
G01 X28.8511 Y2.0780
G01 X28.8715 Y2.0644
G01 X28.8926 Y2.0517
G01 X28.9142 Y2.0402
G01 X28.9364 Y2.0297
G01 X28.9591 Y2.0203
G01 X28.9822 Y2.0120
G01 X29.0056 Y2.0049
G01 X29.0294 Y1.9989
G01 X29.0535 Y1.9942
G01 X29.0778 Y1.9906
G01 X29.1022 Y1.9882
G01 X29.1389 Y1.9867
G01 X30.4389 Y1.9867
G01 X30.4512 Y1.9870
G01 X30.4757 Y1.9882
G01 X30.5001 Y1.9906
G01 X30.5244 Y1.9942
G01 X30.5485 Y1.9989
G01 X30.5723 Y2.0049
G01 X30.5957 Y2.0120
G01 X30.6188 Y2.0203
G01 X30.6415 Y2.0297
G01 X30.6637 Y2.0402
G01 X30.6853 Y2.0517
G01 X30.7064 Y2.0644
G01 X30.7268 Y2.0780
G01 X30.7465 Y2.0926
G01 X30.7654 Y2.1082
G01 X30.7836 Y2.1246
G01 X30.8010 Y2.1420
G01 X30.8174 Y2.1602
G01 X30.8330 Y2.1791
G01 X30.8476 Y2.1988
G01 X30.8612 Y2.2192
G01 X30.8739 Y2.2403
G01 X30.8854 Y2.2619
G01 X30.8959 Y2.2841
G01 X30.9053 Y2.3068
G01 X30.9136 Y2.3299
G01 X30.9207 Y2.3533
G01 X30.9266 Y2.3771
G01 X30.9314 Y2.4012
G01 X30.9350 Y2.4255
G01 X30.9374 Y2.4499
G01 X30.9389 Y2.4867
G01 X30.9389 Y5.5867
G01 X30.9374 Y5.6234
G01 X30.9350 Y5.6478
G01 X30.9314 Y5.6721
G01 X30.9266 Y5.6962
G01 X30.9207 Y5.7200
G01 X30.9136 Y5.7434
G01 X30.9053 Y5.7665
G01 X30.8959 Y5.7892
G01 X30.8854 Y5.8114
G01 X30.8739 Y5.8330
G01 X30.8612 Y5.8541
G01 X30.8476 Y5.8745
G01 X30.8330 Y5.8942
G01 X30.8174 Y5.9131
G01 X30.8010 Y5.9313
G01 X30.7836 Y5.9487
G01 X30.7654 Y5.9651
G01 X30.7465 Y5.9807
G01 X30.7268 Y5.9953
G01 X30.7064 Y6.0090
G01 X30.6853 Y6.0216
G01 X30.6637 Y6.0331
G01 X30.6415 Y6.0436
G01 X30.6188 Y6.0530
G01 X30.5957 Y6.0613
G01 X30.5723 Y6.0684
G01 X30.5485 Y6.0744
G01 X30.5244 Y6.0791
G01 X30.5001 Y6.0827
G01 X30.4757 Y6.0851
G01 X30.4389 Y6.0867
G01 X29.1389 Y6.0867
G01 X29.1267 Y6.0864
G01 X29.1022 Y6.0851
G01 X29.0778 Y6.0827
G01 X29.0535 Y6.0791
G01 X29.0294 Y6.0744
G01 X29.0056 Y6.0684
G01 X28.9822 Y6.0613
G01 X28.9591 Y6.0530
G01 X28.9364 Y6.0436
G01 X28.9142 Y6.0331
G01 X28.8926 Y6.0216
G01 X28.8839 Y6.0164
G00 Z2.0000
G00 X29.4917 Y10.6349
G01 F800.00
G01 Z-0.0300
G01 F350.00
G01 X29.7518 Y10.6349
G01 X29.7886 Y10.6364
G01 X29.8130 Y10.6388
G01 X29.8373 Y10.6424
G01 X29.8613 Y10.6472
G01 X29.8852 Y10.6531
G01 X29.9086 Y10.6603
G01 X29.9317 Y10.6685
G01 X29.9544 Y10.6779
G01 X29.9766 Y10.6884
G01 X29.9982 Y10.7000
G01 X30.0193 Y10.7126
G01 X30.0397 Y10.7262
G01 X30.0594 Y10.7408
G01 X30.0784 Y10.7564
G01 X30.1054 Y10.7814
G01 X30.4880 Y11.1640
G01 X30.4965 Y11.1728
G01 X30.5130 Y11.1910
G01 X30.5286 Y11.2100
G01 X30.5432 Y11.2297
G01 X30.5568 Y11.2501
G01 X30.5694 Y11.2712
G01 X30.5810 Y11.2928
G01 X30.5915 Y11.3150
G01 X30.6009 Y11.3377
G01 X30.6091 Y11.3608
G01 X30.6163 Y11.3842
G01 X30.6222 Y11.4081
G01 X30.6270 Y11.4321
G01 X30.6306 Y11.4564
G01 X30.6330 Y11.4808
G01 X30.6345 Y11.5176
G01 X30.6345 Y13.8478
G01 X30.6330 Y13.8846
G01 X30.6306 Y13.9090
G01 X30.6270 Y13.9333
G01 X30.6222 Y13.9573
G01 X30.6163 Y13.9811
G01 X30.6091 Y14.0046
G01 X30.6009 Y14.0277
G01 X30.5915 Y14.0504
G01 X30.5810 Y14.0726
G01 X30.5694 Y14.0942
G01 X30.5568 Y14.1153
G01 X30.5432 Y14.1357
G01 X30.5286 Y14.1554
G01 X30.5130 Y14.1744
G01 X30.4880 Y14.2014
G01 X28.9598 Y15.7297
G01 X28.9327 Y15.7546
G01 X28.9138 Y15.7702
G01 X28.8940 Y15.7848
G01 X28.8736 Y15.7984
G01 X28.8526 Y15.8111
G01 X28.8310 Y15.8226
G01 X28.8088 Y15.8331
G01 X28.7861 Y15.8425
G01 X28.7630 Y15.8508
G01 X28.7395 Y15.8579
G01 X28.7157 Y15.8639
G01 X28.6916 Y15.8686
G01 X28.6674 Y15.8723
G01 X28.6429 Y15.8747
G01 X28.6062 Y15.8762
G01 X28.3562 Y15.8762
G01 X28.3562 Y16.2260
G01 X28.3550 Y16.2505
G01 X28.3514 Y16.2748
G01 X28.3454 Y16.2986
G01 X28.3371 Y16.3217
G01 X28.3266 Y16.3439
G01 X28.3140 Y16.3649
G01 X28.2994 Y16.3846
G01 X28.2829 Y16.4028
G01 X28.2648 Y16.4193
G01 X28.2450 Y16.4339
G01 X28.2240 Y16.4465
G01 X28.2018 Y16.4570
G01 X28.1787 Y16.4653
G01 X28.1549 Y16.4712
G01 X28.1307 Y16.4748
G01 X28.1062 Y16.4760
G01 X26.4062 Y16.4760
G01 X26.3816 Y16.4748
G01 X26.3574 Y16.4712
G01 X26.3336 Y16.4653
G01 X26.3105 Y16.4570
G01 X26.2883 Y16.4465
G01 X26.2673 Y16.4339
G01 X26.2476 Y16.4193
G01 X26.2294 Y16.4028
G01 X26.2129 Y16.3846
G01 X26.1983 Y16.3649
G01 X26.1857 Y16.3439
G01 X26.1752 Y16.3217
G01 X26.1669 Y16.2986
G01 X26.1610 Y16.2748
G01 X26.1574 Y16.2505
G01 X26.1562 Y16.2260
G01 X26.1562 Y14.5260
G01 X26.1574 Y14.5015
G01 X26.1610 Y14.4773
G01 X26.1669 Y14.4535
G01 X26.1752 Y14.4304
G01 X26.1857 Y14.4082
G01 X26.1983 Y14.3871
G01 X26.2129 Y14.3674
G01 X26.2294 Y14.3493
G01 X26.2476 Y14.3328
G01 X26.2673 Y14.3182
G01 X26.2883 Y14.3056
G01 X26.3105 Y14.2951
G01 X26.3336 Y14.2868
G01 X26.3574 Y14.2808
G01 X26.3816 Y14.2772
G01 X26.4062 Y14.2760
G01 X28.1062 Y14.2760
G01 X28.1307 Y14.2772
G01 X28.1549 Y14.2808
G01 X28.1787 Y14.2868
G01 X28.2018 Y14.2951
G01 X28.2240 Y14.3056
G01 X28.2450 Y14.3182
G01 X28.2648 Y14.3328
G01 X28.2829 Y14.3493
G01 X28.2994 Y14.3674
G01 X28.3140 Y14.3871
G01 X28.3266 Y14.4082
G01 X28.3371 Y14.4304
G01 X28.3454 Y14.4535
G01 X28.3514 Y14.4773
G01 X28.3550 Y14.5015
G01 X28.3562 Y14.5260
G01 X28.3562 Y14.8759
G01 X28.3990 Y14.8759
G01 X29.6343 Y13.6406
G01 X29.6343 Y11.7248
G01 X29.5446 Y11.6351
G01 X29.4917 Y11.6351
G01 X29.4701 Y11.6454
G01 X29.4470 Y11.6536
G01 X29.4232 Y11.6596
G01 X29.3989 Y11.6632
G01 X29.3744 Y11.6644
G01 X27.3932 Y11.6644
G01 X27.3687 Y11.6632
G01 X27.3444 Y11.6596
G01 X27.3206 Y11.6536
G01 X27.2975 Y11.6454
G01 X27.2754 Y11.6349
G01 X27.2543 Y11.6223
G01 X27.2346 Y11.6077
G01 X27.2164 Y11.5912
G01 X27.1999 Y11.5730
G01 X27.1853 Y11.5533
G01 X27.1727 Y11.5322
G01 X27.1622 Y11.5101
G01 X27.1540 Y11.4870
G01 X27.1480 Y11.4632
G01 X27.1444 Y11.4389
G01 X27.1432 Y11.4144
G01 X27.1432 Y10.8556
G01 X27.1444 Y10.8311
G01 X27.1480 Y10.8068
G01 X27.1540 Y10.7830
G01 X27.1622 Y10.7599
G01 X27.1727 Y10.7378
G01 X27.1853 Y10.7167
G01 X27.1999 Y10.6970
G01 X27.2164 Y10.6788
G01 X27.2346 Y10.6623
G01 X27.2543 Y10.6477
G01 X27.2754 Y10.6351
G01 X27.2975 Y10.6246
G01 X27.3206 Y10.6164
G01 X27.3444 Y10.6104
G01 X27.3687 Y10.6068
G01 X27.3932 Y10.6056
G01 X27.8837 Y10.6056
G01 X27.8837 Y10.3944
G01 X27.3932 Y10.3944
G01 X27.3687 Y10.3932
G01 X27.3444 Y10.3896
G01 X27.3206 Y10.3836
G01 X27.2975 Y10.3754
G01 X27.2754 Y10.3649
G01 X27.2543 Y10.3523
G01 X27.2346 Y10.3377
G01 X27.2164 Y10.3212
G01 X27.1999 Y10.3030
G01 X27.1853 Y10.2833
G01 X27.1727 Y10.2622
G01 X27.1622 Y10.2401
G01 X27.1540 Y10.2170
G01 X27.1480 Y10.1932
G01 X27.1444 Y10.1689
G01 X27.1432 Y10.1444
G01 X27.1432 Y9.5856
G01 X27.1444 Y9.5611
G01 X27.1480 Y9.5368
G01 X27.1540 Y9.5130
G01 X27.1622 Y9.4899
G01 X27.1727 Y9.4678
G01 X27.1853 Y9.4467
G01 X27.1999 Y9.4270
G01 X27.2164 Y9.4088
G01 X27.2346 Y9.3923
G01 X27.2543 Y9.3777
G01 X27.2754 Y9.3651
G01 X27.2975 Y9.3546
G01 X27.3206 Y9.3464
G01 X27.3444 Y9.3404
G01 X27.3687 Y9.3368
G01 X27.3932 Y9.3356
G01 X29.3744 Y9.3356
G01 X29.3989 Y9.3368
G01 X29.4232 Y9.3404
G01 X29.4470 Y9.3464
G01 X29.4701 Y9.3546
G01 X29.4922 Y9.3651
G01 X29.5133 Y9.3777
G01 X29.5330 Y9.3923
G01 X29.5512 Y9.4088
G01 X29.5677 Y9.4270
G01 X29.5823 Y9.4467
G01 X29.5949 Y9.4678
G01 X29.6054 Y9.4899
G01 X29.6136 Y9.5130
G01 X29.6196 Y9.5368
G01 X29.6232 Y9.5611
G01 X29.6244 Y9.5856
G01 X29.6244 Y10.1444
G01 X29.6232 Y10.1689
G01 X29.6196 Y10.1932
G01 X29.6136 Y10.2170
G01 X29.6054 Y10.2401
G01 X29.5949 Y10.2622
G01 X29.5823 Y10.2833
G01 X29.5677 Y10.3030
G01 X29.5512 Y10.3212
G01 X29.5330 Y10.3377
G01 X29.5133 Y10.3523
G01 X29.4922 Y10.3649
G01 X29.4701 Y10.3754
G01 X29.4470 Y10.3836
G01 X29.4232 Y10.3896
G01 X29.3989 Y10.3932
G01 X29.3744 Y10.3944
G01 X28.8839 Y10.3944
G01 X28.8839 Y10.6056
G01 X29.3744 Y10.6056
G01 X29.3989 Y10.6068
G01 X29.4232 Y10.6104
G01 X29.4470 Y10.6164
G01 X29.4701 Y10.6246
G01 X29.4917 Y10.6349
G00 Z2.0000
G00 X36.1039 Y8.0656
G01 F800.00
G01 Z-0.0300
G01 F350.00
G01 X35.5056 Y8.0656
G01 X35.4811 Y8.0668
G01 X35.4568 Y8.0704
G01 X35.4330 Y8.0764
G01 X35.4099 Y8.0846
G01 X35.3988 Y8.0899
G01 X35.3766 Y8.0899
G01 X35.4057 Y8.0743
G01 X35.4547 Y8.0595
G01 X35.5290 Y8.0522
G01 X36.0931 Y8.0548
G01 X36.1039 Y8.0656
G00 Z2.0000
G00 X35.5867 Y6.0217
G01 F800.00
G01 Z-0.0300
G01 F350.00
G01 X35.5544 Y6.0333
G01 X35.5309 Y6.0404
G01 X35.4453 Y6.0619
G01 X35.4212 Y6.0667
G01 X35.3338 Y6.0796
G01 X35.3094 Y6.0820
G01 X35.2212 Y6.0864
G01 X35.1967 Y6.0864
G01 X35.1085 Y6.0820
G01 X35.0840 Y6.0796
G01 X34.9967 Y6.0667
G01 X34.9726 Y6.0619
G01 X34.8869 Y6.0404
G01 X34.8635 Y6.0333
G01 X34.7803 Y6.0035
G01 X34.7576 Y5.9941
G01 X34.6778 Y5.9564
G01 X34.6562 Y5.9448
G01 X34.5804 Y5.8994
G01 X34.5600 Y5.8858
G01 X34.4891 Y5.8332
G01 X34.4701 Y5.8176
G01 X34.4047 Y5.7583
G01 X34.3873 Y5.7409
G01 X34.3280 Y5.6755
G01 X34.3124 Y5.6565
G01 X34.2598 Y5.5856
G01 X34.2462 Y5.5652
G01 X34.2008 Y5.4894
G01 X34.1892 Y5.4678
G01 X34.1515 Y5.3880
G01 X34.1421 Y5.3653
G01 X34.1123 Y5.2821
G01 X34.1052 Y5.2587
G01 X34.0837 Y5.1730
G01 X34.0789 Y5.1489
G01 X34.0660 Y5.0616
G01 X34.0636 Y5.0371
G01 X34.0592 Y4.9489
G01 X34.0589 Y4.9367
G01 X34.0589 Y3.1367
G01 X34.0592 Y3.1244
G01 X34.0636 Y3.0362
G01 X34.0660 Y3.0118
G01 X34.0789 Y2.9244
G01 X34.0837 Y2.9003
G01 X34.1052 Y2.8147
G01 X34.1123 Y2.7912
G01 X34.1421 Y2.7080
G01 X34.1515 Y2.6853
G01 X34.1892 Y2.6055
G01 X34.2008 Y2.5839
G01 X34.2462 Y2.5081
G01 X34.2598 Y2.4877
G01 X34.3124 Y2.4168
G01 X34.3280 Y2.3978
G01 X34.3873 Y2.3324
G01 X34.4047 Y2.3150
G01 X34.4701 Y2.2557
G01 X34.4891 Y2.2401
G01 X34.5600 Y2.1875
G01 X34.5804 Y2.1739
G01 X34.6562 Y2.1285
G01 X34.6778 Y2.1169
G01 X34.7576 Y2.0792
G01 X34.7803 Y2.0698
G01 X34.8635 Y2.0400
G01 X34.8869 Y2.0329
G01 X34.9726 Y2.0114
G01 X34.9967 Y2.0067
G01 X35.0840 Y1.9937
G01 X35.1085 Y1.9913
G01 X35.1967 Y1.9870
G01 X35.2212 Y1.9870
G01 X35.3094 Y1.9913
G01 X35.3338 Y1.9937
G01 X35.4212 Y2.0067
G01 X35.4453 Y2.0114
G01 X35.5309 Y2.0329
G01 X35.5544 Y2.0400
G01 X35.6376 Y2.0698
G01 X35.6602 Y2.0792
G01 X35.7401 Y2.1169
G01 X35.7617 Y2.1285
G01 X35.8375 Y2.1739
G01 X35.8579 Y2.1875
G01 X35.9288 Y2.2401
G01 X35.9478 Y2.2557
G01 X36.0132 Y2.3150
G01 X36.0306 Y2.3324
G01 X36.0899 Y2.3978
G01 X36.1055 Y2.4168
G01 X36.1581 Y2.4877
G01 X36.1717 Y2.5081
G01 X36.2171 Y2.5839
G01 X36.2287 Y2.6055
G01 X36.2664 Y2.6853
G01 X36.2758 Y2.7080
G01 X36.3056 Y2.7912
G01 X36.3127 Y2.8147
G01 X36.3342 Y2.9003
G01 X36.3389 Y2.9244
G01 X36.3519 Y3.0118
G01 X36.3543 Y3.0362
G01 X36.3586 Y3.1244
G01 X36.3589 Y3.1367
G01 X36.3589 Y4.9367
G01 X36.3586 Y4.9489
G01 X36.3543 Y5.0371
G01 X36.3519 Y5.0616
G01 X36.3389 Y5.1489
G01 X36.3342 Y5.1730
G01 X36.3127 Y5.2587
G01 X36.3056 Y5.2821
G01 X36.2940 Y5.3144
G01 X38.6004 Y7.6209
G01 X38.6254 Y7.6479
G01 X38.6410 Y7.6669
G01 X38.6556 Y7.6866
G01 X38.6692 Y7.7070
G01 X38.6818 Y7.7281
G01 X38.6934 Y7.7497
G01 X38.7039 Y7.7719
G01 X38.7133 Y7.7946
G01 X38.7215 Y7.8177
G01 X38.7287 Y7.8412
G01 X38.7346 Y7.8650
G01 X38.7394 Y7.8890
G01 X38.7430 Y7.9133
G01 X38.7454 Y7.9377
G01 X38.7469 Y7.9745
G01 X38.7469 Y9.4824
G01 X38.7454 Y9.5192
G01 X38.7430 Y9.5436
G01 X38.7394 Y9.5679
G01 X38.7346 Y9.5919
G01 X38.7287 Y9.6158
G01 X38.7215 Y9.6392
G01 X38.7133 Y9.6623
G01 X38.7039 Y9.6850
G01 X38.6934 Y9.7072
G01 X38.6818 Y9.7288
G01 X38.6692 Y9.7499
G01 X38.6556 Y9.7703
G01 X38.6410 Y9.7900
G01 X38.6254 Y9.8090
G01 X38.6004 Y9.8360
G01 X38.2178 Y10.2186
G01 X38.1908 Y10.2436
G01 X38.1718 Y10.2592
G01 X38.1521 Y10.2738
G01 X38.1317 Y10.2874
G01 X38.1106 Y10.3000
G01 X38.0890 Y10.3116
G01 X38.0668 Y10.3221
G01 X38.0441 Y10.3315
G01 X38.0210 Y10.3397
G01 X37.9976 Y10.3469
G01 X37.9737 Y10.3528
G01 X37.9497 Y10.3576
G01 X37.9254 Y10.3612
G01 X37.9010 Y10.3636
G01 X37.8642 Y10.3651
G01 X37.6041 Y10.3651
G01 X37.5825 Y10.3754
G01 X37.5594 Y10.3836
G01 X37.5356 Y10.3896
G01 X37.5113 Y10.3932
G01 X37.4868 Y10.3944
G01 X35.5056 Y10.3944
G01 X35.4811 Y10.3932
G01 X35.4568 Y10.3896
G01 X35.4330 Y10.3836
G01 X35.4099 Y10.3754
G01 X35.3878 Y10.3649
G01 X35.3667 Y10.3523
G01 X35.3470 Y10.3377
G01 X35.3288 Y10.3212
G01 X35.3123 Y10.3030
G01 X35.2977 Y10.2833
G01 X35.2851 Y10.2622
G01 X35.2746 Y10.2401
G01 X35.2664 Y10.2170
G01 X35.2604 Y10.1932
G01 X35.2568 Y10.1689
G01 X35.2556 Y10.1444
G01 X35.2556 Y9.5856
G01 X35.2568 Y9.5611
G01 X35.2604 Y9.5368
G01 X35.2664 Y9.5130
G01 X35.2746 Y9.4899
G01 X35.2851 Y9.4678
G01 X35.2977 Y9.4467
G01 X35.3123 Y9.4270
G01 X35.3288 Y9.4088
G01 X35.3470 Y9.3923
G01 X35.3667 Y9.3777
G01 X35.3878 Y9.3651
G01 X35.4099 Y9.3546
G01 X35.4330 Y9.3464
G01 X35.4568 Y9.3404
G01 X35.4811 Y9.3368
G01 X35.5056 Y9.3356
G01 X37.4868 Y9.3356
G01 X37.5113 Y9.3368
G01 X37.5356 Y9.3404
G01 X37.5594 Y9.3464
G01 X37.5825 Y9.3546
G01 X37.6041 Y9.3649
G01 X37.6570 Y9.3649
G01 X37.7467 Y9.2752
G01 X37.7467 Y8.1817
G01 X35.5867 Y6.0217
G00 Z2.0000
G00 X41.9239 Y6.0164
G01 F800.00
G01 Z-0.0300
G01 F350.00
G01 X41.9239 Y8.0656
G01 X42.4144 Y8.0656
G01 X42.4389 Y8.0668
G01 X42.4632 Y8.0704
G01 X42.4870 Y8.0764
G01 X42.5101 Y8.0846
G01 X42.5322 Y8.0951
G01 X42.5533 Y8.1077
G01 X42.5730 Y8.1223
G01 X42.5912 Y8.1388
G01 X42.6077 Y8.1570
G01 X42.6223 Y8.1767
G01 X42.6349 Y8.1978
G01 X42.6454 Y8.2199
G01 X42.6536 Y8.2430
G01 X42.6596 Y8.2668
G01 X42.6632 Y8.2911
G01 X42.6644 Y8.3156
G01 X42.6644 Y8.8744
G01 X42.6632 Y8.8989
G01 X42.6596 Y8.9232
G01 X42.6536 Y8.9470
G01 X42.6454 Y8.9701
G01 X42.6349 Y8.9922
G01 X42.6223 Y9.0133
G01 X42.6077 Y9.0330
G01 X42.5912 Y9.0512
G01 X42.5730 Y9.0677
G01 X42.5533 Y9.0823
G01 X42.5322 Y9.0949
G01 X42.5101 Y9.1054
G01 X42.4870 Y9.1136
G01 X42.4632 Y9.1196
G01 X42.4389 Y9.1232
G01 X42.4144 Y9.1244
G01 X40.4332 Y9.1244
G01 X40.4087 Y9.1232
G01 X40.3844 Y9.1196
G01 X40.3606 Y9.1136
G01 X40.3375 Y9.1054
G01 X40.3154 Y9.0949
G01 X40.2943 Y9.0823
G01 X40.2746 Y9.0677
G01 X40.2564 Y9.0512
G01 X40.2399 Y9.0330
G01 X40.2253 Y9.0133
G01 X40.2127 Y8.9922
G01 X40.2022 Y8.9701
G01 X40.1940 Y8.9470
G01 X40.1880 Y8.9232
G01 X40.1844 Y8.8989
G01 X40.1832 Y8.8744
G01 X40.1832 Y8.3156
G01 X40.1844 Y8.2911
G01 X40.1880 Y8.2668
G01 X40.1940 Y8.2430
G01 X40.2022 Y8.2199
G01 X40.2127 Y8.1978
G01 X40.2253 Y8.1767
G01 X40.2399 Y8.1570
G01 X40.2564 Y8.1388
G01 X40.2746 Y8.1223
G01 X40.2943 Y8.1077
G01 X40.3154 Y8.0951
G01 X40.3375 Y8.0846
G01 X40.3606 Y8.0764
G01 X40.3844 Y8.0704
G01 X40.4087 Y8.0668
G01 X40.4332 Y8.0656
G01 X40.9237 Y8.0656
G01 X40.9237 Y5.4418
G01 X40.9252 Y5.4050
G01 X40.9276 Y5.3806
G01 X40.9312 Y5.3563
G01 X40.9360 Y5.3323
G01 X40.9419 Y5.3084
G01 X40.9491 Y5.2850
G01 X40.9573 Y5.2619
G01 X40.9667 Y5.2392
G01 X40.9772 Y5.2170
G01 X40.9888 Y5.1954
G01 X41.0014 Y5.1743
G01 X41.0150 Y5.1539
G01 X41.0296 Y5.1342
G01 X41.0452 Y5.1152
G01 X41.0702 Y5.0882
G01 X41.6789 Y4.4794
G01 X41.6789 Y2.4867
G01 X41.6805 Y2.4499
G01 X41.6829 Y2.4255
G01 X41.6865 Y2.4012
G01 X41.6912 Y2.3771
G01 X41.6972 Y2.3533
G01 X41.7043 Y2.3299
G01 X41.7126 Y2.3068
G01 X41.7220 Y2.2841
G01 X41.7325 Y2.2619
G01 X41.7440 Y2.2403
G01 X41.7566 Y2.2192
G01 X41.7703 Y2.1988
G01 X41.7849 Y2.1791
G01 X41.8005 Y2.1602
G01 X41.8169 Y2.1420
G01 X41.8343 Y2.1246
G01 X41.8525 Y2.1082
G01 X41.8714 Y2.0926
G01 X41.8911 Y2.0780
G01 X41.9115 Y2.0644
G01 X41.9326 Y2.0517
G01 X41.9542 Y2.0402
G01 X41.9764 Y2.0297
G01 X41.9991 Y2.0203
G01 X42.0222 Y2.0120
G01 X42.0456 Y2.0049
G01 X42.0694 Y1.9989
G01 X42.0935 Y1.9942
G01 X42.1178 Y1.9906
G01 X42.1422 Y1.9882
G01 X42.1789 Y1.9867
G01 X43.4789 Y1.9867
G01 X43.4912 Y1.9870
G01 X43.5157 Y1.9882
G01 X43.5401 Y1.9906
G01 X43.5644 Y1.9942
G01 X43.5885 Y1.9989
G01 X43.6123 Y2.0049
G01 X43.6357 Y2.0120
G01 X43.6588 Y2.0203
G01 X43.6815 Y2.0297
G01 X43.7037 Y2.0402
G01 X43.7253 Y2.0517
G01 X43.7464 Y2.0644
G01 X43.7668 Y2.0780
G01 X43.7865 Y2.0926
G01 X43.8054 Y2.1082
G01 X43.8236 Y2.1246
G01 X43.8410 Y2.1420
G01 X43.8574 Y2.1602
G01 X43.8730 Y2.1791
G01 X43.8876 Y2.1988
G01 X43.9012 Y2.2192
G01 X43.9139 Y2.2403
G01 X43.9254 Y2.2619
G01 X43.9359 Y2.2841
G01 X43.9453 Y2.3068
G01 X43.9536 Y2.3299
G01 X43.9607 Y2.3533
G01 X43.9666 Y2.3771
G01 X43.9714 Y2.4012
G01 X43.9750 Y2.4255
G01 X43.9774 Y2.4499
G01 X43.9789 Y2.4867
G01 X43.9789 Y5.5867
G01 X43.9774 Y5.6234
G01 X43.9750 Y5.6478
G01 X43.9714 Y5.6721
G01 X43.9666 Y5.6962
G01 X43.9607 Y5.7200
G01 X43.9536 Y5.7434
G01 X43.9453 Y5.7665
G01 X43.9359 Y5.7892
G01 X43.9254 Y5.8114
G01 X43.9139 Y5.8330
G01 X43.9012 Y5.8541
G01 X43.8876 Y5.8745
G01 X43.8730 Y5.8942
G01 X43.8574 Y5.9131
G01 X43.8410 Y5.9313
G01 X43.8236 Y5.9487
G01 X43.8054 Y5.9651
G01 X43.7865 Y5.9807
G01 X43.7668 Y5.9953
G01 X43.7464 Y6.0090
G01 X43.7253 Y6.0216
G01 X43.7037 Y6.0331
G01 X43.6815 Y6.0436
G01 X43.6588 Y6.0530
G01 X43.6357 Y6.0613
G01 X43.6123 Y6.0684
G01 X43.5885 Y6.0744
G01 X43.5644 Y6.0791
G01 X43.5401 Y6.0827
G01 X43.5157 Y6.0851
G01 X43.4789 Y6.0867
G01 X42.1789 Y6.0867
G01 X42.1667 Y6.0864
G01 X42.1422 Y6.0851
G01 X42.1178 Y6.0827
G01 X42.0935 Y6.0791
G01 X42.0694 Y6.0744
G01 X42.0456 Y6.0684
G01 X42.0222 Y6.0613
G01 X41.9991 Y6.0530
G01 X41.9764 Y6.0436
G01 X41.9542 Y6.0331
G01 X41.9326 Y6.0216
G01 X41.9239 Y6.0164
G00 Z2.0000
G00 X42.5317 Y10.6349
G01 F800.00
G01 Z-0.0300
G01 F350.00
G01 X42.7918 Y10.6349
G01 X42.8286 Y10.6364
G01 X42.8530 Y10.6388
G01 X42.8773 Y10.6424
G01 X42.9013 Y10.6472
G01 X42.9252 Y10.6531
G01 X42.9486 Y10.6603
G01 X42.9717 Y10.6685
G01 X42.9944 Y10.6779
G01 X43.0166 Y10.6884
G01 X43.0382 Y10.7000
G01 X43.0593 Y10.7126
G01 X43.0797 Y10.7262
G01 X43.0994 Y10.7408
G01 X43.1184 Y10.7564
G01 X43.1454 Y10.7814
G01 X43.5280 Y11.1640
G01 X43.5365 Y11.1728
G01 X43.5530 Y11.1910
G01 X43.5686 Y11.2100
G01 X43.5832 Y11.2297
G01 X43.5968 Y11.2501
G01 X43.6094 Y11.2712
G01 X43.6210 Y11.2928
G01 X43.6315 Y11.3150
G01 X43.6409 Y11.3377
G01 X43.6491 Y11.3608
G01 X43.6563 Y11.3842
G01 X43.6622 Y11.4081
G01 X43.6670 Y11.4321
G01 X43.6706 Y11.4564
G01 X43.6730 Y11.4808
G01 X43.6745 Y11.5176
G01 X43.6745 Y13.8478
G01 X43.6730 Y13.8846
G01 X43.6706 Y13.9090
G01 X43.6670 Y13.9333
G01 X43.6622 Y13.9573
G01 X43.6563 Y13.9811
G01 X43.6491 Y14.0046
G01 X43.6409 Y14.0277
G01 X43.6315 Y14.0504
G01 X43.6210 Y14.0726
G01 X43.6094 Y14.0942
G01 X43.5968 Y14.1153
G01 X43.5832 Y14.1357
G01 X43.5686 Y14.1554
G01 X43.5530 Y14.1744
G01 X43.5280 Y14.2014
G01 X41.9998 Y15.7297
G01 X41.9727 Y15.7546
G01 X41.9538 Y15.7702
G01 X41.9340 Y15.7848
G01 X41.9136 Y15.7984
G01 X41.8926 Y15.8111
G01 X41.8710 Y15.8226
G01 X41.8488 Y15.8331
G01 X41.8261 Y15.8425
G01 X41.8030 Y15.8508
G01 X41.7795 Y15.8579
G01 X41.7557 Y15.8639
G01 X41.7316 Y15.8686
G01 X41.7074 Y15.8723
G01 X41.6829 Y15.8747
G01 X41.6462 Y15.8762
G01 X41.3962 Y15.8762
G01 X41.3962 Y16.2260
G01 X41.3950 Y16.2505
G01 X41.3914 Y16.2748
G01 X41.3854 Y16.2986
G01 X41.3771 Y16.3217
G01 X41.3666 Y16.3439
G01 X41.3540 Y16.3649
G01 X41.3394 Y16.3846
G01 X41.3229 Y16.4028
G01 X41.3048 Y16.4193
G01 X41.2850 Y16.4339
G01 X41.2640 Y16.4465
G01 X41.2418 Y16.4570
G01 X41.2187 Y16.4653
G01 X41.1949 Y16.4712
G01 X41.1707 Y16.4748
G01 X41.1462 Y16.4760
G01 X39.4462 Y16.4760
G01 X39.4216 Y16.4748
G01 X39.3974 Y16.4712
G01 X39.3736 Y16.4653
G01 X39.3505 Y16.4570
G01 X39.3283 Y16.4465
G01 X39.3073 Y16.4339
G01 X39.2876 Y16.4193
G01 X39.2694 Y16.4028
G01 X39.2529 Y16.3846
G01 X39.2383 Y16.3649
G01 X39.2257 Y16.3439
G01 X39.2152 Y16.3217
G01 X39.2069 Y16.2986
G01 X39.2010 Y16.2748
G01 X39.1974 Y16.2505
G01 X39.1962 Y16.2260
G01 X39.1962 Y14.5260
G01 X39.1974 Y14.5015
G01 X39.2010 Y14.4773
G01 X39.2069 Y14.4535
G01 X39.2152 Y14.4304
G01 X39.2257 Y14.4082
G01 X39.2383 Y14.3871
G01 X39.2529 Y14.3674
G01 X39.2694 Y14.3493
G01 X39.2876 Y14.3328
G01 X39.3073 Y14.3182
G01 X39.3283 Y14.3056
G01 X39.3505 Y14.2951
G01 X39.3736 Y14.2868
G01 X39.3974 Y14.2808
G01 X39.4216 Y14.2772
G01 X39.4462 Y14.2760
G01 X41.1462 Y14.2760
G01 X41.1707 Y14.2772
G01 X41.1949 Y14.2808
G01 X41.2187 Y14.2868
G01 X41.2418 Y14.2951
G01 X41.2640 Y14.3056
G01 X41.2850 Y14.3182
G01 X41.3048 Y14.3328
G01 X41.3229 Y14.3493
G01 X41.3394 Y14.3674
G01 X41.3540 Y14.3871
G01 X41.3666 Y14.4082
G01 X41.3771 Y14.4304
G01 X41.3854 Y14.4535
G01 X41.3914 Y14.4773
G01 X41.3950 Y14.5015
G01 X41.3962 Y14.5260
G01 X41.3962 Y14.8759
G01 X41.4390 Y14.8759
G01 X42.6743 Y13.6406
G01 X42.6743 Y11.7248
G01 X42.5846 Y11.6351
G01 X42.5317 Y11.6351
G01 X42.5101 Y11.6454
G01 X42.4870 Y11.6536
G01 X42.4632 Y11.6596
G01 X42.4389 Y11.6632
G01 X42.4144 Y11.6644
G01 X40.4332 Y11.6644
G01 X40.4087 Y11.6632
G01 X40.3844 Y11.6596
G01 X40.3606 Y11.6536
G01 X40.3375 Y11.6454
G01 X40.3154 Y11.6349
G01 X40.2943 Y11.6223
G01 X40.2746 Y11.6077
G01 X40.2564 Y11.5912
G01 X40.2399 Y11.5730
G01 X40.2253 Y11.5533
G01 X40.2127 Y11.5322
G01 X40.2022 Y11.5101
G01 X40.1940 Y11.4870
G01 X40.1880 Y11.4632
G01 X40.1844 Y11.4389
G01 X40.1832 Y11.4144
G01 X40.1832 Y10.8556
G01 X40.1844 Y10.8311
G01 X40.1880 Y10.8068
G01 X40.1940 Y10.7830
G01 X40.2022 Y10.7599
G01 X40.2127 Y10.7378
G01 X40.2253 Y10.7167
G01 X40.2399 Y10.6970
G01 X40.2564 Y10.6788
G01 X40.2746 Y10.6623
G01 X40.2943 Y10.6477
G01 X40.3154 Y10.6351
G01 X40.3375 Y10.6246
G01 X40.3606 Y10.6164
G01 X40.3844 Y10.6104
G01 X40.4087 Y10.6068
G01 X40.4332 Y10.6056
G01 X40.9237 Y10.6056
G01 X40.9237 Y10.3944
G01 X40.4332 Y10.3944
G01 X40.4087 Y10.3932
G01 X40.3844 Y10.3896
G01 X40.3606 Y10.3836
G01 X40.3375 Y10.3754
G01 X40.3154 Y10.3649
G01 X40.2943 Y10.3523
G01 X40.2746 Y10.3377
G01 X40.2564 Y10.3212
G01 X40.2399 Y10.3030
G01 X40.2253 Y10.2833
G01 X40.2127 Y10.2622
G01 X40.2022 Y10.2401
G01 X40.1940 Y10.2170
G01 X40.1880 Y10.1932
G01 X40.1844 Y10.1689
G01 X40.1832 Y10.1444
G01 X40.1832 Y9.5856
G01 X40.1844 Y9.5611
G01 X40.1880 Y9.5368
G01 X40.1940 Y9.5130
G01 X40.2022 Y9.4899
G01 X40.2127 Y9.4678
G01 X40.2253 Y9.4467
G01 X40.2399 Y9.4270
G01 X40.2564 Y9.4088
G01 X40.2746 Y9.3923
G01 X40.2943 Y9.3777
G01 X40.3154 Y9.3651
G01 X40.3375 Y9.3546
G01 X40.3606 Y9.3464
G01 X40.3844 Y9.3404
G01 X40.4087 Y9.3368
G01 X40.4332 Y9.3356
G01 X42.4144 Y9.3356
G01 X42.4389 Y9.3368
G01 X42.4632 Y9.3404
G01 X42.4870 Y9.3464
G01 X42.5101 Y9.3546
G01 X42.5322 Y9.3651
G01 X42.5533 Y9.3777
G01 X42.5730 Y9.3923
G01 X42.5912 Y9.4088
G01 X42.6077 Y9.4270
G01 X42.6223 Y9.4467
G01 X42.6349 Y9.4678
G01 X42.6454 Y9.4899
G01 X42.6536 Y9.5130
G01 X42.6596 Y9.5368
G01 X42.6632 Y9.5611
G01 X42.6644 Y9.5856
G01 X42.6644 Y10.1444
G01 X42.6632 Y10.1689
G01 X42.6596 Y10.1932
G01 X42.6536 Y10.2170
G01 X42.6454 Y10.2401
G01 X42.6349 Y10.2622
G01 X42.6223 Y10.2833
G01 X42.6077 Y10.3030
G01 X42.5912 Y10.3212
G01 X42.5730 Y10.3377
G01 X42.5533 Y10.3523
G01 X42.5322 Y10.3649
G01 X42.5101 Y10.3754
G01 X42.4870 Y10.3836
G01 X42.4632 Y10.3896
G01 X42.4389 Y10.3932
G01 X42.4144 Y10.3944
G01 X41.9239 Y10.3944
G01 X41.9239 Y10.6056
G01 X42.4144 Y10.6056
G01 X42.4389 Y10.6068
G01 X42.4632 Y10.6104
G01 X42.4870 Y10.6164
G01 X42.5101 Y10.6246
G01 X42.5317 Y10.6349
G00 Z2.0000
G00 X49.1439 Y8.0656
G01 F800.00
G01 Z-0.0300
G01 F350.00
G01 X48.5456 Y8.0656
G01 X48.5211 Y8.0668
G01 X48.4968 Y8.0704
G01 X48.4730 Y8.0764
G01 X48.4499 Y8.0846
G01 X48.4388 Y8.0899
G01 X48.4166 Y8.0899
G01 X48.4457 Y8.0743
G01 X48.4947 Y8.0595
G01 X48.5690 Y8.0522
G01 X49.1331 Y8.0548
G01 X49.1439 Y8.0656
G00 Z2.0000
G00 X48.6267 Y6.0217
G01 F800.00
G01 Z-0.0300
G01 F350.00
G01 X48.5944 Y6.0333
G01 X48.5709 Y6.0404
G01 X48.4853 Y6.0619
G01 X48.4612 Y6.0667
G01 X48.3738 Y6.0796
G01 X48.3494 Y6.0820
G01 X48.2612 Y6.0864
G01 X48.2367 Y6.0864
G01 X48.1485 Y6.0820
G01 X48.1240 Y6.0796
G01 X48.0367 Y6.0667
G01 X48.0126 Y6.0619
G01 X47.9269 Y6.0404
G01 X47.9035 Y6.0333
G01 X47.8203 Y6.0035
G01 X47.7976 Y5.9941
G01 X47.7178 Y5.9564
G01 X47.6962 Y5.9448
G01 X47.6204 Y5.8994
G01 X47.6000 Y5.8858
G01 X47.5291 Y5.8332
G01 X47.5101 Y5.8176
G01 X47.4447 Y5.7583
G01 X47.4273 Y5.7409
G01 X47.3680 Y5.6755
G01 X47.3524 Y5.6565
G01 X47.2998 Y5.5856
G01 X47.2862 Y5.5652
G01 X47.2408 Y5.4894
G01 X47.2292 Y5.4678
G01 X47.1915 Y5.3880
G01 X47.1821 Y5.3653
G01 X47.1523 Y5.2821
G01 X47.1452 Y5.2587
G01 X47.1237 Y5.1730
G01 X47.1189 Y5.1489
G01 X47.1060 Y5.0616
G01 X47.1036 Y5.0371
G01 X47.0992 Y4.9489
G01 X47.0989 Y4.9367
G01 X47.0989 Y3.1367
G01 X47.0992 Y3.1244
G01 X47.1036 Y3.0362
G01 X47.1060 Y3.0118
G01 X47.1189 Y2.9244
G01 X47.1237 Y2.9003
G01 X47.1452 Y2.8147
G01 X47.1523 Y2.7912
G01 X47.1821 Y2.7080
G01 X47.1915 Y2.6853
G01 X47.2292 Y2.6055
G01 X47.2408 Y2.5839
G01 X47.2862 Y2.5081
G01 X47.2998 Y2.4877
G01 X47.3524 Y2.4168
G01 X47.3680 Y2.3978
G01 X47.4273 Y2.3324
G01 X47.4447 Y2.3150
G01 X47.5101 Y2.2557
G01 X47.5291 Y2.2401
G01 X47.6000 Y2.1875
G01 X47.6204 Y2.1739
G01 X47.6962 Y2.1285
G01 X47.7178 Y2.1169
G01 X47.7976 Y2.0792
G01 X47.8203 Y2.0698
G01 X47.9035 Y2.0400
G01 X47.9269 Y2.0329
G01 X48.0126 Y2.0114
G01 X48.0367 Y2.0067
G01 X48.1240 Y1.9937
G01 X48.1485 Y1.9913
G01 X48.2367 Y1.9870
G01 X48.2612 Y1.9870
G01 X48.3494 Y1.9913
G01 X48.3738 Y1.9937
G01 X48.4612 Y2.0067
G01 X48.4853 Y2.0114
G01 X48.5709 Y2.0329
G01 X48.5944 Y2.0400
G01 X48.6776 Y2.0698
G01 X48.7002 Y2.0792
G01 X48.7801 Y2.1169
G01 X48.8017 Y2.1285
G01 X48.8775 Y2.1739
G01 X48.8979 Y2.1875
G01 X48.9688 Y2.2401
G01 X48.9878 Y2.2557
G01 X49.0532 Y2.3150
G01 X49.0706 Y2.3324
G01 X49.1299 Y2.3978
G01 X49.1455 Y2.4168
G01 X49.1981 Y2.4877
G01 X49.2117 Y2.5081
G01 X49.2571 Y2.5839
G01 X49.2687 Y2.6055
G01 X49.3064 Y2.6853
G01 X49.3158 Y2.7080
G01 X49.3456 Y2.7912
G01 X49.3527 Y2.8147
G01 X49.3742 Y2.9003
G01 X49.3789 Y2.9244
G01 X49.3919 Y3.0118
G01 X49.3943 Y3.0362
G01 X49.3986 Y3.1244
G01 X49.3989 Y3.1367
G01 X49.3989 Y4.9367
G01 X49.3986 Y4.9489
G01 X49.3943 Y5.0371
G01 X49.3919 Y5.0616
G01 X49.3789 Y5.1489
G01 X49.3742 Y5.1730
G01 X49.3527 Y5.2587
G01 X49.3456 Y5.2821
G01 X49.3340 Y5.3144
G01 X51.6404 Y7.6209
G01 X51.6654 Y7.6479
G01 X51.6810 Y7.6669
G01 X51.6956 Y7.6866
G01 X51.7092 Y7.7070
G01 X51.7218 Y7.7281
G01 X51.7334 Y7.7497
G01 X51.7439 Y7.7719
G01 X51.7533 Y7.7946
G01 X51.7615 Y7.8177
G01 X51.7687 Y7.8412
G01 X51.7746 Y7.8650
G01 X51.7794 Y7.8890
G01 X51.7830 Y7.9133
G01 X51.7854 Y7.9377
G01 X51.7869 Y7.9745
G01 X51.7869 Y9.6050
G01 X51.7854 Y9.6418
G01 X51.7830 Y9.6662
G01 X51.7794 Y9.6905
G01 X51.7746 Y9.7145
G01 X51.7687 Y9.7384
G01 X51.7615 Y9.7618
G01 X51.7533 Y9.7849
G01 X51.7439 Y9.8076
G01 X51.7334 Y9.8298
G01 X51.7218 Y9.8514
G01 X51.7092 Y9.8725
G01 X51.6956 Y9.8929
G01 X51.6810 Y9.9126
G01 X51.6654 Y9.9316
G01 X51.6404 Y9.9586
G01 X51.3804 Y10.2186
G01 X51.3534 Y10.2436
G01 X51.3344 Y10.2592
G01 X51.3147 Y10.2738
G01 X51.2943 Y10.2874
G01 X51.2732 Y10.3000
G01 X51.2516 Y10.3116
G01 X51.2294 Y10.3221
G01 X51.2067 Y10.3315
G01 X51.1836 Y10.3397
G01 X51.1602 Y10.3469
G01 X51.1363 Y10.3528
G01 X51.1123 Y10.3576
G01 X51.0880 Y10.3612
G01 X51.0636 Y10.3636
G01 X51.0268 Y10.3651
G01 X50.6441 Y10.3651
G01 X50.6225 Y10.3754
G01 X50.5994 Y10.3836
G01 X50.5756 Y10.3896
G01 X50.5513 Y10.3932
G01 X50.5268 Y10.3944
G01 X48.5456 Y10.3944
G01 X48.5211 Y10.3932
G01 X48.4968 Y10.3896
G01 X48.4730 Y10.3836
G01 X48.4499 Y10.3754
G01 X48.4278 Y10.3649
G01 X48.4067 Y10.3523
G01 X48.3870 Y10.3377
G01 X48.3688 Y10.3212
G01 X48.3523 Y10.3030
G01 X48.3377 Y10.2833
G01 X48.3251 Y10.2622
G01 X48.3146 Y10.2401
G01 X48.3064 Y10.2170
G01 X48.3004 Y10.1932
G01 X48.2968 Y10.1689
G01 X48.2956 Y10.1444
G01 X48.2956 Y9.5856
G01 X48.2968 Y9.5611
G01 X48.3004 Y9.5368
G01 X48.3064 Y9.5130
G01 X48.3146 Y9.4899
G01 X48.3251 Y9.4678
G01 X48.3377 Y9.4467
G01 X48.3523 Y9.4270
G01 X48.3688 Y9.4088
G01 X48.3870 Y9.3923
G01 X48.4067 Y9.3777
G01 X48.4278 Y9.3651
G01 X48.4499 Y9.3546
G01 X48.4730 Y9.3464
G01 X48.4968 Y9.3404
G01 X48.5211 Y9.3368
G01 X48.5456 Y9.3356
G01 X50.5268 Y9.3356
G01 X50.5513 Y9.3368
G01 X50.5756 Y9.3404
G01 X50.5994 Y9.3464
G01 X50.6225 Y9.3546
G01 X50.6441 Y9.3649
G01 X50.7867 Y9.3649
G01 X50.7867 Y8.1817
G01 X48.6267 Y6.0217
G00 Z2.0000
G00 X54.9639 Y6.0164
G01 F800.00
G01 Z-0.0300
G01 F350.00
G01 X54.9639 Y8.0656
G01 X55.4544 Y8.0656
G01 X55.4789 Y8.0668
G01 X55.5032 Y8.0704
G01 X55.5270 Y8.0764
G01 X55.5501 Y8.0846
G01 X55.5722 Y8.0951
G01 X55.5933 Y8.1077
G01 X55.6130 Y8.1223
G01 X55.6312 Y8.1388
G01 X55.6477 Y8.1570
G01 X55.6623 Y8.1767
G01 X55.6749 Y8.1978
G01 X55.6854 Y8.2199
G01 X55.6936 Y8.2430
G01 X55.6996 Y8.2668
G01 X55.7032 Y8.2911
G01 X55.7044 Y8.3156
G01 X55.7044 Y8.8744
G01 X55.7032 Y8.8989
G01 X55.6996 Y8.9232
G01 X55.6936 Y8.9470
G01 X55.6854 Y8.9701
G01 X55.6749 Y8.9922
G01 X55.6623 Y9.0133
G01 X55.6477 Y9.0330
G01 X55.6312 Y9.0512
G01 X55.6130 Y9.0677
G01 X55.5933 Y9.0823
G01 X55.5722 Y9.0949
G01 X55.5501 Y9.1054
G01 X55.5270 Y9.1136
G01 X55.5032 Y9.1196
G01 X55.4789 Y9.1232
G01 X55.4544 Y9.1244
G01 X53.4732 Y9.1244
G01 X53.4487 Y9.1232
G01 X53.4244 Y9.1196
G01 X53.4006 Y9.1136
G01 X53.3775 Y9.1054
G01 X53.3554 Y9.0949
G01 X53.3343 Y9.0823
G01 X53.3146 Y9.0677
G01 X53.2964 Y9.0512
G01 X53.2799 Y9.0330
G01 X53.2653 Y9.0133
G01 X53.2527 Y8.9922
G01 X53.2422 Y8.9701
G01 X53.2340 Y8.9470
G01 X53.2280 Y8.9232
G01 X53.2244 Y8.8989
G01 X53.2232 Y8.8744
G01 X53.2232 Y8.3156
G01 X53.2244 Y8.2911
G01 X53.2280 Y8.2668
G01 X53.2340 Y8.2430
G01 X53.2422 Y8.2199
G01 X53.2527 Y8.1978
G01 X53.2653 Y8.1767
G01 X53.2799 Y8.1570
G01 X53.2964 Y8.1388
G01 X53.3146 Y8.1223
G01 X53.3343 Y8.1077
G01 X53.3554 Y8.0951
G01 X53.3775 Y8.0846
G01 X53.4006 Y8.0764
G01 X53.4244 Y8.0704
G01 X53.4487 Y8.0668
G01 X53.4732 Y8.0656
G01 X53.9637 Y8.0656
G01 X53.9637 Y5.4418
G01 X53.9652 Y5.4050
G01 X53.9676 Y5.3806
G01 X53.9712 Y5.3563
G01 X53.9760 Y5.3323
G01 X53.9819 Y5.3084
G01 X53.9891 Y5.2850
G01 X53.9973 Y5.2619
G01 X54.0067 Y5.2392
G01 X54.0172 Y5.2170
G01 X54.0288 Y5.1954
G01 X54.0414 Y5.1743
G01 X54.0550 Y5.1539
G01 X54.0696 Y5.1342
G01 X54.0852 Y5.1152
G01 X54.1102 Y5.0882
G01 X54.7189 Y4.4794
G01 X54.7189 Y2.4867
G01 X54.7205 Y2.4499
G01 X54.7229 Y2.4255
G01 X54.7265 Y2.4012
G01 X54.7312 Y2.3771
G01 X54.7372 Y2.3533
G01 X54.7443 Y2.3299
G01 X54.7526 Y2.3068
G01 X54.7620 Y2.2841
G01 X54.7725 Y2.2619
G01 X54.7840 Y2.2403
G01 X54.7966 Y2.2192
G01 X54.8103 Y2.1988
G01 X54.8249 Y2.1791
G01 X54.8405 Y2.1602
G01 X54.8569 Y2.1420
G01 X54.8743 Y2.1246
G01 X54.8925 Y2.1082
G01 X54.9114 Y2.0926
G01 X54.9311 Y2.0780
G01 X54.9515 Y2.0644
G01 X54.9726 Y2.0517
G01 X54.9942 Y2.0402
G01 X55.0164 Y2.0297
G01 X55.0391 Y2.0203
G01 X55.0622 Y2.0120
G01 X55.0856 Y2.0049
G01 X55.1094 Y1.9989
G01 X55.1335 Y1.9942
G01 X55.1578 Y1.9906
G01 X55.1822 Y1.9882
G01 X55.2189 Y1.9867
G01 X56.5189 Y1.9867
G01 X56.5312 Y1.9870
G01 X56.5557 Y1.9882
G01 X56.5801 Y1.9906
G01 X56.6044 Y1.9942
G01 X56.6285 Y1.9989
G01 X56.6523 Y2.0049
G01 X56.6757 Y2.0120
G01 X56.6988 Y2.0203
G01 X56.7215 Y2.0297
G01 X56.7437 Y2.0402
G01 X56.7653 Y2.0517
G01 X56.7864 Y2.0644
G01 X56.8068 Y2.0780
G01 X56.8265 Y2.0926
G01 X56.8454 Y2.1082
G01 X56.8636 Y2.1246
G01 X56.8810 Y2.1420
G01 X56.8974 Y2.1602
G01 X56.9130 Y2.1791
G01 X56.9276 Y2.1988
G01 X56.9412 Y2.2192
G01 X56.9539 Y2.2403
G01 X56.9654 Y2.2619
G01 X56.9759 Y2.2841
G01 X56.9853 Y2.3068
G01 X56.9936 Y2.3299
G01 X57.0007 Y2.3533
G01 X57.0066 Y2.3771
G01 X57.0114 Y2.4012
G01 X57.0150 Y2.4255
G01 X57.0174 Y2.4499
G01 X57.0189 Y2.4867
G01 X57.0189 Y5.5867
G01 X57.0174 Y5.6234
G01 X57.0150 Y5.6478
G01 X57.0114 Y5.6721
G01 X57.0066 Y5.6962
G01 X57.0007 Y5.7200
G01 X56.9936 Y5.7434
G01 X56.9853 Y5.7665
G01 X56.9759 Y5.7892
G01 X56.9654 Y5.8114
G01 X56.9539 Y5.8330
G01 X56.9412 Y5.8541
G01 X56.9276 Y5.8745
G01 X56.9130 Y5.8942
G01 X56.8974 Y5.9131
G01 X56.8810 Y5.9313
G01 X56.8636 Y5.9487
G01 X56.8454 Y5.9651
G01 X56.8265 Y5.9807
G01 X56.8068 Y5.9953
G01 X56.7864 Y6.0090
G01 X56.7653 Y6.0216
G01 X56.7437 Y6.0331
G01 X56.7215 Y6.0436
G01 X56.6988 Y6.0530
G01 X56.6757 Y6.0613
G01 X56.6523 Y6.0684
G01 X56.6285 Y6.0744
G01 X56.6044 Y6.0791
G01 X56.5801 Y6.0827
G01 X56.5557 Y6.0851
G01 X56.5189 Y6.0867
G01 X55.2189 Y6.0867
G01 X55.2067 Y6.0864
G01 X55.1822 Y6.0851
G01 X55.1578 Y6.0827
G01 X55.1335 Y6.0791
G01 X55.1094 Y6.0744
G01 X55.0856 Y6.0684
G01 X55.0622 Y6.0613
G01 X55.0391 Y6.0530
G01 X55.0164 Y6.0436
G01 X54.9942 Y6.0331
G01 X54.9726 Y6.0216
G01 X54.9639 Y6.0164
G00 Z2.0000
G00 X55.5717 Y10.6349
G01 F800.00
G01 Z-0.0300
G01 F350.00
G01 X55.8318 Y10.6349
G01 X55.8686 Y10.6364
G01 X55.8930 Y10.6388
G01 X55.9173 Y10.6424
G01 X55.9413 Y10.6472
G01 X55.9652 Y10.6531
G01 X55.9886 Y10.6603
G01 X56.0117 Y10.6685
G01 X56.0344 Y10.6779
G01 X56.0566 Y10.6884
G01 X56.0782 Y10.7000
G01 X56.0993 Y10.7126
G01 X56.1197 Y10.7262
G01 X56.1394 Y10.7408
G01 X56.1584 Y10.7564
G01 X56.1854 Y10.7814
G01 X56.5680 Y11.1640
G01 X56.5765 Y11.1728
G01 X56.5930 Y11.1910
G01 X56.6086 Y11.2100
G01 X56.6232 Y11.2297
G01 X56.6368 Y11.2501
G01 X56.6494 Y11.2712
G01 X56.6610 Y11.2928
G01 X56.6715 Y11.3150
G01 X56.6809 Y11.3377
G01 X56.6891 Y11.3608
G01 X56.6963 Y11.3842
G01 X56.7022 Y11.4081
G01 X56.7070 Y11.4321
G01 X56.7106 Y11.4564
G01 X56.7130 Y11.4808
G01 X56.7145 Y11.5176
G01 X56.7145 Y13.8478
G01 X56.7130 Y13.8846
G01 X56.7106 Y13.9090
G01 X56.7070 Y13.9333
G01 X56.7022 Y13.9573
G01 X56.6963 Y13.9811
G01 X56.6891 Y14.0046
G01 X56.6809 Y14.0277
G01 X56.6715 Y14.0504
G01 X56.6610 Y14.0726
G01 X56.6494 Y14.0942
G01 X56.6368 Y14.1153
G01 X56.6232 Y14.1357
G01 X56.6086 Y14.1554
G01 X56.5930 Y14.1744
G01 X56.5680 Y14.2014
G01 X55.0398 Y15.7297
G01 X55.0127 Y15.7546
G01 X54.9938 Y15.7702
G01 X54.9740 Y15.7848
G01 X54.9536 Y15.7984
G01 X54.9326 Y15.8111
G01 X54.9110 Y15.8226
G01 X54.8888 Y15.8331
G01 X54.8661 Y15.8425
G01 X54.8430 Y15.8508
G01 X54.8195 Y15.8579
G01 X54.7957 Y15.8639
G01 X54.7716 Y15.8686
G01 X54.7474 Y15.8723
G01 X54.7229 Y15.8747
G01 X54.6862 Y15.8762
G01 X54.4362 Y15.8762
G01 X54.4362 Y16.2260
G01 X54.4350 Y16.2505
G01 X54.4314 Y16.2748
G01 X54.4254 Y16.2986
G01 X54.4171 Y16.3217
G01 X54.4066 Y16.3439
G01 X54.3940 Y16.3649
G01 X54.3794 Y16.3846
G01 X54.3629 Y16.4028
G01 X54.3448 Y16.4193
G01 X54.3250 Y16.4339
G01 X54.3040 Y16.4465
G01 X54.2818 Y16.4570
G01 X54.2587 Y16.4653
G01 X54.2349 Y16.4712
G01 X54.2107 Y16.4748
G01 X54.1862 Y16.4760
G01 X52.4862 Y16.4760
G01 X52.4616 Y16.4748
G01 X52.4374 Y16.4712
G01 X52.4136 Y16.4653
G01 X52.3905 Y16.4570
G01 X52.3683 Y16.4465
G01 X52.3473 Y16.4339
G01 X52.3276 Y16.4193
G01 X52.3094 Y16.4028
G01 X52.2929 Y16.3846
G01 X52.2783 Y16.3649
G01 X52.2657 Y16.3439
G01 X52.2552 Y16.3217
G01 X52.2469 Y16.2986
G01 X52.2410 Y16.2748
G01 X52.2374 Y16.2505
G01 X52.2362 Y16.2260
G01 X52.2362 Y14.5260
G01 X52.2374 Y14.5015
G01 X52.2410 Y14.4773
G01 X52.2469 Y14.4535
G01 X52.2552 Y14.4304
G01 X52.2657 Y14.4082
G01 X52.2783 Y14.3871
G01 X52.2929 Y14.3674
G01 X52.3094 Y14.3493
G01 X52.3276 Y14.3328
G01 X52.3473 Y14.3182
G01 X52.3683 Y14.3056
G01 X52.3905 Y14.2951
G01 X52.4136 Y14.2868
G01 X52.4374 Y14.2808
G01 X52.4616 Y14.2772
G01 X52.4862 Y14.2760
G01 X54.1862 Y14.2760
G01 X54.2107 Y14.2772
G01 X54.2349 Y14.2808
G01 X54.2587 Y14.2868
G01 X54.2818 Y14.2951
G01 X54.3040 Y14.3056
G01 X54.3250 Y14.3182
G01 X54.3448 Y14.3328
G01 X54.3629 Y14.3493
G01 X54.3794 Y14.3674
G01 X54.3940 Y14.3871
G01 X54.4066 Y14.4082
G01 X54.4171 Y14.4304
G01 X54.4254 Y14.4535
G01 X54.4314 Y14.4773
G01 X54.4350 Y14.5015
G01 X54.4362 Y14.5260
G01 X54.4362 Y14.8759
G01 X54.4790 Y14.8759
G01 X55.7143 Y13.6406
G01 X55.7143 Y11.7248
G01 X55.6246 Y11.6351
G01 X55.5717 Y11.6351
G01 X55.5501 Y11.6454
G01 X55.5270 Y11.6536
G01 X55.5032 Y11.6596
G01 X55.4789 Y11.6632
G01 X55.4544 Y11.6644
G01 X53.4732 Y11.6644
G01 X53.4487 Y11.6632
G01 X53.4244 Y11.6596
G01 X53.4006 Y11.6536
G01 X53.3775 Y11.6454
G01 X53.3554 Y11.6349
G01 X53.3343 Y11.6223
G01 X53.3146 Y11.6077
G01 X53.2964 Y11.5912
G01 X53.2799 Y11.5730
G01 X53.2653 Y11.5533
G01 X53.2527 Y11.5322
G01 X53.2422 Y11.5101
G01 X53.2340 Y11.4870
G01 X53.2280 Y11.4632
G01 X53.2244 Y11.4389
G01 X53.2232 Y11.4144
G01 X53.2232 Y10.8556
G01 X53.2244 Y10.8311
G01 X53.2280 Y10.8068
G01 X53.2340 Y10.7830
G01 X53.2422 Y10.7599
G01 X53.2527 Y10.7378
G01 X53.2653 Y10.7167
G01 X53.2799 Y10.6970
G01 X53.2964 Y10.6788
G01 X53.3146 Y10.6623
G01 X53.3343 Y10.6477
G01 X53.3554 Y10.6351
G01 X53.3775 Y10.6246
G01 X53.4006 Y10.6164
G01 X53.4244 Y10.6104
G01 X53.4487 Y10.6068
G01 X53.4732 Y10.6056
G01 X53.9637 Y10.6056
G01 X53.9637 Y10.3944
G01 X53.4732 Y10.3944
G01 X53.4487 Y10.3932
G01 X53.4244 Y10.3896
G01 X53.4006 Y10.3836
G01 X53.3775 Y10.3754
G01 X53.3554 Y10.3649
G01 X53.3343 Y10.3523
G01 X53.3146 Y10.3377
G01 X53.2964 Y10.3212
G01 X53.2799 Y10.3030
G01 X53.2653 Y10.2833
G01 X53.2527 Y10.2622
G01 X53.2422 Y10.2401
G01 X53.2340 Y10.2170
G01 X53.2280 Y10.1932
G01 X53.2244 Y10.1689
G01 X53.2232 Y10.1444
G01 X53.2232 Y9.5856
G01 X53.2244 Y9.5611
G01 X53.2280 Y9.5368
G01 X53.2340 Y9.5130
G01 X53.2422 Y9.4899
G01 X53.2527 Y9.4678
G01 X53.2653 Y9.4467
G01 X53.2799 Y9.4270
G01 X53.2964 Y9.4088
G01 X53.3146 Y9.3923
G01 X53.3343 Y9.3777
G01 X53.3554 Y9.3651
G01 X53.3775 Y9.3546
G01 X53.4006 Y9.3464
G01 X53.4244 Y9.3404
G01 X53.4487 Y9.3368
G01 X53.4732 Y9.3356
G01 X55.4544 Y9.3356
G01 X55.4789 Y9.3368
G01 X55.5032 Y9.3404
G01 X55.5270 Y9.3464
G01 X55.5501 Y9.3546
G01 X55.5722 Y9.3651
G01 X55.5933 Y9.3777
G01 X55.6130 Y9.3923
G01 X55.6312 Y9.4088
G01 X55.6477 Y9.4270
G01 X55.6623 Y9.4467
G01 X55.6749 Y9.4678
G01 X55.6854 Y9.4899
G01 X55.6936 Y9.5130
G01 X55.6996 Y9.5368
G01 X55.7032 Y9.5611
G01 X55.7044 Y9.5856
G01 X55.7044 Y10.1444
G01 X55.7032 Y10.1689
G01 X55.6996 Y10.1932
G01 X55.6936 Y10.2170
G01 X55.6854 Y10.2401
G01 X55.6749 Y10.2622
G01 X55.6623 Y10.2833
G01 X55.6477 Y10.3030
G01 X55.6312 Y10.3212
G01 X55.6130 Y10.3377
G01 X55.5933 Y10.3523
G01 X55.5722 Y10.3649
G01 X55.5501 Y10.3754
G01 X55.5270 Y10.3836
G01 X55.5032 Y10.3896
G01 X55.4789 Y10.3932
G01 X55.4544 Y10.3944
G01 X54.9639 Y10.3944
G01 X54.9639 Y10.6056
G01 X55.4544 Y10.6056
G01 X55.4789 Y10.6068
G01 X55.5032 Y10.6104
G01 X55.5270 Y10.6164
G01 X55.5501 Y10.6246
G01 X55.5717 Y10.6349
G00 Z2.0000
G00 X49.7501 Y15.0373
G01 F800.00
G01 Z-0.0300
G01 F350.00
G01 X49.1826 Y14.4697
G01 X49.1576 Y14.4426
G01 X49.1420 Y14.4237
G01 X49.1274 Y14.4040
G01 X49.1138 Y14.3836
G01 X49.1012 Y14.3625
G01 X49.0896 Y14.3409
G01 X49.0791 Y14.3187
G01 X49.0697 Y14.2960
G01 X49.0615 Y14.2729
G01 X49.0543 Y14.2494
G01 X49.0484 Y14.2256
G01 X49.0436 Y14.2016
G01 X49.0400 Y14.1773
G01 X49.0376 Y14.1529
G01 X49.0361 Y14.1161
G01 X49.0361 Y12.9344
G01 X48.5456 Y12.9344
G01 X48.5211 Y12.9332
G01 X48.4968 Y12.9296
G01 X48.4730 Y12.9236
G01 X48.4499 Y12.9154
G01 X48.4278 Y12.9049
G01 X48.4067 Y12.8923
G01 X48.3870 Y12.8777
G01 X48.3688 Y12.8612
G01 X48.3523 Y12.8430
G01 X48.3377 Y12.8233
G01 X48.3251 Y12.8022
G01 X48.3146 Y12.7801
G01 X48.3064 Y12.7570
G01 X48.3004 Y12.7332
G01 X48.2968 Y12.7089
G01 X48.2956 Y12.6844
G01 X48.2956 Y12.1256
G01 X48.2968 Y12.1011
G01 X48.3004 Y12.0768
G01 X48.3064 Y12.0530
G01 X48.3146 Y12.0299
G01 X48.3251 Y12.0078
G01 X48.3377 Y11.9867
G01 X48.3523 Y11.9670
G01 X48.3688 Y11.9488
G01 X48.3870 Y11.9323
G01 X48.4067 Y11.9177
G01 X48.4278 Y11.9051
G01 X48.4499 Y11.8946
G01 X48.4730 Y11.8864
G01 X48.4968 Y11.8804
G01 X48.5211 Y11.8768
G01 X48.5456 Y11.8756
G01 X49.0361 Y11.8756
G01 X49.0361 Y11.6644
G01 X48.5456 Y11.6644
G01 X48.5211 Y11.6632
G01 X48.4968 Y11.6596
G01 X48.4730 Y11.6536
G01 X48.4499 Y11.6454
G01 X48.4278 Y11.6349
G01 X48.4067 Y11.6223
G01 X48.3870 Y11.6077
G01 X48.3688 Y11.5912
G01 X48.3523 Y11.5730
G01 X48.3377 Y11.5533
G01 X48.3251 Y11.5322
G01 X48.3146 Y11.5101
G01 X48.3064 Y11.4870
G01 X48.3004 Y11.4632
G01 X48.2968 Y11.4389
G01 X48.2956 Y11.4144
G01 X48.2956 Y10.8556
G01 X48.2968 Y10.8311
G01 X48.3004 Y10.8068
G01 X48.3064 Y10.7830
G01 X48.3146 Y10.7599
G01 X48.3251 Y10.7378
G01 X48.3377 Y10.7167
G01 X48.3523 Y10.6970
G01 X48.3688 Y10.6788
G01 X48.3870 Y10.6623
G01 X48.4067 Y10.6477
G01 X48.4278 Y10.6351
G01 X48.4499 Y10.6246
G01 X48.4730 Y10.6164
G01 X48.4968 Y10.6104
G01 X48.5211 Y10.6068
G01 X48.5456 Y10.6056
G01 X50.5268 Y10.6056
G01 X50.5513 Y10.6068
G01 X50.5756 Y10.6104
G01 X50.5994 Y10.6164
G01 X50.6225 Y10.6246
G01 X50.6446 Y10.6351
G01 X50.6657 Y10.6477
G01 X50.6854 Y10.6623
G01 X50.7036 Y10.6788
G01 X50.7201 Y10.6970
G01 X50.7347 Y10.7167
G01 X50.7473 Y10.7378
G01 X50.7578 Y10.7599
G01 X50.7660 Y10.7830
G01 X50.7720 Y10.8068
G01 X50.7756 Y10.8311
G01 X50.7768 Y10.8556
G01 X50.7768 Y11.4144
G01 X50.7756 Y11.4389
G01 X50.7720 Y11.4632
G01 X50.7660 Y11.4870
G01 X50.7578 Y11.5101
G01 X50.7473 Y11.5322
G01 X50.7347 Y11.5533
G01 X50.7201 Y11.5730
G01 X50.7036 Y11.5912
G01 X50.6854 Y11.6077
G01 X50.6657 Y11.6223
G01 X50.6446 Y11.6349
G01 X50.6225 Y11.6454
G01 X50.5994 Y11.6536
G01 X50.5756 Y11.6596
G01 X50.5513 Y11.6632
G01 X50.5268 Y11.6644
G01 X50.0363 Y11.6644
G01 X50.0363 Y11.8756
G01 X50.5268 Y11.8756
G01 X50.5513 Y11.8768
G01 X50.5756 Y11.8804
G01 X50.5994 Y11.8864
G01 X50.6225 Y11.8946
G01 X50.6446 Y11.9051
G01 X50.6657 Y11.9177
G01 X50.6854 Y11.9323
G01 X50.7036 Y11.9488
G01 X50.7201 Y11.9670
G01 X50.7347 Y11.9867
G01 X50.7473 Y12.0078
G01 X50.7578 Y12.0299
G01 X50.7660 Y12.0530
G01 X50.7720 Y12.0768
G01 X50.7756 Y12.1011
G01 X50.7768 Y12.1256
G01 X50.7768 Y12.6844
G01 X50.7756 Y12.7089
G01 X50.7720 Y12.7332
G01 X50.7660 Y12.7570
G01 X50.7578 Y12.7801
G01 X50.7473 Y12.8022
G01 X50.7347 Y12.8233
G01 X50.7201 Y12.8430
G01 X50.7036 Y12.8612
G01 X50.6854 Y12.8777
G01 X50.6657 Y12.8923
G01 X50.6446 Y12.9049
G01 X50.6225 Y12.9154
G01 X50.5994 Y12.9236
G01 X50.5756 Y12.9296
G01 X50.5513 Y12.9332
G01 X50.5268 Y12.9344
G01 X50.0363 Y12.9344
G01 X50.0363 Y13.9089
G01 X50.4574 Y14.3300
G01 X50.4652 Y14.3273
G01 X50.4887 Y14.3201
G01 X50.5696 Y14.2999
G01 X50.5936 Y14.2951
G01 X50.6762 Y14.2828
G01 X50.7006 Y14.2804
G01 X50.7839 Y14.2763
G01 X50.8084 Y14.2763
G01 X50.8917 Y14.2804
G01 X50.9162 Y14.2828
G01 X50.9987 Y14.2951
G01 X51.0227 Y14.2999
G01 X51.1036 Y14.3201
G01 X51.1271 Y14.3273
G01 X51.2057 Y14.3554
G01 X51.2283 Y14.3647
G01 X51.3037 Y14.4004
G01 X51.3254 Y14.4120
G01 X51.3969 Y14.4549
G01 X51.4173 Y14.4685
G01 X51.4843 Y14.5182
G01 X51.5033 Y14.5337
G01 X51.5651 Y14.5898
G01 X51.5824 Y14.6071
G01 X51.6385 Y14.6689
G01 X51.6540 Y14.6879
G01 X51.7037 Y14.7549
G01 X51.7173 Y14.7753
G01 X51.7602 Y14.8468
G01 X51.7718 Y14.8685
G01 X51.8074 Y14.9439
G01 X51.8168 Y14.9665
G01 X51.8449 Y15.0451
G01 X51.8521 Y15.0685
G01 X51.8723 Y15.1495
G01 X51.8771 Y15.1735
G01 X51.8894 Y15.2560
G01 X51.8918 Y15.2805
G01 X51.8959 Y15.3638
G01 X51.8959 Y15.3883
G01 X51.8918 Y15.4716
G01 X51.8894 Y15.4960
G01 X51.8771 Y15.5785
G01 X51.8723 Y15.6026
G01 X51.8521 Y15.6835
G01 X51.8449 Y15.7070
G01 X51.8168 Y15.7855
G01 X51.8074 Y15.8082
G01 X51.7718 Y15.8836
G01 X51.7602 Y15.9052
G01 X51.7173 Y15.9768
G01 X51.7037 Y15.9972
G01 X51.6540 Y16.0642
G01 X51.6385 Y16.0832
G01 X51.5824 Y16.1450
G01 X51.5651 Y16.1623
G01 X51.5033 Y16.2183
G01 X51.4843 Y16.2339
G01 X51.4173 Y16.2836
G01 X51.3969 Y16.2972
G01 X51.3254 Y16.3401
G01 X51.3037 Y16.3517
G01 X51.2283 Y16.3873
G01 X51.2057 Y16.3967
G01 X51.1271 Y16.4248
G01 X51.1036 Y16.4319
G01 X51.0227 Y16.4522
G01 X50.9987 Y16.4570
G01 X50.9162 Y16.4692
G01 X50.8917 Y16.4716
G01 X50.8084 Y16.4757
G01 X50.7839 Y16.4757
G01 X50.7006 Y16.4716
G01 X50.6762 Y16.4692
G01 X50.5936 Y16.4570
G01 X50.5696 Y16.4522
G01 X50.4887 Y16.4319
G01 X50.4652 Y16.4248
G01 X50.3867 Y16.3967
G01 X50.3640 Y16.3873
G01 X50.2886 Y16.3517
G01 X50.2669 Y16.3401
G01 X50.1954 Y16.2972
G01 X50.1750 Y16.2836
G01 X50.1080 Y16.2339
G01 X50.0890 Y16.2183
G01 X50.0272 Y16.1623
G01 X50.0099 Y16.1450
G01 X49.9539 Y16.0832
G01 X49.9383 Y16.0642
G01 X49.8886 Y15.9972
G01 X49.8750 Y15.9768
G01 X49.8321 Y15.9052
G01 X49.8205 Y15.8836
G01 X49.7849 Y15.8082
G01 X49.7755 Y15.7855
G01 X49.7474 Y15.7070
G01 X49.7402 Y15.6835
G01 X49.7200 Y15.6026
G01 X49.7152 Y15.5785
G01 X49.7030 Y15.4960
G01 X49.7005 Y15.4716
G01 X49.6965 Y15.3883
G01 X49.6965 Y15.3638
G01 X49.7005 Y15.2805
G01 X49.7030 Y15.2560
G01 X49.7152 Y15.1735
G01 X49.7200 Y15.1495
G01 X49.7402 Y15.0685
G01 X49.7474 Y15.0451
G01 X49.7501 Y15.0373
G00 Z2.0000
G00 X36.7101 Y15.0373
G01 F800.00
G01 Z-0.0300
G01 F350.00
G01 X36.1426 Y14.4697
G01 X36.1176 Y14.4426
G01 X36.1020 Y14.4237
G01 X36.0874 Y14.4040
G01 X36.0738 Y14.3836
G01 X36.0612 Y14.3625
G01 X36.0496 Y14.3409
G01 X36.0391 Y14.3187
G01 X36.0297 Y14.2960
G01 X36.0215 Y14.2729
G01 X36.0143 Y14.2494
G01 X36.0084 Y14.2256
G01 X36.0036 Y14.2016
G01 X36.0000 Y14.1773
G01 X35.9976 Y14.1529
G01 X35.9961 Y14.1161
G01 X35.9961 Y12.9344
G01 X35.5056 Y12.9344
G01 X35.4811 Y12.9332
G01 X35.4568 Y12.9296
G01 X35.4330 Y12.9236
G01 X35.4099 Y12.9154
G01 X35.3878 Y12.9049
G01 X35.3667 Y12.8923
G01 X35.3470 Y12.8777
G01 X35.3288 Y12.8612
G01 X35.3123 Y12.8430
G01 X35.2977 Y12.8233
G01 X35.2851 Y12.8022
G01 X35.2746 Y12.7801
G01 X35.2664 Y12.7570
G01 X35.2604 Y12.7332
G01 X35.2568 Y12.7089
G01 X35.2556 Y12.6844
G01 X35.2556 Y12.1256
G01 X35.2568 Y12.1011
G01 X35.2604 Y12.0768
G01 X35.2664 Y12.0530
G01 X35.2746 Y12.0299
G01 X35.2851 Y12.0078
G01 X35.2977 Y11.9867
G01 X35.3123 Y11.9670
G01 X35.3288 Y11.9488
G01 X35.3470 Y11.9323
G01 X35.3667 Y11.9177
G01 X35.3878 Y11.9051
G01 X35.4099 Y11.8946
G01 X35.4330 Y11.8864
G01 X35.4568 Y11.8804
G01 X35.4811 Y11.8768
G01 X35.5056 Y11.8756
G01 X35.9961 Y11.8756
G01 X35.9961 Y11.6644
G01 X35.5056 Y11.6644
G01 X35.4811 Y11.6632
G01 X35.4568 Y11.6596
G01 X35.4330 Y11.6536
G01 X35.4099 Y11.6454
G01 X35.3878 Y11.6349
G01 X35.3667 Y11.6223
G01 X35.3470 Y11.6077
G01 X35.3288 Y11.5912
G01 X35.3123 Y11.5730
G01 X35.2977 Y11.5533
G01 X35.2851 Y11.5322
G01 X35.2746 Y11.5101
G01 X35.2664 Y11.4870
G01 X35.2604 Y11.4632
G01 X35.2568 Y11.4389
G01 X35.2556 Y11.4144
G01 X35.2556 Y10.8556
G01 X35.2568 Y10.8311
G01 X35.2604 Y10.8068
G01 X35.2664 Y10.7830
G01 X35.2746 Y10.7599
G01 X35.2851 Y10.7378
G01 X35.2977 Y10.7167
G01 X35.3123 Y10.6970
G01 X35.3288 Y10.6788
G01 X35.3470 Y10.6623
G01 X35.3667 Y10.6477
G01 X35.3878 Y10.6351
G01 X35.4099 Y10.6246
G01 X35.4330 Y10.6164
G01 X35.4568 Y10.6104
G01 X35.4811 Y10.6068
G01 X35.5056 Y10.6056
G01 X37.4868 Y10.6056
G01 X37.5113 Y10.6068
G01 X37.5356 Y10.6104
G01 X37.5594 Y10.6164
G01 X37.5825 Y10.6246
G01 X37.6046 Y10.6351
G01 X37.6257 Y10.6477
G01 X37.6454 Y10.6623
G01 X37.6636 Y10.6788
G01 X37.6801 Y10.6970
G01 X37.6947 Y10.7167
G01 X37.7073 Y10.7378
G01 X37.7178 Y10.7599
G01 X37.7260 Y10.7830
G01 X37.7320 Y10.8068
G01 X37.7356 Y10.8311
G01 X37.7368 Y10.8556
G01 X37.7368 Y11.4144
G01 X37.7356 Y11.4389
G01 X37.7320 Y11.4632
G01 X37.7260 Y11.4870
G01 X37.7178 Y11.5101
G01 X37.7073 Y11.5322
G01 X37.6947 Y11.5533
G01 X37.6801 Y11.5730
G01 X37.6636 Y11.5912
G01 X37.6454 Y11.6077
G01 X37.6257 Y11.6223
G01 X37.6046 Y11.6349
G01 X37.5825 Y11.6454
G01 X37.5594 Y11.6536
G01 X37.5356 Y11.6596
G01 X37.5113 Y11.6632
G01 X37.4868 Y11.6644
G01 X36.9963 Y11.6644
G01 X36.9963 Y11.8756
G01 X37.4868 Y11.8756
G01 X37.5113 Y11.8768
G01 X37.5356 Y11.8804
G01 X37.5594 Y11.8864
G01 X37.5825 Y11.8946
G01 X37.6046 Y11.9051
G01 X37.6257 Y11.9177
G01 X37.6454 Y11.9323
G01 X37.6636 Y11.9488
G01 X37.6801 Y11.9670
G01 X37.6947 Y11.9867
G01 X37.7073 Y12.0078
G01 X37.7178 Y12.0299
G01 X37.7260 Y12.0530
G01 X37.7320 Y12.0768
G01 X37.7356 Y12.1011
G01 X37.7368 Y12.1256
G01 X37.7368 Y12.6844
G01 X37.7356 Y12.7089
G01 X37.7320 Y12.7332
G01 X37.7260 Y12.7570
G01 X37.7178 Y12.7801
G01 X37.7073 Y12.8022
G01 X37.6947 Y12.8233
G01 X37.6801 Y12.8430
G01 X37.6636 Y12.8612
G01 X37.6454 Y12.8777
G01 X37.6257 Y12.8923
G01 X37.6046 Y12.9049
G01 X37.5825 Y12.9154
G01 X37.5594 Y12.9236
G01 X37.5356 Y12.9296
G01 X37.5113 Y12.9332
G01 X37.4868 Y12.9344
G01 X36.9963 Y12.9344
G01 X36.9963 Y13.9089
G01 X37.4174 Y14.3300
G01 X37.4252 Y14.3273
G01 X37.4487 Y14.3201
G01 X37.5296 Y14.2999
G01 X37.5536 Y14.2951
G01 X37.6362 Y14.2828
G01 X37.6606 Y14.2804
G01 X37.7439 Y14.2763
G01 X37.7684 Y14.2763
G01 X37.8517 Y14.2804
G01 X37.8762 Y14.2828
G01 X37.9587 Y14.2951
G01 X37.9827 Y14.2999
G01 X38.0636 Y14.3201
G01 X38.0871 Y14.3273
G01 X38.1657 Y14.3554
G01 X38.1883 Y14.3647
G01 X38.2637 Y14.4004
G01 X38.2854 Y14.4120
G01 X38.3569 Y14.4549
G01 X38.3773 Y14.4685
G01 X38.4443 Y14.5182
G01 X38.4633 Y14.5337
G01 X38.5251 Y14.5898
G01 X38.5424 Y14.6071
G01 X38.5985 Y14.6689
G01 X38.6140 Y14.6879
G01 X38.6637 Y14.7549
G01 X38.6773 Y14.7753
G01 X38.7202 Y14.8468
G01 X38.7318 Y14.8685
G01 X38.7674 Y14.9439
G01 X38.7768 Y14.9665
G01 X38.8049 Y15.0451
G01 X38.8121 Y15.0685
G01 X38.8323 Y15.1495
G01 X38.8371 Y15.1735
G01 X38.8494 Y15.2560
G01 X38.8518 Y15.2805
G01 X38.8559 Y15.3638
G01 X38.8559 Y15.3883
G01 X38.8518 Y15.4716
G01 X38.8494 Y15.4960
G01 X38.8371 Y15.5785
G01 X38.8323 Y15.6026
G01 X38.8121 Y15.6835
G01 X38.8049 Y15.7070
G01 X38.7768 Y15.7855
G01 X38.7674 Y15.8082
G01 X38.7318 Y15.8836
G01 X38.7202 Y15.9052
G01 X38.6773 Y15.9768
G01 X38.6637 Y15.9972
G01 X38.6140 Y16.0642
G01 X38.5985 Y16.0832
G01 X38.5424 Y16.1450
G01 X38.5251 Y16.1623
G01 X38.4633 Y16.2183
G01 X38.4443 Y16.2339
G01 X38.3773 Y16.2836
G01 X38.3569 Y16.2972
G01 X38.2854 Y16.3401
G01 X38.2637 Y16.3517
G01 X38.1883 Y16.3873
G01 X38.1657 Y16.3967
G01 X38.0871 Y16.4248
G01 X38.0636 Y16.4319
G01 X37.9827 Y16.4522
G01 X37.9587 Y16.4570
G01 X37.8762 Y16.4692
G01 X37.8517 Y16.4716
G01 X37.7684 Y16.4757
G01 X37.7439 Y16.4757
G01 X37.6606 Y16.4716
G01 X37.6362 Y16.4692
G01 X37.5536 Y16.4570
G01 X37.5296 Y16.4522
G01 X37.4487 Y16.4319
G01 X37.4252 Y16.4248
G01 X37.3467 Y16.3967
G01 X37.3240 Y16.3873
G01 X37.2486 Y16.3517
G01 X37.2269 Y16.3401
G01 X37.1554 Y16.2972
G01 X37.1350 Y16.2836
G01 X37.0680 Y16.2339
G01 X37.0490 Y16.2183
G01 X36.9872 Y16.1623
G01 X36.9699 Y16.1450
G01 X36.9139 Y16.0832
G01 X36.8983 Y16.0642
G01 X36.8486 Y15.9972
G01 X36.8350 Y15.9768
G01 X36.7921 Y15.9052
G01 X36.7805 Y15.8836
G01 X36.7449 Y15.8082
G01 X36.7355 Y15.7855
G01 X36.7074 Y15.7070
G01 X36.7002 Y15.6835
G01 X36.6800 Y15.6026
G01 X36.6752 Y15.5785
G01 X36.6630 Y15.4960
G01 X36.6605 Y15.4716
G01 X36.6565 Y15.3883
G01 X36.6565 Y15.3638
G01 X36.6605 Y15.2805
G01 X36.6630 Y15.2560
G01 X36.6752 Y15.1735
G01 X36.6800 Y15.1495
G01 X36.7002 Y15.0685
G01 X36.7074 Y15.0451
G01 X36.7101 Y15.0373
G00 Z2.0000
G00 X23.6701 Y15.0373
G01 F800.00
G01 Z-0.0300
G01 F350.00
G01 X23.1026 Y14.4697
G01 X23.0776 Y14.4426
G01 X23.0620 Y14.4237
G01 X23.0474 Y14.4040
G01 X23.0338 Y14.3836
G01 X23.0212 Y14.3625
G01 X23.0096 Y14.3409
G01 X22.9991 Y14.3187
G01 X22.9897 Y14.2960
G01 X22.9815 Y14.2729
G01 X22.9743 Y14.2494
G01 X22.9684 Y14.2256
G01 X22.9636 Y14.2016
G01 X22.9600 Y14.1773
G01 X22.9576 Y14.1529
G01 X22.9561 Y14.1161
G01 X22.9561 Y12.9344
G01 X22.4656 Y12.9344
G01 X22.4411 Y12.9332
G01 X22.4168 Y12.9296
G01 X22.3930 Y12.9236
G01 X22.3699 Y12.9154
G01 X22.3478 Y12.9049
G01 X22.3267 Y12.8923
G01 X22.3070 Y12.8777
G01 X22.2888 Y12.8612
G01 X22.2723 Y12.8430
G01 X22.2577 Y12.8233
G01 X22.2451 Y12.8022
G01 X22.2346 Y12.7801
G01 X22.2264 Y12.7570
G01 X22.2204 Y12.7332
G01 X22.2168 Y12.7089
G01 X22.2156 Y12.6844
G01 X22.2156 Y12.1256
G01 X22.2168 Y12.1011
G01 X22.2204 Y12.0768
G01 X22.2264 Y12.0530
G01 X22.2346 Y12.0299
G01 X22.2451 Y12.0078
G01 X22.2577 Y11.9867
G01 X22.2723 Y11.9670
G01 X22.2888 Y11.9488
G01 X22.3070 Y11.9323
G01 X22.3267 Y11.9177
G01 X22.3478 Y11.9051
G01 X22.3699 Y11.8946
G01 X22.3930 Y11.8864
G01 X22.4168 Y11.8804
G01 X22.4411 Y11.8768
G01 X22.4656 Y11.8756
G01 X22.9561 Y11.8756
G01 X22.9561 Y11.6644
G01 X22.4656 Y11.6644
G01 X22.4411 Y11.6632
G01 X22.4168 Y11.6596
G01 X22.3930 Y11.6536
G01 X22.3699 Y11.6454
G01 X22.3478 Y11.6349
G01 X22.3267 Y11.6223
G01 X22.3070 Y11.6077
G01 X22.2888 Y11.5912
G01 X22.2723 Y11.5730
G01 X22.2577 Y11.5533
G01 X22.2451 Y11.5322
G01 X22.2346 Y11.5101
G01 X22.2264 Y11.4870
G01 X22.2204 Y11.4632
G01 X22.2168 Y11.4389
G01 X22.2156 Y11.4144
G01 X22.2156 Y10.8556
G01 X22.2168 Y10.8311
G01 X22.2204 Y10.8068
G01 X22.2264 Y10.7830
G01 X22.2346 Y10.7599
G01 X22.2451 Y10.7378
G01 X22.2577 Y10.7167
G01 X22.2723 Y10.6970
G01 X22.2888 Y10.6788
G01 X22.3070 Y10.6623
G01 X22.3267 Y10.6477
G01 X22.3478 Y10.6351
G01 X22.3699 Y10.6246
G01 X22.3930 Y10.6164
G01 X22.4168 Y10.6104
G01 X22.4411 Y10.6068
G01 X22.4656 Y10.6056
G01 X24.4468 Y10.6056
G01 X24.4713 Y10.6068
G01 X24.4956 Y10.6104
G01 X24.5194 Y10.6164
G01 X24.5425 Y10.6246
G01 X24.5646 Y10.6351
G01 X24.5857 Y10.6477
G01 X24.6054 Y10.6623
G01 X24.6236 Y10.6788
G01 X24.6401 Y10.6970
G01 X24.6547 Y10.7167
G01 X24.6673 Y10.7378
G01 X24.6778 Y10.7599
G01 X24.6860 Y10.7830
G01 X24.6920 Y10.8068
G01 X24.6956 Y10.8311
G01 X24.6968 Y10.8556
G01 X24.6968 Y11.4144
G01 X24.6956 Y11.4389
G01 X24.6920 Y11.4632
G01 X24.6860 Y11.4870
G01 X24.6778 Y11.5101
G01 X24.6673 Y11.5322
G01 X24.6547 Y11.5533
G01 X24.6401 Y11.5730
G01 X24.6236 Y11.5912
G01 X24.6054 Y11.6077
G01 X24.5857 Y11.6223
G01 X24.5646 Y11.6349
G01 X24.5425 Y11.6454
G01 X24.5194 Y11.6536
G01 X24.4956 Y11.6596
G01 X24.4713 Y11.6632
G01 X24.4468 Y11.6644
G01 X23.9563 Y11.6644
G01 X23.9563 Y11.8756
G01 X24.4468 Y11.8756
G01 X24.4713 Y11.8768
G01 X24.4956 Y11.8804
G01 X24.5194 Y11.8864
G01 X24.5425 Y11.8946
G01 X24.5646 Y11.9051
G01 X24.5857 Y11.9177
G01 X24.6054 Y11.9323
G01 X24.6236 Y11.9488
G01 X24.6401 Y11.9670
G01 X24.6547 Y11.9867
G01 X24.6673 Y12.0078
G01 X24.6778 Y12.0299
G01 X24.6860 Y12.0530
G01 X24.6920 Y12.0768
G01 X24.6956 Y12.1011
G01 X24.6968 Y12.1256
G01 X24.6968 Y12.6844
G01 X24.6956 Y12.7089
G01 X24.6920 Y12.7332
G01 X24.6860 Y12.7570
G01 X24.6778 Y12.7801
G01 X24.6673 Y12.8022
G01 X24.6547 Y12.8233
G01 X24.6401 Y12.8430
G01 X24.6236 Y12.8612
G01 X24.6054 Y12.8777
G01 X24.5857 Y12.8923
G01 X24.5646 Y12.9049
G01 X24.5425 Y12.9154
G01 X24.5194 Y12.9236
G01 X24.4956 Y12.9296
G01 X24.4713 Y12.9332
G01 X24.4468 Y12.9344
G01 X23.9563 Y12.9344
G01 X23.9563 Y13.9089
G01 X24.3774 Y14.3300
G01 X24.3852 Y14.3273
G01 X24.4087 Y14.3201
G01 X24.4896 Y14.2999
G01 X24.5136 Y14.2951
G01 X24.5962 Y14.2828
G01 X24.6206 Y14.2804
G01 X24.7039 Y14.2763
G01 X24.7284 Y14.2763
G01 X24.8117 Y14.2804
G01 X24.8362 Y14.2828
G01 X24.9187 Y14.2951
G01 X24.9427 Y14.2999
G01 X25.0236 Y14.3201
G01 X25.0471 Y14.3273
G01 X25.1257 Y14.3554
G01 X25.1483 Y14.3647
G01 X25.2237 Y14.4004
G01 X25.2454 Y14.4120
G01 X25.3169 Y14.4549
G01 X25.3373 Y14.4685
G01 X25.4043 Y14.5182
G01 X25.4233 Y14.5337
G01 X25.4851 Y14.5898
G01 X25.5024 Y14.6071
G01 X25.5585 Y14.6689
G01 X25.5740 Y14.6879
G01 X25.6237 Y14.7549
G01 X25.6373 Y14.7753
G01 X25.6802 Y14.8468
G01 X25.6918 Y14.8685
G01 X25.7274 Y14.9439
G01 X25.7368 Y14.9665
G01 X25.7649 Y15.0451
G01 X25.7721 Y15.0685
G01 X25.7923 Y15.1495
G01 X25.7971 Y15.1735
G01 X25.8094 Y15.2560
G01 X25.8118 Y15.2805
G01 X25.8159 Y15.3638
G01 X25.8159 Y15.3883
G01 X25.8118 Y15.4716
G01 X25.8094 Y15.4960
G01 X25.7971 Y15.5785
G01 X25.7923 Y15.6026
G01 X25.7721 Y15.6835
G01 X25.7649 Y15.7070
G01 X25.7368 Y15.7855
G01 X25.7274 Y15.8082
G01 X25.6918 Y15.8836
G01 X25.6802 Y15.9052
G01 X25.6373 Y15.9768
G01 X25.6237 Y15.9972
G01 X25.5740 Y16.0642
G01 X25.5585 Y16.0832
G01 X25.5024 Y16.1450
G01 X25.4851 Y16.1623
G01 X25.4233 Y16.2183
G01 X25.4043 Y16.2339
G01 X25.3373 Y16.2836
G01 X25.3169 Y16.2972
G01 X25.2454 Y16.3401
G01 X25.2237 Y16.3517
G01 X25.1483 Y16.3873
G01 X25.1257 Y16.3967
G01 X25.0471 Y16.4248
G01 X25.0236 Y16.4319
G01 X24.9427 Y16.4522
G01 X24.9187 Y16.4570
G01 X24.8362 Y16.4692
G01 X24.8117 Y16.4716
G01 X24.7284 Y16.4757
G01 X24.7039 Y16.4757
G01 X24.6206 Y16.4716
G01 X24.5962 Y16.4692
G01 X24.5136 Y16.4570
G01 X24.4896 Y16.4522
G01 X24.4087 Y16.4319
G01 X24.3852 Y16.4248
G01 X24.3067 Y16.3967
G01 X24.2840 Y16.3873
G01 X24.2086 Y16.3517
G01 X24.1869 Y16.3401
G01 X24.1154 Y16.2972
G01 X24.0950 Y16.2836
G01 X24.0280 Y16.2339
G01 X24.0090 Y16.2183
G01 X23.9472 Y16.1623
G01 X23.9299 Y16.1450
G01 X23.8739 Y16.0832
G01 X23.8583 Y16.0642
G01 X23.8086 Y15.9972
G01 X23.7950 Y15.9768
G01 X23.7521 Y15.9052
G01 X23.7405 Y15.8836
G01 X23.7049 Y15.8082
G01 X23.6955 Y15.7855
G01 X23.6674 Y15.7070
G01 X23.6602 Y15.6835
G01 X23.6400 Y15.6026
G01 X23.6352 Y15.5785
G01 X23.6230 Y15.4960
G01 X23.6205 Y15.4716
G01 X23.6165 Y15.3883
G01 X23.6165 Y15.3638
G01 X23.6205 Y15.2805
G01 X23.6230 Y15.2560
G01 X23.6352 Y15.1735
G01 X23.6400 Y15.1495
G01 X23.6602 Y15.0685
G01 X23.6674 Y15.0451
G01 X23.6701 Y15.0373
G00 Z2.0000
G00 X10.6301 Y15.0373
G01 F800.00
G01 Z-0.0300
G01 F350.00
G01 X10.0626 Y14.4697
G01 X10.0376 Y14.4426
G01 X10.0220 Y14.4237
G01 X10.0074 Y14.4040
G01 X9.9938 Y14.3836
G01 X9.9812 Y14.3625
G01 X9.9696 Y14.3409
G01 X9.9591 Y14.3187
G01 X9.9497 Y14.2960
G01 X9.9415 Y14.2729
G01 X9.9343 Y14.2494
G01 X9.9284 Y14.2256
G01 X9.9236 Y14.2016
G01 X9.9200 Y14.1773
G01 X9.9176 Y14.1529
G01 X9.9161 Y14.1161
G01 X9.9161 Y12.9344
G01 X9.4256 Y12.9344
G01 X9.4011 Y12.9332
G01 X9.3768 Y12.9296
G01 X9.3530 Y12.9236
G01 X9.3299 Y12.9154
G01 X9.3078 Y12.9049
G01 X9.2867 Y12.8923
G01 X9.2670 Y12.8777
G01 X9.2488 Y12.8612
G01 X9.2323 Y12.8430
G01 X9.2177 Y12.8233
G01 X9.2051 Y12.8022
G01 X9.1946 Y12.7801
G01 X9.1864 Y12.7570
G01 X9.1804 Y12.7332
G01 X9.1768 Y12.7089
G01 X9.1756 Y12.6844
G01 X9.1756 Y12.1256
G01 X9.1768 Y12.1011
G01 X9.1804 Y12.0768
G01 X9.1864 Y12.0530
G01 X9.1946 Y12.0299
G01 X9.2051 Y12.0078
G01 X9.2177 Y11.9867
G01 X9.2323 Y11.9670
G01 X9.2488 Y11.9488
G01 X9.2670 Y11.9323
G01 X9.2867 Y11.9177
G01 X9.3078 Y11.9051
G01 X9.3299 Y11.8946
G01 X9.3530 Y11.8864
G01 X9.3768 Y11.8804
G01 X9.4011 Y11.8768
G01 X9.4256 Y11.8756
G01 X9.9161 Y11.8756
G01 X9.9161 Y11.6644
G01 X9.4256 Y11.6644
G01 X9.4011 Y11.6632
G01 X9.3768 Y11.6596
G01 X9.3530 Y11.6536
G01 X9.3299 Y11.6454
G01 X9.3078 Y11.6349
G01 X9.2867 Y11.6223
G01 X9.2670 Y11.6077
G01 X9.2488 Y11.5912
G01 X9.2323 Y11.5730
G01 X9.2177 Y11.5533
G01 X9.2051 Y11.5322
G01 X9.1946 Y11.5101
G01 X9.1864 Y11.4870
G01 X9.1804 Y11.4632
G01 X9.1768 Y11.4389
G01 X9.1756 Y11.4144
G01 X9.1756 Y10.8556
G01 X9.1768 Y10.8311
G01 X9.1804 Y10.8068
G01 X9.1864 Y10.7830
G01 X9.1946 Y10.7599
G01 X9.2051 Y10.7378
G01 X9.2177 Y10.7167
G01 X9.2323 Y10.6970
G01 X9.2488 Y10.6788
G01 X9.2670 Y10.6623
G01 X9.2867 Y10.6477
G01 X9.3078 Y10.6351
G01 X9.3299 Y10.6246
G01 X9.3530 Y10.6164
G01 X9.3768 Y10.6104
G01 X9.4011 Y10.6068
G01 X9.4256 Y10.6056
G01 X11.4068 Y10.6056
G01 X11.4313 Y10.6068
G01 X11.4556 Y10.6104
G01 X11.4794 Y10.6164
G01 X11.5025 Y10.6246
G01 X11.5246 Y10.6351
G01 X11.5457 Y10.6477
G01 X11.5654 Y10.6623
G01 X11.5836 Y10.6788
G01 X11.6001 Y10.6970
G01 X11.6147 Y10.7167
G01 X11.6273 Y10.7378
G01 X11.6378 Y10.7599
G01 X11.6460 Y10.7830
G01 X11.6520 Y10.8068
G01 X11.6556 Y10.8311
G01 X11.6568 Y10.8556
G01 X11.6568 Y11.4144
G01 X11.6556 Y11.4389
G01 X11.6520 Y11.4632
G01 X11.6460 Y11.4870
G01 X11.6378 Y11.5101
G01 X11.6273 Y11.5322
G01 X11.6147 Y11.5533
G01 X11.6001 Y11.5730
G01 X11.5836 Y11.5912
G01 X11.5654 Y11.6077
G01 X11.5457 Y11.6223
G01 X11.5246 Y11.6349
G01 X11.5025 Y11.6454
G01 X11.4794 Y11.6536
G01 X11.4556 Y11.6596
G01 X11.4313 Y11.6632
G01 X11.4068 Y11.6644
G01 X10.9163 Y11.6644
G01 X10.9163 Y11.8756
G01 X11.4068 Y11.8756
G01 X11.4313 Y11.8768
G01 X11.4556 Y11.8804
G01 X11.4794 Y11.8864
G01 X11.5025 Y11.8946
G01 X11.5246 Y11.9051
G01 X11.5457 Y11.9177
G01 X11.5654 Y11.9323
G01 X11.5836 Y11.9488
G01 X11.6001 Y11.9670
G01 X11.6147 Y11.9867
G01 X11.6273 Y12.0078
G01 X11.6378 Y12.0299
G01 X11.6460 Y12.0530
G01 X11.6520 Y12.0768
G01 X11.6556 Y12.1011
G01 X11.6568 Y12.1256
G01 X11.6568 Y12.6844
G01 X11.6556 Y12.7089
G01 X11.6520 Y12.7332
G01 X11.6460 Y12.7570
G01 X11.6378 Y12.7801
G01 X11.6273 Y12.8022
G01 X11.6147 Y12.8233
G01 X11.6001 Y12.8430
G01 X11.5836 Y12.8612
G01 X11.5654 Y12.8777
G01 X11.5457 Y12.8923
G01 X11.5246 Y12.9049
G01 X11.5025 Y12.9154
G01 X11.4794 Y12.9236
G01 X11.4556 Y12.9296
G01 X11.4313 Y12.9332
G01 X11.4068 Y12.9344
G01 X10.9163 Y12.9344
G01 X10.9163 Y13.9089
G01 X11.3374 Y14.3300
G01 X11.3452 Y14.3273
G01 X11.3687 Y14.3201
G01 X11.4496 Y14.2999
G01 X11.4736 Y14.2951
G01 X11.5562 Y14.2828
G01 X11.5806 Y14.2804
G01 X11.6639 Y14.2763
G01 X11.6884 Y14.2763
G01 X11.7717 Y14.2804
G01 X11.7962 Y14.2828
G01 X11.8787 Y14.2951
G01 X11.9027 Y14.2999
G01 X11.9836 Y14.3201
G01 X12.0071 Y14.3273
G01 X12.0857 Y14.3554
G01 X12.1083 Y14.3647
G01 X12.1837 Y14.4004
G01 X12.2054 Y14.4120
G01 X12.2769 Y14.4549
G01 X12.2973 Y14.4685
G01 X12.3643 Y14.5182
G01 X12.3833 Y14.5337
G01 X12.4451 Y14.5898
G01 X12.4624 Y14.6071
G01 X12.5185 Y14.6689
G01 X12.5340 Y14.6879
G01 X12.5837 Y14.7549
G01 X12.5973 Y14.7753
G01 X12.6402 Y14.8468
G01 X12.6518 Y14.8685
G01 X12.6874 Y14.9439
G01 X12.6968 Y14.9665
G01 X12.7249 Y15.0451
G01 X12.7321 Y15.0685
G01 X12.7523 Y15.1495
G01 X12.7571 Y15.1735
G01 X12.7694 Y15.2560
G01 X12.7718 Y15.2805
G01 X12.7759 Y15.3638
G01 X12.7759 Y15.3883
G01 X12.7718 Y15.4716
G01 X12.7694 Y15.4960
G01 X12.7571 Y15.5785
G01 X12.7523 Y15.6026
G01 X12.7321 Y15.6835
G01 X12.7249 Y15.7070
G01 X12.6968 Y15.7855
G01 X12.6874 Y15.8082
G01 X12.6518 Y15.8836
G01 X12.6402 Y15.9052
G01 X12.5973 Y15.9768
G01 X12.5837 Y15.9972
G01 X12.5340 Y16.0642
G01 X12.5185 Y16.0832
G01 X12.4624 Y16.1450
G01 X12.4451 Y16.1623
G01 X12.3833 Y16.2183
G01 X12.3643 Y16.2339
G01 X12.2973 Y16.2836
G01 X12.2769 Y16.2972
G01 X12.2054 Y16.3401
G01 X12.1837 Y16.3517
G01 X12.1083 Y16.3873
G01 X12.0857 Y16.3967
G01 X12.0071 Y16.4248
G01 X11.9836 Y16.4319
G01 X11.9027 Y16.4522
G01 X11.8787 Y16.4570
G01 X11.7962 Y16.4692
G01 X11.7717 Y16.4716
G01 X11.6884 Y16.4757
G01 X11.6639 Y16.4757
G01 X11.5806 Y16.4716
G01 X11.5562 Y16.4692
G01 X11.4736 Y16.4570
G01 X11.4496 Y16.4522
G01 X11.3687 Y16.4319
G01 X11.3452 Y16.4248
G01 X11.2667 Y16.3967
G01 X11.2440 Y16.3873
G01 X11.1686 Y16.3517
G01 X11.1469 Y16.3401
G01 X11.0754 Y16.2972
G01 X11.0550 Y16.2836
G01 X10.9880 Y16.2339
G01 X10.9690 Y16.2183
G01 X10.9072 Y16.1623
G01 X10.8899 Y16.1450
G01 X10.8339 Y16.0832
G01 X10.8183 Y16.0642
G01 X10.7686 Y15.9972
G01 X10.7550 Y15.9768
G01 X10.7121 Y15.9052
G01 X10.7005 Y15.8836
G01 X10.6649 Y15.8082
G01 X10.6555 Y15.7855
G01 X10.6274 Y15.7070
G01 X10.6202 Y15.6835
G01 X10.6000 Y15.6026
G01 X10.5952 Y15.5785
G01 X10.5830 Y15.4960
G01 X10.5805 Y15.4716
G01 X10.5765 Y15.3883
G01 X10.5765 Y15.3638
G01 X10.5805 Y15.2805
G01 X10.5830 Y15.2560
G01 X10.5952 Y15.1735
G01 X10.6000 Y15.1495
G01 X10.6202 Y15.0685
G01 X10.6274 Y15.0451
G01 X10.6301 Y15.0373
G00 Z2.0000
G00 X3.9651 Y14.3948
G01 F800.00
G01 Z-0.0300
G01 F350.00
G01 X3.9651 Y14.3992
G01 X3.9892 Y14.4120
G01 X4.0608 Y14.4549
G01 X4.0812 Y14.4685
G01 X4.1482 Y14.5182
G01 X4.1671 Y14.5337
G01 X4.2289 Y14.5898
G01 X4.2463 Y14.6071
G01 X4.3023 Y14.6689
G01 X4.3179 Y14.6879
G01 X4.3676 Y14.7549
G01 X4.3812 Y14.7753
G01 X4.4241 Y14.8468
G01 X4.4356 Y14.8685
G01 X4.4713 Y14.9439
G01 X4.4807 Y14.9665
G01 X4.5088 Y15.0451
G01 X4.5159 Y15.0685
G01 X4.5362 Y15.1495
G01 X4.5410 Y15.1735
G01 X4.5532 Y15.2560
G01 X4.5556 Y15.2805
G01 X4.5597 Y15.3638
G01 X4.5597 Y15.3883
G01 X4.5556 Y15.4716
G01 X4.5532 Y15.4960
G01 X4.5410 Y15.5785
G01 X4.5362 Y15.6026
G01 X4.5159 Y15.6835
G01 X4.5088 Y15.7070
G01 X4.4807 Y15.7855
G01 X4.4713 Y15.8082
G01 X4.4356 Y15.8836
G01 X4.4241 Y15.9052
G01 X4.3812 Y15.9768
G01 X4.3676 Y15.9972
G01 X4.3179 Y16.0642
G01 X4.3023 Y16.0832
G01 X4.2463 Y16.1450
G01 X4.2289 Y16.1623
G01 X4.1671 Y16.2183
G01 X4.1482 Y16.2339
G01 X4.0812 Y16.2836
G01 X4.0608 Y16.2972
G01 X3.9892 Y16.3401
G01 X3.9651 Y16.3528
G01 X3.9651 Y16.3572
G01 X4.1082 Y16.2740
G01 X4.1591 Y16.2290
G01 X4.1883 Y16.2053
G01 X4.2086 Y16.1907
G01 X4.2297 Y16.1771
G01 X4.2514 Y16.1646
G01 X4.2737 Y16.1532
G01 X4.2965 Y16.1429
G01 X4.3198 Y16.1338
G01 X4.3436 Y16.1259
G01 X4.3677 Y16.1191
G01 X4.3921 Y16.1136
G01 X4.4168 Y16.1093
G01 X4.4417 Y16.1062
G01 X4.4666 Y16.1044
G01 X4.4917 Y16.1039
G01 X4.5167 Y16.1046
G01 X4.5417 Y16.1065
G01 X4.5665 Y16.1097
G01 X4.5911 Y16.1142
G01 X4.6155 Y16.1199
G01 X4.6396 Y16.1267
G01 X4.6633 Y16.1348
G01 X4.6866 Y16.1441
G01 X4.7094 Y16.1545
G01 X4.7316 Y16.1660
G01 X4.7532 Y16.1787
G01 X4.7742 Y16.1924
G01 X4.7944 Y16.2071
G01 X4.8139 Y16.2228
G01 X4.8326 Y16.2395
G01 X4.8504 Y16.2571
G01 X4.8673 Y16.2756
G01 X4.8833 Y16.2949
G01 X4.8982 Y16.3149
G01 X4.9122 Y16.3357
G01 X4.9251 Y16.3572
G01 X4.9329 Y16.3711
G01 X4.9654 Y16.4107
G01 X5.0049 Y16.4432
G01 X5.0501 Y16.4673
G01 X5.0991 Y16.4822
G01 X5.1746 Y16.4896
G01 X6.8254 Y16.4896
G01 X6.9009 Y16.4822
G01 X6.9499 Y16.4673
G01 X6.9951 Y16.4432
G01 X7.0346 Y16.4107
G01 X7.0671 Y16.3711
G01 X7.0913 Y16.3260
G01 X7.1061 Y16.2770
G01 X7.1136 Y16.2015
G01 X7.1136 Y14.5506
G01 X7.1061 Y14.4751
G01 X7.0913 Y14.4261
G01 X7.0671 Y14.3810
G01 X7.0387 Y14.3463
G01 X7.0165 Y14.3170
G01 X7.0029 Y14.2966
G01 X6.9903 Y14.2755
G01 X6.9787 Y14.2539
G01 X6.9682 Y14.2317
G01 X6.9588 Y14.2090
G01 X6.9506 Y14.1859
G01 X6.9435 Y14.1624
G01 X6.9375 Y14.1386
G01 X6.9327 Y14.1145
G01 X6.9291 Y14.0903
G01 X6.9267 Y14.0659
G01 X6.9255 Y14.0413
G01 X6.9255 Y14.0168
G01 X6.9267 Y13.9923
G01 X6.9291 Y13.9679
G01 X6.9327 Y13.9436
G01 X6.9375 Y13.9195
G01 X6.9435 Y13.8957
G01 X6.9506 Y13.8722
G01 X6.9588 Y13.8491
G01 X6.9682 Y13.8265
G01 X6.9787 Y13.8043
G01 X6.9903 Y13.7826
G01 X7.0029 Y13.7616
G01 X7.0165 Y13.7412
G01 X7.0312 Y13.7215
G01 X7.0467 Y13.7025
G01 X7.0717 Y13.6754
G01 X7.7944 Y12.9527
G01 X7.8215 Y12.9278
G01 X7.8312 Y12.9194
G01 X7.8949 Y12.8417
G01 X7.9423 Y12.7532
G01 X7.9714 Y12.6571
G01 X7.9813 Y12.5571
G01 X7.9803 Y12.5443
G01 X7.9788 Y12.5075
G01 X7.9788 Y6.4715
G01 X7.9803 Y6.4347
G01 X7.9827 Y6.4103
G01 X7.9863 Y6.3860
G01 X7.9911 Y6.3619
G01 X7.9971 Y6.3381
G01 X8.0042 Y6.3146
G01 X8.0125 Y6.2915
G01 X8.0219 Y6.2689
G01 X8.0323 Y6.2467
G01 X8.0439 Y6.2250
G01 X8.0565 Y6.2040
G01 X8.0702 Y6.1836
G01 X8.0848 Y6.1639
G01 X8.1003 Y6.1449
G01 X8.1168 Y6.1267
G01 X8.1342 Y6.1094
G01 X8.1524 Y6.0929
G01 X8.1713 Y6.0773
G01 X8.1910 Y6.0627
G01 X8.2114 Y6.0491
G01 X8.2325 Y6.0364
G01 X8.2541 Y6.0249
G01 X8.2763 Y6.0144
G01 X8.2990 Y6.0050
G01 X8.3221 Y5.9967
G01 X8.3456 Y5.9896
G01 X8.3694 Y5.9836
G01 X8.3934 Y5.9789
G01 X8.4177 Y5.9753
G01 X8.4421 Y5.9728
G01 X8.4667 Y5.9716
G01 X8.4912 Y5.9716
G01 X8.5157 Y5.9728
G01 X8.5401 Y5.9753
G01 X8.5644 Y5.9789
G01 X8.5885 Y5.9836
G01 X8.6123 Y5.9896
G01 X8.6358 Y5.9967
G01 X8.6589 Y6.0050
G01 X8.6690 Y6.0092
G01 X8.9016 Y6.0797
G01 X9.1289 Y6.1021
G01 X9.2981 Y6.0855
G01 X9.3349 Y6.0834
G01 X9.3594 Y6.0834
G01 X9.3839 Y6.0846
G01 X9.4083 Y6.0870
G01 X9.4326 Y6.0906
G01 X9.4567 Y6.0954
G01 X9.4805 Y6.1013
G01 X9.5040 Y6.1085
G01 X9.5271 Y6.1167
G01 X9.5497 Y6.1261
G01 X9.5719 Y6.1366
G01 X9.5936 Y6.1482
G01 X9.6146 Y6.1608
G01 X9.6350 Y6.1744
G01 X9.6547 Y6.1890
G01 X9.6737 Y6.2046
G01 X9.6919 Y6.2211
G01 X9.7008 Y6.2296
G01 X10.7648 Y7.2936
G01 X10.7898 Y7.3207
G01 X10.8053 Y7.3397
G01 X10.8200 Y7.3594
G01 X10.8336 Y7.3798
G01 X10.8462 Y7.4008
G01 X10.8578 Y7.4225
G01 X10.8683 Y7.4447
G01 X10.8777 Y7.4673
G01 X10.8859 Y7.4904
G01 X10.8931 Y7.5139
G01 X10.8990 Y7.5377
G01 X10.9038 Y7.5618
G01 X10.9074 Y7.5861
G01 X10.9098 Y7.6105
G01 X10.9113 Y7.6473
G01 X10.9113 Y7.7456
G01 X10.9110 Y7.7579
G01 X10.9098 Y7.7824
G01 X10.9074 Y7.8068
G01 X10.9038 Y7.8311
G01 X10.8990 Y7.8551
G01 X10.8931 Y7.8790
G01 X10.8859 Y7.9024
G01 X10.8777 Y7.9255
G01 X10.8683 Y7.9482
G01 X10.8578 Y7.9704
G01 X10.8462 Y7.9920
G01 X10.8336 Y8.0131
G01 X10.8200 Y8.0335
G01 X10.8053 Y8.0532
G01 X10.7952 Y8.0656
G01 X11.4068 Y8.0656
G01 X11.4313 Y8.0668
G01 X11.4556 Y8.0704
G01 X11.4794 Y8.0764
G01 X11.5025 Y8.0846
G01 X11.5246 Y8.0951
G01 X11.5457 Y8.1077
G01 X11.5654 Y8.1223
G01 X11.5836 Y8.1388
G01 X11.6001 Y8.1570
G01 X11.6147 Y8.1767
G01 X11.6273 Y8.1978
G01 X11.6378 Y8.2199
G01 X11.6460 Y8.2430
G01 X11.6520 Y8.2668
G01 X11.6556 Y8.2911
G01 X11.6568 Y8.3156
G01 X11.6568 Y8.8744
G01 X11.6556 Y8.8989
G01 X11.6520 Y8.9232
G01 X11.6460 Y8.9470
G01 X11.6378 Y8.9701
G01 X11.6273 Y8.9922
G01 X11.6147 Y9.0133
G01 X11.6001 Y9.0330
G01 X11.5836 Y9.0512
G01 X11.5654 Y9.0677
G01 X11.5457 Y9.0823
G01 X11.5246 Y9.0949
G01 X11.5025 Y9.1054
G01 X11.4794 Y9.1136
G01 X11.4556 Y9.1196
G01 X11.4313 Y9.1232
G01 X11.4068 Y9.1244
G01 X9.4256 Y9.1244
G01 X9.4011 Y9.1232
G01 X9.3768 Y9.1196
G01 X9.3530 Y9.1136
G01 X9.3299 Y9.1054
G01 X9.3188 Y9.1001
G01 X9.2367 Y9.1001
G01 X9.2417 Y9.1205
G01 X9.2465 Y9.1445
G01 X9.2501 Y9.1688
G01 X9.2525 Y9.1932
G01 X9.2537 Y9.2177
G01 X9.2537 Y9.2423
G01 X9.2525 Y9.2668
G01 X9.2501 Y9.2912
G01 X9.2465 Y9.3155
G01 X9.2417 Y9.3395
G01 X9.2358 Y9.3634
G01 X9.2287 Y9.3868
G01 X9.2204 Y9.4099
G01 X9.2110 Y9.4326
G01 X9.2005 Y9.4548
G01 X9.1843 Y9.4857
G01 X9.1695 Y9.5347
G01 X9.1620 Y9.6102
G01 X9.1620 Y10.1198
G01 X9.1695 Y10.1953
G01 X9.1843 Y10.2443
G01 X9.2005 Y10.2752
G01 X9.2110 Y10.2974
G01 X9.2204 Y10.3201
G01 X9.2287 Y10.3432
G01 X9.2358 Y10.3666
G01 X9.2417 Y10.3905
G01 X9.2465 Y10.4145
G01 X9.2501 Y10.4388
G01 X9.2525 Y10.4632
G01 X9.2537 Y10.4877
G01 X9.2537 Y10.5123
G01 X9.2525 Y10.5368
G01 X9.2501 Y10.5612
G01 X9.2465 Y10.5855
G01 X9.2417 Y10.6095
G01 X9.2358 Y10.6334
G01 X9.2287 Y10.6568
G01 X9.2204 Y10.6799
G01 X9.2110 Y10.7026
G01 X9.2005 Y10.7248
G01 X9.1843 Y10.7557
G01 X9.1695 Y10.8047
G01 X9.1620 Y10.8802
G01 X9.1620 Y11.3898
G01 X9.1695 Y11.4653
G01 X9.1843 Y11.5143
G01 X9.2005 Y11.5452
G01 X9.2110 Y11.5674
G01 X9.2204 Y11.5901
G01 X9.2287 Y11.6132
G01 X9.2358 Y11.6366
G01 X9.2417 Y11.6605
G01 X9.2465 Y11.6845
G01 X9.2501 Y11.7088
G01 X9.2525 Y11.7332
G01 X9.2537 Y11.7577
G01 X9.2537 Y11.7823
G01 X9.2525 Y11.8068
G01 X9.2501 Y11.8312
G01 X9.2465 Y11.8555
G01 X9.2417 Y11.8795
G01 X9.2358 Y11.9034
G01 X9.2287 Y11.9268
G01 X9.2204 Y11.9499
G01 X9.2110 Y11.9726
G01 X9.2005 Y11.9948
G01 X9.1843 Y12.0257
G01 X9.1695 Y12.0747
G01 X9.1620 Y12.1502
G01 X9.1620 Y12.6598
G01 X9.1695 Y12.7353
G01 X9.1843 Y12.7843
G01 X9.2085 Y12.8295
G01 X9.2410 Y12.8690
G01 X9.2805 Y12.9015
G01 X9.3257 Y12.9257
G01 X9.3747 Y12.9405
G01 X9.4552 Y12.9484
G01 X9.4674 Y12.9500
G01 X9.4917 Y12.9536
G01 X9.5157 Y12.9583
G01 X9.5396 Y12.9643
G01 X9.5630 Y12.9714
G01 X9.5861 Y12.9797
G01 X9.6088 Y12.9891
G01 X9.6310 Y12.9996
G01 X9.6526 Y13.0111
G01 X9.6737 Y13.0238
G01 X9.6941 Y13.0374
G01 X9.7138 Y13.0520
G01 X9.7328 Y13.0676
G01 X9.7510 Y13.0841
G01 X9.7683 Y13.1014
G01 X9.7848 Y13.1196
G01 X9.8004 Y13.1386
G01 X9.8150 Y13.1583
G01 X9.8286 Y13.1787
G01 X9.8412 Y13.1997
G01 X9.8528 Y13.2214
G01 X9.8633 Y13.2436
G01 X9.8727 Y13.2662
G01 X9.8809 Y13.2893
G01 X9.8881 Y13.3128
G01 X9.8940 Y13.3366
G01 X9.8988 Y13.3607
G01 X9.9024 Y13.3850
G01 X9.9048 Y13.4094
G01 X9.9063 Y13.4462
G01 X9.9063 Y14.0665
G01 X9.9048 Y14.1033
G01 X9.9039 Y14.1161
G01 X9.9137 Y14.2160
G01 X9.9429 Y14.3121
G01 X9.9902 Y14.4007
G01 X10.0539 Y14.4784
G01 X10.0637 Y14.4868
G01 X10.0907 Y14.5117
G01 X10.4236 Y14.8446
G01 X10.4321 Y14.8535
G01 X10.4486 Y14.8717
G01 X10.4641 Y14.8906
G01 X10.4788 Y14.9103
G01 X10.4924 Y14.9307
G01 X10.5050 Y14.9518
G01 X10.5166 Y14.9734
G01 X10.5271 Y14.9956
G01 X10.5365 Y15.0183
G01 X10.5447 Y15.0414
G01 X10.5518 Y15.0649
G01 X10.5578 Y15.0887
G01 X10.5626 Y15.1127
G01 X10.5662 Y15.1370
G01 X10.5686 Y15.1614
G01 X10.5698 Y15.1859
G01 X10.5698 Y15.2105
G01 X10.5686 Y15.2350
G01 X10.5663 Y15.2586
G01 X10.5663 Y15.4853
G01 X10.6089 Y15.6998
G01 X10.6926 Y15.9018
G01 X10.8141 Y16.0835
G01 X10.9686 Y16.2381
G01 X11.1504 Y16.3596
G01 X11.3524 Y16.4433
G01 X11.5668 Y16.4859
G01 X11.7855 Y16.4859
G01 X11.9999 Y16.4433
G01 X12.2019 Y16.3596
G01 X12.3945 Y16.2309
G01 X12.4053 Y16.2220
G01 X12.4250 Y16.2074
G01 X12.4454 Y16.1937
G01 X12.4665 Y16.1811
G01 X12.4881 Y16.1696
G01 X12.5103 Y16.1591
G01 X12.5330 Y16.1497
G01 X12.5561 Y16.1414
G01 X12.5796 Y16.1343
G01 X12.6034 Y16.1283
G01 X12.6274 Y16.1235
G01 X12.6517 Y16.1199
G01 X12.6761 Y16.1175
G01 X12.7007 Y16.1163
G01 X12.7252 Y16.1163
G01 X12.7497 Y16.1175
G01 X12.7741 Y16.1199
G01 X12.7984 Y16.1235
G01 X12.8225 Y16.1283
G01 X12.8463 Y16.1343
G01 X12.8697 Y16.1414
G01 X12.8929 Y16.1497
G01 X12.9155 Y16.1591
G01 X12.9377 Y16.1696
G01 X12.9594 Y16.1811
G01 X12.9804 Y16.1937
G01 X13.0008 Y16.2074
G01 X13.0205 Y16.2220
G01 X13.0395 Y16.2376
G01 X13.0577 Y16.2540
G01 X13.0750 Y16.2714
G01 X13.0915 Y16.2896
G01 X13.1071 Y16.3085
G01 X13.1217 Y16.3283
G01 X13.1353 Y16.3487
G01 X13.1481 Y16.3699
G01 X13.1815 Y16.4107
G01 X13.2211 Y16.4432
G01 X13.2662 Y16.4673
G01 X13.3152 Y16.4822
G01 X13.3907 Y16.4896
G01 X15.0416 Y16.4896
G01 X15.1171 Y16.4822
G01 X15.1661 Y16.4673
G01 X15.2112 Y16.4432
G01 X15.2508 Y16.4107
G01 X15.2833 Y16.3711
G01 X15.3074 Y16.3260
G01 X15.3246 Y16.2693
G01 X15.3293 Y16.2458
G01 X15.3352 Y16.2220
G01 X15.3424 Y16.1985
G01 X15.3506 Y16.1754
G01 X15.3600 Y16.1527
G01 X15.3705 Y16.1306
G01 X15.3821 Y16.1089
G01 X15.3947 Y16.0879
G01 X15.4083 Y16.0675
G01 X15.4229 Y16.0478
G01 X15.4385 Y16.0288
G01 X15.4550 Y16.0106
G01 X15.4723 Y15.9933
G01 X15.4905 Y15.9768
G01 X15.5095 Y15.9612
G01 X15.5292 Y15.9466
G01 X15.5496 Y15.9330
G01 X15.5707 Y15.9203
G01 X15.5923 Y15.9088
G01 X15.6145 Y15.8983
G01 X15.6372 Y15.8889
G01 X15.6719 Y15.8768
G01 X15.7622 Y15.8494
G01 X15.8508 Y15.8020
G01 X15.9284 Y15.7383
G01 X15.9368 Y15.7286
G01 X15.9618 Y15.7015
G01 X17.4199 Y14.2434
G01 X17.4469 Y14.2185
G01 X17.4567 Y14.2101
G01 X17.5204 Y14.1324
G01 X17.5677 Y14.0439
G01 X17.5969 Y13.9477
G01 X17.6067 Y13.8478
G01 X17.6058 Y13.8350
G01 X17.6043 Y13.7982
G01 X17.6043 Y11.4446
G01 X17.6058 Y11.4078
G01 X17.6067 Y11.3950
G01 X17.5969 Y11.2950
G01 X17.5677 Y11.1989
G01 X17.5204 Y11.1104
G01 X17.4567 Y11.0327
G01 X17.4469 Y11.0243
G01 X17.4199 Y10.9994
G01 X17.2300 Y10.8095
G01 X17.2051 Y10.7825
G01 X17.1967 Y10.7727
G01 X17.1190 Y10.7090
G01 X17.0305 Y10.6617
G01 X16.9514 Y10.6377
G01 X16.9398 Y10.6338
G01 X16.9167 Y10.6256
G01 X16.8940 Y10.6162
G01 X16.8718 Y10.6057
G01 X16.8502 Y10.5941
G01 X16.8291 Y10.5815
G01 X16.8087 Y10.5679
G01 X16.7890 Y10.5532
G01 X16.7701 Y10.5377
G01 X16.7519 Y10.5212
G01 X16.7345 Y10.5039
G01 X16.7180 Y10.4857
G01 X16.7025 Y10.4667
G01 X16.6879 Y10.4470
G01 X16.6742 Y10.4266
G01 X16.6616 Y10.4055
G01 X16.6500 Y10.3839
G01 X16.6395 Y10.3617
G01 X16.6302 Y10.3390
G01 X16.6219 Y10.3159
G01 X16.6148 Y10.2924
G01 X16.6088 Y10.2686
G01 X16.6040 Y10.2446
G01 X16.6004 Y10.2203
