(G-CODE GENERATED BY FLATCAM v8.991 - www.flatcam.org - Version Date: 2019/12/27)

(Name: 02 - Spring Loaded Engraving Bit Back Solder Mask)
(Type: G-code from Geometry)
(Units: MM)

(Created on Tuesday, 10 March 2020 at 13:05)

(TOOL DIAMETER: 0.1 mm)
(Feedrate: 300.0 mm/min)
(Feedrate_Z: 800.0 mm/min)
(Feedrate rapids 1500.0 mm/min)

(Z_Cut: -0.0001 mm)
(Z_Move: 2.0 mm)
(Z Toolchange: 15.0 mm)
(X,Y Toolchange: 0.0000, 0.0000 mm)
(Z Start: None mm)
(Z End: 15.0 mm)
(Steps per circle: 64)
(Preprocessor Geometry: default)

(X range:    0.1490 ...   64.8510  mm)
(Y range:    2.2312 ...   16.2271  mm)

(Spindle Speed: 7800 RPM)
G21
G90
G94

M08


G01 F300.00
G00 Z2.0000

M03 S7800
G00 X2.2059 Y6.2510
G01 F800.00
G01 Z-0.0001
G01 F300.00
G01 X3.7941 Y6.2510
G01 X3.9102 Y6.2910
G01 X2.0898 Y6.2910
G01 X1.9933 Y6.3310
G01 X4.0067 Y6.3310
G01 X4.1033 Y6.3710
G01 X1.8967 Y6.3710
G01 X1.8001 Y6.4110
G01 X4.1999 Y6.4110
G01 X4.2964 Y6.4510
G01 X1.7036 Y6.4510
G01 X1.6495 Y6.4734
G01 X1.1826 Y6.7854
G01 X0.7854 Y7.1826
G01 X0.4734 Y7.6495
G01 X0.2585 Y8.1684
G01 X0.1490 Y8.7192
G01 X0.1490 Y9.2808
G01 X0.2585 Y9.8316
G01 X0.4734 Y10.3505
G01 X0.7854 Y10.8174
G01 X1.1826 Y11.2146
G01 X1.6495 Y11.5266
G01 X2.1684 Y11.7415
G01 X2.7192 Y11.8510
G01 X3.2808 Y11.8510
G01 X3.8316 Y11.7415
G01 X4.3505 Y11.5266
G01 X4.8174 Y11.2146
G01 X5.2146 Y10.8174
G01 X5.2417 Y10.7768
G01 X5.5266 Y10.3505
G01 X5.7415 Y9.8316
G01 X5.8510 Y9.2808
G01 X5.8510 Y8.7192
G01 X5.7415 Y8.1684
G01 X5.5266 Y7.6495
G01 X5.2146 Y7.1826
G01 X4.8174 Y6.7854
G01 X4.3505 Y6.4734
G01 X3.8316 Y6.2585
G01 X3.2808 Y6.1490
G01 X2.7192 Y6.1490
G01 X2.1684 Y6.2585
G01 X1.6495 Y6.4734
G01 X1.6232 Y6.4910
G01 X4.3768 Y6.4910
G01 X4.4367 Y6.5310
G01 X1.5633 Y6.5310
G01 X1.5034 Y6.5710
G01 X4.4966 Y6.5710
G01 X4.5564 Y6.6110
G01 X1.4436 Y6.6110
G01 X1.3837 Y6.6510
G01 X4.6163 Y6.6510
G01 X4.6762 Y6.6910
G01 X1.3238 Y6.6910
G01 X1.2640 Y6.7310
G01 X4.7360 Y6.7310
G01 X4.7959 Y6.7710
G01 X1.2041 Y6.7710
G01 X1.1570 Y6.8110
G01 X4.8430 Y6.8110
G01 X4.8830 Y6.8510
G01 X1.1170 Y6.8510
G01 X1.0770 Y6.8910
G01 X4.9230 Y6.8910
G01 X4.9630 Y6.9310
G01 X1.0370 Y6.9310
G01 X0.9970 Y6.9710
G01 X5.0030 Y6.9710
G01 X5.0430 Y7.0110
G01 X0.9570 Y7.0110
G01 X0.9170 Y7.0510
G01 X5.0830 Y7.0510
G01 X5.1230 Y7.0910
G01 X0.8770 Y7.0910
G01 X0.8370 Y7.1310
G01 X5.1630 Y7.1310
G01 X5.2030 Y7.1710
G01 X0.7970 Y7.1710
G01 X0.7664 Y7.2110
G01 X5.2336 Y7.2110
G01 X5.2603 Y7.2510
G01 X0.7397 Y7.2510
G01 X0.7130 Y7.2910
G01 X5.2870 Y7.2910
G01 X5.3138 Y7.3310
G01 X0.6862 Y7.3310
G01 X0.6595 Y7.3710
G01 X5.3405 Y7.3710
G01 X5.3672 Y7.4110
G01 X0.6328 Y7.4110
G01 X0.6060 Y7.4510
G01 X5.3940 Y7.4510
G01 X5.4207 Y7.4910
G01 X0.5793 Y7.4910
G01 X0.5526 Y7.5310
G01 X5.4474 Y7.5310
G01 X5.4741 Y7.5710
G01 X0.5259 Y7.5710
G01 X0.4991 Y7.6110
G01 X5.5009 Y7.6110
G01 X5.5272 Y7.6510
G01 X0.4728 Y7.6510
G01 X0.4562 Y7.6910
G01 X5.5438 Y7.6910
G01 X5.5603 Y7.7310
G01 X0.4397 Y7.7310
G01 X0.4231 Y7.7710
G01 X5.5769 Y7.7710
G01 X5.5935 Y7.8110
G01 X0.4065 Y7.8110
G01 X0.3900 Y7.8510
G01 X5.6100 Y7.8510
G01 X5.6266 Y7.8910
G01 X0.3734 Y7.8910
G01 X0.3568 Y7.9310
G01 X5.6432 Y7.9310
G01 X5.6597 Y7.9710
G01 X0.3403 Y7.9710
G01 X0.3237 Y8.0110
G01 X5.6763 Y8.0110
G01 X5.6929 Y8.0510
G01 X0.3071 Y8.0510
G01 X0.2905 Y8.0910
G01 X5.7095 Y8.0910
G01 X5.7260 Y8.1310
G01 X0.2740 Y8.1310
G01 X0.2580 Y8.1710
G01 X5.7420 Y8.1710
G01 X5.7500 Y8.2110
G01 X0.2500 Y8.2110
G01 X0.2421 Y8.2510
G01 X5.7579 Y8.2510
G01 X5.7659 Y8.2910
G01 X0.2341 Y8.2910
G01 X0.2262 Y8.3310
G01 X5.7738 Y8.3310
G01 X5.7818 Y8.3710
G01 X0.2182 Y8.3710
G01 X0.2102 Y8.4110
G01 X5.7898 Y8.4110
G01 X5.7977 Y8.4510
G01 X0.2023 Y8.4510
G01 X0.1943 Y8.4910
G01 X5.8057 Y8.4910
G01 X5.8136 Y8.5310
G01 X0.1864 Y8.5310
G01 X0.1784 Y8.5710
G01 X5.8216 Y8.5710
G01 X5.8295 Y8.6110
G01 X0.1705 Y8.6110
G01 X0.1625 Y8.6510
G01 X5.8375 Y8.6510
G01 X5.8455 Y8.6910
G01 X0.1545 Y8.6910
G01 X0.1490 Y8.7310
G01 X5.8510 Y8.7310
G01 X5.8510 Y8.7710
G01 X0.1490 Y8.7710
G01 X0.1490 Y8.8110
G01 X5.8510 Y8.8110
G01 X5.8510 Y8.8510
G01 X0.1490 Y8.8510
G01 X0.1490 Y8.8910
G01 X5.8510 Y8.8910
G01 X5.8510 Y8.9310
G01 X0.1490 Y8.9310
G01 X0.1490 Y8.9710
G01 X5.8510 Y8.9710
G01 X5.8510 Y9.0110
G01 X0.1490 Y9.0110
G01 X0.1490 Y9.0510
G01 X5.8510 Y9.0510
G01 X5.8510 Y9.0910
G01 X0.1490 Y9.0910
G01 X0.1490 Y9.1310
G01 X5.8510 Y9.1310
G01 X5.8510 Y9.1710
G01 X0.1490 Y9.1710
G01 X0.1490 Y9.2110
G01 X5.8510 Y9.2110
G01 X5.8510 Y9.2510
G01 X0.1490 Y9.2510
G01 X0.1510 Y9.2910
G01 X5.8490 Y9.2910
G01 X5.8411 Y9.3310
G01 X0.1589 Y9.3310
G01 X0.1669 Y9.3710
G01 X5.8331 Y9.3710
G01 X5.8251 Y9.4110
G01 X0.1749 Y9.4110
G01 X0.1828 Y9.4510
G01 X5.8172 Y9.4510
G01 X5.8092 Y9.4910
G01 X0.1908 Y9.4910
G01 X0.1987 Y9.5310
G01 X5.8013 Y9.5310
G01 X5.7933 Y9.5710
G01 X0.2067 Y9.5710
G01 X0.2146 Y9.6110
G01 X5.7854 Y9.6110
G01 X5.7774 Y9.6510
G01 X0.2226 Y9.6510
G01 X0.2306 Y9.6910
G01 X5.7694 Y9.6910
G01 X5.7615 Y9.7310
G01 X0.2385 Y9.7310
G01 X0.2465 Y9.7710
G01 X5.7535 Y9.7710
G01 X5.7456 Y9.8110
G01 X0.2544 Y9.8110
G01 X0.2666 Y9.8510
G01 X5.7334 Y9.8510
G01 X5.7169 Y9.8910
G01 X0.2831 Y9.8910
G01 X0.2997 Y9.9310
G01 X5.7003 Y9.9310
G01 X5.6837 Y9.9710
G01 X0.3163 Y9.9710
G01 X0.3328 Y10.0110
G01 X5.6672 Y10.0110
G01 X5.6506 Y10.0510
G01 X0.3494 Y10.0510
G01 X0.3660 Y10.0910
G01 X5.6340 Y10.0910
G01 X5.6175 Y10.1310
G01 X0.3825 Y10.1310
G01 X0.3991 Y10.1710
G01 X5.6009 Y10.1710
G01 X5.5843 Y10.2110
G01 X0.4157 Y10.2110
G01 X0.4322 Y10.2510
G01 X5.5678 Y10.2510
G01 X5.5512 Y10.2910
G01 X0.4488 Y10.2910
G01 X0.4654 Y10.3310
G01 X5.5346 Y10.3310
G01 X5.5128 Y10.3710
G01 X0.4872 Y10.3710
G01 X0.5139 Y10.4110
G01 X5.4861 Y10.4110
G01 X5.4594 Y10.4510
G01 X0.5406 Y10.4510
G01 X0.5674 Y10.4910
G01 X5.4326 Y10.4910
G01 X5.4059 Y10.5310
G01 X0.5941 Y10.5310
G01 X0.6208 Y10.5710
G01 X5.3792 Y10.5710
G01 X5.3525 Y10.6110
G01 X0.6475 Y10.6110
G01 X0.6743 Y10.6510
G01 X5.3257 Y10.6510
G01 X5.2990 Y10.6910
G01 X0.7010 Y10.6910
G01 X0.7277 Y10.7310
G01 X5.2723 Y10.7310
G01 X5.2456 Y10.7710
G01 X0.7544 Y10.7710
G00 Z2.0000
G00 X0.7812 Y10.8110
G01 F800.00
G01 Z-0.0001
G01 F300.00
G01 X5.2188 Y10.8110
G01 X5.1809 Y10.8510
G01 X0.8191 Y10.8510
G01 X0.8591 Y10.8910
G01 X5.1409 Y10.8910
G01 X5.1009 Y10.9310
G01 X0.8991 Y10.9310
G01 X0.9391 Y10.9710
G01 X5.0609 Y10.9710
G01 X5.0209 Y11.0110
G01 X0.9791 Y11.0110
G01 X1.0191 Y11.0510
G01 X4.9809 Y11.0510
G01 X4.9409 Y11.0910
G01 X1.0591 Y11.0910
G01 X1.0991 Y11.1310
G01 X4.9009 Y11.1310
G01 X4.8609 Y11.1710
G01 X1.1391 Y11.1710
G01 X1.1791 Y11.2110
G01 X4.8209 Y11.2110
G01 X4.7628 Y11.2510
G01 X1.2372 Y11.2510
G01 X1.2970 Y11.2910
G01 X4.7030 Y11.2910
G01 X4.6431 Y11.3310
G01 X1.3569 Y11.3310
G01 X1.4168 Y11.3710
G01 X4.5832 Y11.3710
G01 X4.5234 Y11.4110
G01 X1.4766 Y11.4110
G01 X1.5365 Y11.4510
G01 X4.4635 Y11.4510
G01 X4.4036 Y11.4910
G01 X1.5964 Y11.4910
G01 X1.6603 Y11.5310
G01 X4.3397 Y11.5310
G01 X4.2431 Y11.5710
G01 X1.7569 Y11.5710
G01 X1.8535 Y11.6110
G01 X4.1465 Y11.6110
G01 X4.0500 Y11.6510
G01 X1.9500 Y11.6510
G01 X2.0466 Y11.6910
G01 X3.9534 Y11.6910
G01 X3.8568 Y11.7310
G01 X2.1432 Y11.7310
G01 X2.3170 Y11.7710
G01 X3.6830 Y11.7710
G01 X3.4819 Y11.8110
G01 X2.5181 Y11.8110
G00 Z2.0000
G00 X3.2651 Y14.5471
G01 F800.00
G01 Z-0.0001
G01 F300.00
G01 X3.6549 Y14.5471
G01 X3.7792 Y14.5871
G01 X3.1408 Y14.5871
G01 X3.0490 Y14.6271
G01 X3.8710 Y14.6271
G01 X3.9308 Y14.6671
G01 X2.9892 Y14.6671
G01 X2.9293 Y14.7071
G01 X3.9907 Y14.7071
G01 X4.0346 Y14.7471
G01 X2.8854 Y14.7471
G01 X2.8454 Y14.7871
G01 X4.0746 Y14.7871
G01 X4.1146 Y14.8271
G01 X2.8054 Y14.8271
G01 X2.7765 Y14.8671
G01 X4.1435 Y14.8671
G01 X4.1702 Y14.9071
G01 X2.7498 Y14.9071
G01 X2.7231 Y14.9471
G01 X4.1969 Y14.9471
G01 X4.2201 Y14.9871
G01 X2.6999 Y14.9871
G01 X2.6834 Y15.0271
G01 X4.2366 Y15.0271
G01 X4.2532 Y15.0671
G01 X2.6668 Y15.0671
G01 X2.6502 Y15.1071
G01 X4.2698 Y15.1071
G01 X4.2822 Y15.1471
G01 X2.6378 Y15.1471
G01 X2.6299 Y15.1871
G01 X4.2901 Y15.1871
G01 X4.2981 Y15.2271
G01 X2.6219 Y15.2271
G01 X2.6139 Y15.2671
G01 X4.3061 Y15.2671
G01 X4.3110 Y15.3071
G01 X2.6090 Y15.3071
G01 X2.6090 Y15.3471
G01 X4.3110 Y15.3471
G01 X4.3110 Y15.3871
G01 X2.6090 Y15.3871
G01 X2.6090 Y15.4271
G01 X4.3110 Y15.4271
G01 X4.3096 Y15.4671
G01 X2.6104 Y15.4671
G01 X2.6183 Y15.5071
G01 X4.3017 Y15.5071
G01 X4.2937 Y15.5471
G01 X2.6263 Y15.5471
G01 X2.6343 Y15.5871
G01 X4.2857 Y15.5871
G01 X4.2772 Y15.6271
G01 X2.6428 Y15.6271
G01 X2.6594 Y15.6671
G01 X4.2606 Y15.6671
G01 X4.2440 Y15.7071
G01 X2.6760 Y15.7071
G01 X2.6925 Y15.7471
G01 X4.2275 Y15.7471
G01 X4.2089 Y15.7871
G01 X2.7111 Y15.7871
G01 X2.7378 Y15.8271
G01 X4.1822 Y15.8271
G01 X4.1554 Y15.8671
G01 X2.7646 Y15.8671
G01 X2.7913 Y15.9071
G01 X4.1287 Y15.9071
G01 X4.0925 Y15.9471
G01 X2.8275 Y15.9471
G01 X2.8675 Y15.9871
G01 X4.0525 Y15.9871
G01 X4.0125 Y16.0271
G01 X2.9075 Y16.0271
G01 X2.9624 Y16.0671
G01 X3.9576 Y16.0671
G01 X3.8978 Y16.1071
G01 X3.0222 Y16.1071
G01 X3.0976 Y16.1471
G01 X3.8224 Y16.1471
G01 X3.7259 Y16.1871
G01 X3.1941 Y16.1871
G01 X3.3562 Y16.2231
G01 X3.3762 Y16.2271
G01 X3.5438 Y16.2271
G01 X3.5638 Y16.2231
G01 X3.7082 Y16.1944
G01 X3.8631 Y16.1302
G01 X4.0025 Y16.0371
G01 X4.1211 Y15.9186
G01 X4.2142 Y15.7792
G01 X4.2783 Y15.6243
G01 X4.3110 Y15.4599
G01 X4.3110 Y15.2922
G01 X4.2783 Y15.1278
G01 X4.2142 Y14.9729
G01 X4.1211 Y14.8335
G01 X4.0025 Y14.7150
G01 X3.8631 Y14.6218
G01 X3.7082 Y14.5577
G01 X3.5638 Y14.5290
G01 X3.5438 Y14.5250
G01 X3.3762 Y14.5250
G01 X3.3562 Y14.5290
G01 X3.2118 Y14.5577
G01 X3.0569 Y14.6218
G01 X2.9175 Y14.7150
G01 X2.7989 Y14.8335
G01 X2.7058 Y14.9729
G01 X2.6417 Y15.1278
G01 X2.6090 Y15.2922
G01 X2.6090 Y15.4599
G01 X2.6417 Y15.6243
G01 X2.7058 Y15.7792
G01 X2.7989 Y15.9185
G01 X2.9175 Y16.0371
G01 X3.0569 Y16.1302
G01 X3.2118 Y16.1944
G01 X3.3562 Y16.2231
G00 Z2.0000
G00 X5.1490 Y16.1871
G01 F800.00
G01 Z-0.0001
G01 F300.00
G01 X6.8510 Y16.1871
G01 X6.8510 Y16.1471
G01 X5.1490 Y16.1471
G01 X5.1490 Y16.1071
G01 X6.8510 Y16.1071
G01 X6.8510 Y16.0671
G01 X5.1490 Y16.0671
G01 X5.1490 Y16.0271
G01 X6.8510 Y16.0271
G01 X6.8510 Y15.9871
G01 X5.1490 Y15.9871
G01 X5.1490 Y15.9471
G01 X6.8510 Y15.9471
G01 X6.8510 Y15.9071
G01 X5.1490 Y15.9071
G01 X5.1490 Y15.8671
G01 X6.8510 Y15.8671
G01 X6.8510 Y15.8271
G01 X5.1490 Y15.8271
G01 X5.1490 Y15.7871
G01 X6.8510 Y15.7871
G01 X6.8510 Y15.7471
G01 X5.1490 Y15.7471
G01 X5.1490 Y15.7071
G01 X6.8510 Y15.7071
G01 X6.8510 Y15.6671
G01 X5.1490 Y15.6671
G01 X5.1490 Y15.6271
G01 X6.8510 Y15.6271
G01 X6.8510 Y15.5871
G01 X5.1490 Y15.5871
G01 X5.1490 Y15.5471
G01 X6.8510 Y15.5471
G01 X6.8510 Y15.5071
G01 X5.1490 Y15.5071
G01 X5.1490 Y15.4671
G01 X6.8510 Y15.4671
G01 X6.8510 Y15.4271
G01 X5.1490 Y15.4271
G01 X5.1490 Y15.3871
G01 X6.8510 Y15.3871
G01 X6.8510 Y15.3471
G01 X5.1490 Y15.3471
G01 X5.1490 Y15.3071
G01 X6.8510 Y15.3071
G01 X6.8510 Y15.2671
G01 X5.1490 Y15.2671
G01 X5.1490 Y15.2271
G01 X6.8510 Y15.2271
G01 X6.8510 Y15.1871
G01 X5.1490 Y15.1871
G01 X5.1490 Y15.1471
G01 X6.8510 Y15.1471
G01 X6.8510 Y15.1071
G01 X5.1490 Y15.1071
G01 X5.1490 Y15.0671
G01 X6.8510 Y15.0671
G01 X6.8510 Y15.0271
G01 X5.1490 Y15.0271
G01 X5.1490 Y14.9871
G01 X6.8510 Y14.9871
G01 X6.8510 Y14.9471
G01 X5.1490 Y14.9471
G01 X5.1490 Y14.9071
G01 X6.8510 Y14.9071
G01 X6.8510 Y14.8671
G01 X5.1490 Y14.8671
G01 X5.1490 Y14.8271
G01 X6.8510 Y14.8271
G01 X6.8510 Y14.7871
G01 X5.1490 Y14.7871
G01 X5.1490 Y14.7471
G01 X6.8510 Y14.7471
G01 X6.8510 Y14.7071
G01 X5.1490 Y14.7071
G01 X5.1490 Y14.6671
G01 X6.8510 Y14.6671
G01 X6.8510 Y14.6271
G01 X5.1490 Y14.6271
G01 X5.1490 Y14.5871
G01 X6.8510 Y14.5871
G01 X6.8510 Y14.5250
G01 X6.8510 Y16.2271
G01 X5.1490 Y16.2270
G01 X5.1490 Y14.5250
G01 X6.8510 Y14.5250
G01 X6.8510 Y14.5471
G01 X5.1490 Y14.5471
G00 Z2.0000
G00 X9.4246 Y12.6454
G01 F800.00
G01 Z-0.0001
G01 F300.00
G01 X11.4078 Y12.6454
G01 X11.4078 Y12.6054
G01 X9.4246 Y12.6054
G01 X9.4246 Y12.5654
G01 X11.4078 Y12.5654
G01 X11.4078 Y12.5254
G01 X9.4246 Y12.5254
G01 X9.4246 Y12.4854
G01 X11.4078 Y12.4854
G01 X11.4078 Y12.4454
G01 X9.4246 Y12.4454
G01 X9.4246 Y12.4054
G01 X11.4078 Y12.4054
G01 X11.4078 Y12.3654
G01 X9.4246 Y12.3654
G01 X9.4246 Y12.3254
G01 X11.4078 Y12.3254
G01 X11.4078 Y12.2854
G01 X9.4246 Y12.2854
G01 X9.4246 Y12.2454
G01 X11.4078 Y12.2454
G01 X11.4078 Y12.2054
G01 X9.4246 Y12.2054
G01 X9.4246 Y12.1654
G01 X11.4078 Y12.1654
G01 X11.4078 Y12.1246
G01 X11.4078 Y12.6854
G01 X9.4246 Y12.6854
G01 X9.4246 Y12.1246
G01 X11.4078 Y12.1246
G01 X11.4078 Y12.1254
G01 X9.4246 Y12.1254
G00 Z2.0000
G00 X9.4246 Y11.3754
G01 F800.00
G01 Z-0.0001
G01 F300.00
G01 X11.4078 Y11.3754
G01 X11.4078 Y11.3354
G01 X9.4246 Y11.3354
G01 X9.4246 Y11.2954
G01 X11.4078 Y11.2954
G01 X11.4078 Y11.2554
G01 X9.4246 Y11.2554
G01 X9.4246 Y11.2154
G01 X11.4078 Y11.2154
G01 X11.4078 Y11.1754
G01 X9.4246 Y11.1754
G01 X9.4246 Y11.1354
G01 X11.4078 Y11.1354
G01 X11.4078 Y11.0954
G01 X9.4246 Y11.0954
G01 X9.4246 Y11.0554
G01 X11.4078 Y11.0554
G01 X11.4078 Y11.0154
G01 X9.4246 Y11.0154
G01 X9.4246 Y10.9754
G01 X11.4078 Y10.9754
G01 X11.4078 Y10.9354
G01 X9.4246 Y10.9354
G01 X9.4246 Y10.8954
G01 X11.4078 Y10.8954
G01 X11.4078 Y10.8546
G01 X11.4078 Y11.4154
G01 X9.4246 Y11.4154
G01 X9.4246 Y10.8546
G01 X11.4078 Y10.8546
G01 X11.4078 Y10.8554
G01 X9.4246 Y10.8554
G00 Z2.0000
G00 X9.4246 Y10.1054
G01 F800.00
G01 Z-0.0001
G01 F300.00
G01 X11.4078 Y10.1054
G01 X11.4078 Y10.0654
G01 X9.4246 Y10.0654
G01 X9.4246 Y10.0254
G01 X11.4078 Y10.0254
G01 X11.4078 Y9.9854
G01 X9.4246 Y9.9854
G01 X9.4246 Y9.9454
G01 X11.4078 Y9.9454
G01 X11.4078 Y9.9054
G01 X9.4246 Y9.9054
G01 X9.4246 Y9.8654
G01 X11.4078 Y9.8654
G01 X11.4078 Y9.8254
G01 X9.4246 Y9.8254
G01 X9.4246 Y9.7854
G01 X11.4078 Y9.7854
G01 X11.4078 Y9.7454
G01 X9.4246 Y9.7454
G01 X9.4246 Y9.7054
G01 X11.4078 Y9.7054
G01 X11.4078 Y9.6654
G01 X9.4246 Y9.6654
G01 X9.4246 Y9.6254
G01 X11.4078 Y9.6254
G01 X11.4078 Y9.5846
G01 X11.4078 Y10.1454
G01 X9.4246 Y10.1454
G01 X9.4246 Y9.5846
G01 X11.4078 Y9.5846
G01 X11.4078 Y9.5854
G01 X9.4246 Y9.5854
G00 Z2.0000
G00 X9.4246 Y8.8354
G01 F800.00
G01 Z-0.0001
G01 F300.00
G01 X11.4078 Y8.8354
G01 X11.4078 Y8.7954
G01 X9.4246 Y8.7954
G01 X9.4246 Y8.7554
G01 X11.4078 Y8.7554
G01 X11.4078 Y8.7154
G01 X9.4246 Y8.7154
G01 X9.4246 Y8.6754
G01 X11.4078 Y8.6754
G01 X11.4078 Y8.6354
G01 X9.4246 Y8.6354
G01 X9.4246 Y8.5954
G01 X11.4078 Y8.5954
G01 X11.4078 Y8.5554
G01 X9.4246 Y8.5554
G01 X9.4246 Y8.5154
G01 X11.4078 Y8.5154
G01 X11.4078 Y8.4754
G01 X9.4246 Y8.4754
G01 X9.4246 Y8.4354
G01 X11.4078 Y8.4354
G01 X11.4078 Y8.3954
G01 X9.4246 Y8.3954
G01 X9.4246 Y8.3554
G01 X11.4078 Y8.3554
G01 X11.4078 Y8.3146
G01 X11.4078 Y8.8754
G01 X9.4246 Y8.8754
G01 X9.4246 Y8.3146
G01 X11.4078 Y8.3146
G01 X11.4078 Y8.3154
G01 X9.4246 Y8.3154
G00 Z2.0000
G00 X8.8786 Y5.8023
G01 F800.00
G01 Z-0.0001
G01 F300.00
G01 X9.3793 Y5.8023
G01 X9.4957 Y5.7623
G01 X8.7622 Y5.7623
G01 X8.6873 Y5.7223
G01 X9.5705 Y5.7223
G01 X9.6407 Y5.6823
G01 X8.6172 Y5.6823
G01 X8.5685 Y5.6423
G01 X9.6894 Y5.6423
G01 X9.7382 Y5.6023
G01 X8.5197 Y5.6023
G01 X8.4768 Y5.5623
G01 X9.7811 Y5.5623
G01 X9.8139 Y5.5223
G01 X8.4439 Y5.5223
G01 X8.4111 Y5.4823
G01 X9.8468 Y5.4823
G01 X9.8796 Y5.4423
G01 X8.3783 Y5.4423
G01 X8.3562 Y5.4023
G01 X9.9017 Y5.4023
G01 X9.9231 Y5.3623
G01 X8.3348 Y5.3623
G01 X8.3134 Y5.3223
G01 X9.9445 Y5.3223
G01 X9.9657 Y5.2823
G01 X8.2922 Y5.2823
G01 X8.2801 Y5.2423
G01 X9.9778 Y5.2423
G01 X9.9900 Y5.2023
G01 X8.2679 Y5.2023
G01 X8.2558 Y5.1623
G01 X10.0021 Y5.1623
G01 X10.0142 Y5.1223
G01 X8.2437 Y5.1223
G01 X8.2379 Y5.0823
G01 X10.0200 Y5.0823
G01 X10.0239 Y5.0423
G01 X8.2339 Y5.0423
G01 X8.2300 Y5.0023
G01 X10.0279 Y5.0023
G01 X10.0300 Y4.9623
G01 X8.2279 Y4.9623
G01 X8.2279 Y4.9223
G01 X10.0300 Y4.9223
G01 X10.0300 Y4.8823
G01 X8.2279 Y4.8823
G01 X8.2279 Y4.8423
G01 X10.0300 Y4.8423
G01 X10.0300 Y4.8023
G01 X8.2279 Y4.8023
G01 X8.2279 Y4.7623
G01 X10.0300 Y4.7623
G01 X10.0300 Y4.7223
G01 X8.2279 Y4.7223
G01 X8.2279 Y4.6823
G01 X10.0300 Y4.6823
G01 X10.0300 Y4.6423
G01 X8.2279 Y4.6423
G01 X8.2279 Y4.6023
G01 X10.0300 Y4.6023
G01 X10.0300 Y4.5623
G01 X8.2279 Y4.5623
G01 X8.2279 Y4.5223
G01 X10.0300 Y4.5223
G01 X10.0300 Y4.4823
G01 X8.2279 Y4.4823
G01 X8.2279 Y4.4423
G01 X10.0300 Y4.4423
G01 X10.0300 Y4.4023
G01 X8.2279 Y4.4023
G01 X8.2279 Y4.3623
G01 X10.0300 Y4.3623
G01 X10.0300 Y4.3223
G01 X8.2279 Y4.3223
G01 X8.2279 Y4.2823
G01 X10.0300 Y4.2823
G01 X10.0300 Y4.2423
G01 X8.2279 Y4.2423
G01 X8.2279 Y4.2023
G01 X10.0300 Y4.2023
G01 X10.0300 Y4.1623
G01 X8.2279 Y4.1623
G01 X8.2279 Y4.1223
G01 X10.0300 Y4.1223
G01 X10.0300 Y4.0823
G01 X8.2279 Y4.0823
G01 X8.2279 Y4.0423
G01 X10.0300 Y4.0423
G01 X10.0300 Y4.0023
G01 X8.2279 Y4.0023
G01 X8.2279 Y3.9623
G01 X10.0300 Y3.9623
G01 X10.0300 Y3.9223
G01 X8.2279 Y3.9223
G01 X8.2279 Y3.8823
G01 X10.0300 Y3.8823
G01 X10.0300 Y3.8423
G01 X8.2279 Y3.8423
G01 X8.2279 Y3.8023
G01 X10.0300 Y3.8023
G01 X10.0300 Y3.7623
G01 X8.2279 Y3.7623
G01 X8.2279 Y3.7223
G01 X10.0300 Y3.7223
G01 X10.0300 Y3.6823
G01 X8.2279 Y3.6823
G01 X8.2279 Y3.6423
G01 X10.0300 Y3.6423
G01 X10.0300 Y3.6023
G01 X8.2279 Y3.6023
G01 X8.2279 Y3.5623
G01 X10.0300 Y3.5623
G01 X10.0300 Y3.5223
G01 X8.2279 Y3.5223
G01 X8.2279 Y3.4823
G01 X10.0300 Y3.4823
G01 X10.0300 Y3.4423
G01 X8.2279 Y3.4423
G01 X8.2279 Y3.4023
G01 X10.0300 Y3.4023
G01 X10.0300 Y3.3623
G01 X8.2279 Y3.3623
G01 X8.2279 Y3.3223
G01 X10.0300 Y3.3223
G01 X10.0300 Y3.2823
G01 X8.2279 Y3.2823
G01 X8.2279 Y3.2423
G01 X10.0300 Y3.2423
G01 X10.0300 Y3.2023
G01 X8.2279 Y3.2023
G01 X8.2279 Y3.1623
G01 X10.0300 Y3.1623
G01 X10.0300 Y3.1223
G01 X8.2279 Y3.1223
G01 X8.2289 Y3.0823
G01 X10.0290 Y3.0823
G01 X10.0251 Y3.0423
G01 X8.2328 Y3.0423
G01 X8.2368 Y3.0023
G01 X10.0211 Y3.0023
G01 X10.0172 Y2.9623
G01 X8.2407 Y2.9623
G01 X8.2409 Y2.9600
G01 X8.2925 Y2.7902
G01 X8.3761 Y2.6336
G01 X8.4887 Y2.4964
G01 X8.6259 Y2.3838
G01 X8.7691 Y2.3073
G01 X8.7825 Y2.3002
G01 X8.9523 Y2.2486
G01 X9.1289 Y2.2312
G01 X9.3056 Y2.2486
G01 X9.4754 Y2.3002
G01 X9.6320 Y2.3838
G01 X9.7692 Y2.4964
G01 X9.8818 Y2.6336
G01 X9.9654 Y2.7902
G01 X10.0170 Y2.9600
G01 X10.0300 Y3.0924
G01 X10.0300 Y4.9809
G01 X10.0170 Y5.1133
G01 X9.9654 Y5.2831
G01 X9.8818 Y5.4397
G01 X9.7692 Y5.5769
G01 X9.6320 Y5.6895
G01 X9.4754 Y5.7731
G01 X9.3056 Y5.8247
G01 X9.1289 Y5.8421
G01 X8.9523 Y5.8247
G01 X8.7825 Y5.7731
G01 X8.6259 Y5.6895
G01 X8.4887 Y5.5769
G01 X8.3761 Y5.4397
G01 X8.2925 Y5.2831
G01 X8.2409 Y5.1133
G01 X8.2279 Y4.9809
G01 X8.2279 Y3.0924
G01 X8.2409 Y2.9600
G01 X8.2524 Y2.9223
G01 X10.0055 Y2.9223
G01 X9.9934 Y2.8823
G01 X8.2645 Y2.8823
G01 X8.2766 Y2.8423
G01 X9.9812 Y2.8423
G01 X9.9691 Y2.8023
G01 X8.2888 Y2.8023
G00 Z2.0000
G00 X8.3073 Y2.7623
G01 F800.00
G01 Z-0.0001
G01 F300.00
G01 X9.9505 Y2.7623
G01 X9.9292 Y2.7223
G01 X8.3287 Y2.7223
G01 X8.3501 Y2.6823
G01 X9.9078 Y2.6823
G01 X9.8864 Y2.6423
G01 X8.3715 Y2.6423
G01 X8.4018 Y2.6023
G01 X9.8561 Y2.6023
G01 X9.8232 Y2.5623
G01 X8.4347 Y2.5623
G01 X8.4675 Y2.5223
G01 X9.7904 Y2.5223
G01 X9.7519 Y2.4823
G01 X8.5059 Y2.4823
G01 X8.5547 Y2.4423
G01 X9.7032 Y2.4423
G01 X9.6545 Y2.4023
G01 X8.6034 Y2.4023
G01 X8.6662 Y2.3623
G01 X9.5917 Y2.3623
G01 X9.5168 Y2.3223
G01 X8.7410 Y2.3223
G01 X8.8413 Y2.2823
G01 X9.4165 Y2.2823
G01 X9.2412 Y2.2423
G01 X9.0167 Y2.2423
G00 Z2.0000
G00 X12.0509 Y2.9600
G01 F800.00
G01 Z-0.0001
G01 F300.00
G01 X12.0379 Y3.0924
G01 X12.0379 Y4.9809
G01 X12.0509 Y5.1133
G01 X12.1025 Y5.2831
G01 X12.1861 Y5.4397
G01 X12.2987 Y5.5769
G01 X12.4359 Y5.6895
G01 X12.5925 Y5.7731
G01 X12.7623 Y5.8247
G01 X12.9389 Y5.8421
G01 X13.1156 Y5.8247
G01 X13.2854 Y5.7731
G01 X13.4420 Y5.6895
G01 X13.5792 Y5.5769
G01 X13.6918 Y5.4397
G01 X13.7754 Y5.2831
G01 X13.8270 Y5.1133
G01 X13.8400 Y4.9809
G01 X13.8400 Y3.0924
G01 X13.8270 Y2.9600
G01 X13.7754 Y2.7902
G01 X13.6918 Y2.6336
G01 X13.5792 Y2.4964
G01 X13.4420 Y2.3838
G01 X13.2854 Y2.3002
G01 X13.1156 Y2.2486
G01 X12.9389 Y2.2312
G01 X12.7623 Y2.2486
G01 X12.5925 Y2.3002
G01 X12.5791 Y2.3073
G01 X12.4359 Y2.3838
G01 X12.2987 Y2.4964
G01 X12.1861 Y2.6336
G01 X12.1025 Y2.7902
G01 X12.0509 Y2.9600
G01 X12.0507 Y2.9623
G01 X13.8272 Y2.9623
G01 X13.8311 Y3.0023
G01 X12.0468 Y3.0023
G01 X12.0428 Y3.0423
G01 X13.8351 Y3.0423
G01 X13.8390 Y3.0823
G01 X12.0389 Y3.0823
G01 X12.0379 Y3.1223
G01 X13.8400 Y3.1223
G01 X13.8400 Y3.1623
G01 X12.0379 Y3.1623
G01 X12.0379 Y3.2023
G01 X13.8400 Y3.2023
G01 X13.8400 Y3.2423
G01 X12.0379 Y3.2423
G01 X12.0379 Y3.2823
G01 X13.8400 Y3.2823
G01 X13.8400 Y3.3223
G01 X12.0379 Y3.3223
G01 X12.0379 Y3.3623
G01 X13.8400 Y3.3623
G01 X13.8400 Y3.4023
G01 X12.0379 Y3.4023
G01 X12.0379 Y3.4423
G01 X13.8400 Y3.4423
G01 X13.8400 Y3.4823
G01 X12.0379 Y3.4823
G01 X12.0379 Y3.5223
G01 X13.8400 Y3.5223
G01 X13.8400 Y3.5623
G01 X12.0379 Y3.5623
G01 X12.0379 Y3.6023
G01 X13.8400 Y3.6023
G01 X13.8400 Y3.6423
G01 X12.0379 Y3.6423
G01 X12.0379 Y3.6823
G01 X13.8400 Y3.6823
G01 X13.8400 Y3.7223
G01 X12.0379 Y3.7223
G01 X12.0379 Y3.7623
G01 X13.8400 Y3.7623
G01 X13.8400 Y3.8023
G01 X12.0379 Y3.8023
G01 X12.0379 Y3.8423
G01 X13.8400 Y3.8423
G01 X13.8400 Y3.8823
G01 X12.0379 Y3.8823
G01 X12.0379 Y3.9223
G01 X13.8400 Y3.9223
G01 X13.8400 Y3.9623
G01 X12.0379 Y3.9623
G01 X12.0379 Y4.0023
G01 X13.8400 Y4.0023
G01 X13.8400 Y4.0423
G01 X12.0379 Y4.0423
G01 X12.0379 Y4.0823
G01 X13.8400 Y4.0823
G01 X13.8400 Y4.1223
G01 X12.0379 Y4.1223
G01 X12.0379 Y4.1623
G01 X13.8400 Y4.1623
G01 X13.8400 Y4.2023
G01 X12.0379 Y4.2023
G01 X12.0379 Y4.2423
G01 X13.8400 Y4.2423
G01 X13.8400 Y4.2823
G01 X12.0379 Y4.2823
G01 X12.0379 Y4.3223
G01 X13.8400 Y4.3223
G01 X13.8400 Y4.3623
G01 X12.0379 Y4.3623
G01 X12.0379 Y4.4023
G01 X13.8400 Y4.4023
G01 X13.8400 Y4.4423
G01 X12.0379 Y4.4423
G01 X12.0379 Y4.4823
G01 X13.8400 Y4.4823
G01 X13.8400 Y4.5223
G01 X12.0379 Y4.5223
G01 X12.0379 Y4.5623
G01 X13.8400 Y4.5623
G01 X13.8400 Y4.6023
G01 X12.0379 Y4.6023
G01 X12.0379 Y4.6423
G01 X13.8400 Y4.6423
G01 X13.8400 Y4.6823
G01 X12.0379 Y4.6823
G01 X12.0379 Y4.7223
G01 X13.8400 Y4.7223
G01 X13.8400 Y4.7623
G01 X12.0379 Y4.7623
G01 X12.0379 Y4.8023
G01 X13.8400 Y4.8023
G01 X13.8400 Y4.8423
G01 X12.0379 Y4.8423
G01 X12.0379 Y4.8823
G01 X13.8400 Y4.8823
G01 X13.8400 Y4.9223
G01 X12.0379 Y4.9223
G01 X12.0379 Y4.9623
G01 X13.8400 Y4.9623
G01 X13.8379 Y5.0023
G01 X12.0400 Y5.0023
G01 X12.0439 Y5.0423
G01 X13.8339 Y5.0423
G01 X13.8300 Y5.0823
G01 X12.0479 Y5.0823
G01 X12.0537 Y5.1223
G01 X13.8242 Y5.1223
G01 X13.8121 Y5.1623
G01 X12.0658 Y5.1623
G01 X12.0779 Y5.2023
G01 X13.8000 Y5.2023
G01 X13.7878 Y5.2423
G01 X12.0901 Y5.2423
G01 X12.1022 Y5.2823
G01 X13.7757 Y5.2823
G01 X13.7545 Y5.3223
G01 X12.1234 Y5.3223
G01 X12.1448 Y5.3623
G01 X13.7331 Y5.3623
G01 X13.7117 Y5.4023
G01 X12.1662 Y5.4023
G01 X12.1883 Y5.4423
G01 X13.6896 Y5.4423
G01 X13.6568 Y5.4823
G01 X12.2211 Y5.4823
G01 X12.2539 Y5.5223
G01 X13.6239 Y5.5223
G01 X13.5911 Y5.5623
G01 X12.2868 Y5.5623
G01 X12.3297 Y5.6023
G01 X13.5482 Y5.6023
G01 X13.4994 Y5.6423
G01 X12.3785 Y5.6423
G01 X12.4272 Y5.6823
G01 X13.4507 Y5.6823
G01 X13.3805 Y5.7223
G01 X12.4973 Y5.7223
G01 X12.5722 Y5.7623
G01 X13.3057 Y5.7623
G01 X13.1893 Y5.8023
G01 X12.6886 Y5.8023
G00 Z2.0000
G00 X12.0624 Y2.9223
G01 F800.00
G01 Z-0.0001
G01 F300.00
G01 X13.8155 Y2.9223
G01 X13.8034 Y2.8823
G01 X12.0745 Y2.8823
G01 X12.0866 Y2.8423
G01 X13.7912 Y2.8423
G01 X13.7791 Y2.8023
G01 X12.0988 Y2.8023
G01 X12.1173 Y2.7623
G01 X13.7605 Y2.7623
G01 X13.7392 Y2.7223
G01 X12.1387 Y2.7223
G01 X12.1601 Y2.6823
G01 X13.7178 Y2.6823
G01 X13.6964 Y2.6423
G01 X12.1815 Y2.6423
G01 X12.2118 Y2.6023
G01 X13.6661 Y2.6023
G01 X13.6332 Y2.5623
G01 X12.2447 Y2.5623
G01 X12.2775 Y2.5223
G01 X13.6004 Y2.5223
G01 X13.5619 Y2.4823
G01 X12.3159 Y2.4823
G01 X12.3647 Y2.4423
G01 X13.5132 Y2.4423
G01 X13.4645 Y2.4023
G01 X12.4134 Y2.4023
G01 X12.4762 Y2.3623
G01 X13.4017 Y2.3623
G01 X13.3268 Y2.3223
G01 X12.5510 Y2.3223
G01 X12.6513 Y2.2823
G01 X13.2265 Y2.2823
G01 X13.0512 Y2.2423
G01 X12.8267 Y2.2423
G00 Z2.0000
G00 X15.8489 Y2.3577
G01 F800.00
G01 Z-0.0001
G01 F300.00
G01 X17.6490 Y2.3577
G01 X17.6500 Y2.3977
G01 X15.8479 Y2.3977
G01 X15.8479 Y2.4377
G01 X17.6500 Y2.4377
G01 X17.6500 Y2.4777
G01 X15.8479 Y2.4777
G01 X15.8479 Y2.5177
G01 X17.6500 Y2.5177
G01 X17.6500 Y2.5577
G01 X15.8479 Y2.5577
G01 X15.8479 Y2.5977
G01 X17.6500 Y2.5977
G01 X17.6500 Y2.6377
G01 X15.8479 Y2.6377
G01 X15.8479 Y2.6777
G01 X17.6500 Y2.6777
G01 X17.6500 Y2.7177
G01 X15.8479 Y2.7177
G01 X15.8479 Y2.7577
G01 X17.6500 Y2.7577
G01 X17.6500 Y2.7977
G01 X15.8479 Y2.7977
G01 X15.8479 Y2.8377
G01 X17.6500 Y2.8377
G01 X17.6500 Y2.8777
G01 X15.8479 Y2.8777
G01 X15.8479 Y2.9177
G01 X17.6500 Y2.9177
G01 X17.6500 Y2.9577
G01 X15.8479 Y2.9577
G01 X15.8479 Y2.9977
G01 X17.6500 Y2.9977
G01 X17.6500 Y3.0377
G01 X15.8479 Y3.0377
G01 X15.8479 Y3.0777
G01 X17.6500 Y3.0777
G01 X17.6500 Y3.1177
G01 X15.8479 Y3.1177
G01 X15.8479 Y3.1577
G01 X17.6500 Y3.1577
G01 X17.6500 Y3.1977
G01 X15.8479 Y3.1977
G01 X15.8479 Y3.2377
G01 X17.6500 Y3.2377
G01 X17.6500 Y3.2777
G01 X15.8479 Y3.2777
G01 X15.8479 Y3.3177
G01 X17.6500 Y3.3177
G01 X17.6500 Y3.3577
G01 X15.8479 Y3.3577
G01 X15.8479 Y3.3977
G01 X17.6500 Y3.3977
G01 X17.6500 Y3.4377
G01 X15.8479 Y3.4377
G01 X15.8479 Y3.4777
G01 X17.6500 Y3.4777
G01 X17.6500 Y3.5177
G01 X15.8479 Y3.5177
G01 X15.8479 Y3.5577
G01 X17.6500 Y3.5577
G01 X17.6500 Y3.5977
G01 X15.8479 Y3.5977
G01 X15.8479 Y3.6377
G01 X17.6500 Y3.6377
G01 X17.6500 Y3.6777
G01 X15.8479 Y3.6777
G01 X15.8479 Y3.7177
G01 X17.6500 Y3.7177
G01 X17.6500 Y3.7577
G01 X15.8479 Y3.7577
G01 X15.8479 Y3.7977
G01 X17.6500 Y3.7977
G01 X17.6500 Y3.8377
G01 X15.8479 Y3.8377
G01 X15.8479 Y3.8777
G01 X17.6500 Y3.8777
G01 X17.6500 Y3.9177
G01 X15.8479 Y3.9177
G01 X15.8479 Y3.9577
G01 X17.6500 Y3.9577
G01 X17.6500 Y3.9977
G01 X15.8479 Y3.9977
G01 X15.8479 Y4.0377
G01 X17.6500 Y4.0377
G01 X17.6500 Y4.0777
G01 X15.8479 Y4.0777
G01 X15.8479 Y4.1177
G01 X17.6500 Y4.1177
G01 X17.6500 Y4.1577
G01 X15.8479 Y4.1577
G01 X15.8479 Y4.1977
G01 X17.6500 Y4.1977
G01 X17.6500 Y4.2377
G01 X15.8479 Y4.2377
G01 X15.8479 Y4.2777
G01 X17.6500 Y4.2777
G01 X17.6500 Y4.3177
G01 X15.8479 Y4.3177
G01 X15.8479 Y4.3577
G01 X17.6500 Y4.3577
G01 X17.6500 Y4.3977
G01 X15.8479 Y4.3977
G01 X15.8479 Y4.4377
G01 X17.6500 Y4.4377
G01 X17.6500 Y4.4777
G01 X15.8479 Y4.4777
G01 X15.8479 Y4.5177
G01 X17.6500 Y4.5177
G01 X17.6500 Y4.5577
G01 X15.8479 Y4.5577
G01 X15.8479 Y4.5977
G01 X17.6500 Y4.5977
G01 X17.6500 Y4.6377
G01 X15.8479 Y4.6377
G01 X15.8479 Y4.6777
G01 X17.6500 Y4.6777
G01 X17.6500 Y4.7177
G01 X15.8479 Y4.7177
G01 X15.8479 Y4.7577
G01 X17.6500 Y4.7577
G01 X17.6500 Y4.7977
G01 X15.8479 Y4.7977
G01 X15.8479 Y4.8377
G01 X17.6500 Y4.8377
G01 X17.6500 Y4.8777
G01 X15.8479 Y4.8777
G01 X15.8479 Y4.9177
G01 X17.6500 Y4.9177
G01 X17.6500 Y4.9577
G01 X15.8479 Y4.9577
G01 X15.8479 Y4.9977
G01 X17.6500 Y4.9977
G01 X17.6500 Y5.0377
G01 X15.8479 Y5.0377
G01 X15.8479 Y5.0777
G01 X17.6500 Y5.0777
G01 X17.6500 Y5.1177
G01 X15.8479 Y5.1177
G01 X15.8479 Y5.1577
G01 X17.6500 Y5.1577
G01 X17.6500 Y5.1977
G01 X15.8479 Y5.1977
G01 X15.8479 Y5.2377
G01 X17.6500 Y5.2377
G01 X17.6500 Y5.2777
G01 X15.8479 Y5.2777
G01 X15.8479 Y5.3177
G01 X17.6500 Y5.3177
G01 X17.6500 Y5.3577
G01 X15.8479 Y5.3577
G01 X15.8479 Y5.3977
G01 X17.6500 Y5.3977
G01 X17.6500 Y5.4377
G01 X15.8479 Y5.4377
G01 X15.8479 Y5.4777
G01 X17.6500 Y5.4777
G01 X17.6500 Y5.5177
G01 X15.8479 Y5.5177
G01 X15.8479 Y5.5577
G01 X17.6500 Y5.5577
G01 X17.6500 Y5.5977
G01 X15.8479 Y5.5977
G01 X15.8479 Y5.6377
G01 X17.6500 Y5.6377
G01 X17.6500 Y5.6777
G01 X15.8479 Y5.6777
G01 X15.8491 Y5.7177
G01 X17.6488 Y5.7177
G01 X17.6407 Y5.7577
G01 X15.8572 Y5.7577
G01 X15.8823 Y5.7977
G01 X17.6156 Y5.7977
G00 Z2.0000
G00 X15.9478 Y5.8345
G01 F800.00
G01 Z-0.0001
G01 F300.00
G01 X15.9804 Y5.8377
G01 X17.5175 Y5.8377
G01 X17.5501 Y5.8345
G01 X17.5732 Y5.8275
G01 X17.5944 Y5.8161
G01 X17.6131 Y5.8008
G01 X17.6284 Y5.7822
G01 X17.6398 Y5.7609
G01 X17.6468 Y5.7378
G01 X17.6500 Y5.7052
G01 X17.6500 Y2.3681
G01 X17.6468 Y2.3355
G01 X17.6398 Y2.3124
G01 X17.6284 Y2.2912
G01 X17.6131 Y2.2725
G01 X17.5944 Y2.2572
G01 X17.5732 Y2.2458
G01 X17.5501 Y2.2388
G01 X17.5175 Y2.2356
G01 X15.9804 Y2.2356
G01 X15.9478 Y2.2388
G01 X15.9247 Y2.2458
G01 X15.9035 Y2.2572
G01 X15.8848 Y2.2725
G01 X15.8695 Y2.2912
G01 X15.8581 Y2.3124
G01 X15.8511 Y2.3355
G01 X15.8479 Y2.3681
G01 X15.8479 Y5.7052
G01 X15.8511 Y5.7378
G01 X15.8581 Y5.7609
G01 X15.8695 Y5.7821
G01 X15.8848 Y5.8008
G01 X15.9034 Y5.8161
G01 X15.9247 Y5.8275
G01 X15.9478 Y5.8345
G00 Z2.0000
G00 X14.3522 Y8.3154
G01 F800.00
G01 Z-0.0001
G01 F300.00
G01 X16.3354 Y8.3154
G01 X16.3354 Y8.3146
G01 X14.3522 Y8.3146
G01 X14.3522 Y8.8754
G01 X16.3354 Y8.8754
G01 X16.3354 Y8.3146
G01 X16.3354 Y8.3554
G01 X14.3522 Y8.3554
G01 X14.3522 Y8.3954
G01 X16.3354 Y8.3954
G01 X16.3354 Y8.4354
G01 X14.3522 Y8.4354
G01 X14.3522 Y8.4754
G01 X16.3354 Y8.4754
G01 X16.3354 Y8.5154
G01 X14.3522 Y8.5154
G01 X14.3522 Y8.5554
G01 X16.3354 Y8.5554
G01 X16.3354 Y8.5954
G01 X14.3522 Y8.5954
G01 X14.3522 Y8.6354
G01 X16.3354 Y8.6354
G01 X16.3354 Y8.6754
G01 X14.3522 Y8.6754
G01 X14.3522 Y8.7154
G01 X16.3354 Y8.7154
G01 X16.3354 Y8.7554
G01 X14.3522 Y8.7554
G01 X14.3522 Y8.7954
G01 X16.3354 Y8.7954
G01 X16.3354 Y8.8354
G01 X14.3522 Y8.8354
G00 Z2.0000
G00 X14.3522 Y9.5854
G01 F800.00
G01 Z-0.0001
G01 F300.00
G01 X16.3354 Y9.5854
G01 X16.3354 Y9.5846
G01 X14.3522 Y9.5846
G01 X14.3522 Y10.1454
G01 X16.3354 Y10.1454
G01 X16.3354 Y9.5846
G01 X16.3354 Y9.6254
G01 X14.3522 Y9.6254
G01 X14.3522 Y9.6654
G01 X16.3354 Y9.6654
G01 X16.3354 Y9.7054
G01 X14.3522 Y9.7054
G01 X14.3522 Y9.7454
G01 X16.3354 Y9.7454
G01 X16.3354 Y9.7854
G01 X14.3522 Y9.7854
G01 X14.3522 Y9.8254
G01 X16.3354 Y9.8254
G01 X16.3354 Y9.8654
G01 X14.3522 Y9.8654
G01 X14.3522 Y9.9054
G01 X16.3354 Y9.9054
G01 X16.3354 Y9.9454
G01 X14.3522 Y9.9454
G01 X14.3522 Y9.9854
G01 X16.3354 Y9.9854
G01 X16.3354 Y10.0254
G01 X14.3522 Y10.0254
G01 X14.3522 Y10.0654
G01 X16.3354 Y10.0654
G01 X16.3354 Y10.1054
G01 X14.3522 Y10.1054
G00 Z2.0000
G00 X14.3522 Y10.8554
G01 F800.00
G01 Z-0.0001
G01 F300.00
G01 X16.3354 Y10.8554
G01 X16.3354 Y10.8546
G01 X14.3522 Y10.8546
G01 X14.3522 Y11.4154
G01 X16.3354 Y11.4154
G01 X16.3354 Y10.8546
G01 X16.3354 Y10.8954
G01 X14.3522 Y10.8954
G01 X14.3522 Y10.9354
G01 X16.3354 Y10.9354
G01 X16.3354 Y10.9754
G01 X14.3522 Y10.9754
G01 X14.3522 Y11.0154
G01 X16.3354 Y11.0154
G01 X16.3354 Y11.0554
G01 X14.3522 Y11.0554
G01 X14.3522 Y11.0954
G01 X16.3354 Y11.0954
G01 X16.3354 Y11.1354
G01 X14.3522 Y11.1354
G01 X14.3522 Y11.1754
G01 X16.3354 Y11.1754
G01 X16.3354 Y11.2154
G01 X14.3522 Y11.2154
G01 X14.3522 Y11.2554
G01 X16.3354 Y11.2554
G01 X16.3354 Y11.2954
G01 X14.3522 Y11.2954
G01 X14.3522 Y11.3354
G01 X16.3354 Y11.3354
G01 X16.3354 Y11.3754
G01 X14.3522 Y11.3754
G00 Z2.0000
G00 X14.3522 Y12.1254
G01 F800.00
G01 Z-0.0001
G01 F300.00
G01 X16.3354 Y12.1254
G01 X16.3354 Y12.1246
G01 X14.3522 Y12.1246
G01 X14.3522 Y12.6854
G01 X16.3354 Y12.6854
G01 X16.3354 Y12.1246
G01 X16.3354 Y12.1654
G01 X14.3522 Y12.1654
G01 X14.3522 Y12.2054
G01 X16.3354 Y12.2054
G01 X16.3354 Y12.2454
G01 X14.3522 Y12.2454
G01 X14.3522 Y12.2854
G01 X16.3354 Y12.2854
G01 X16.3354 Y12.3254
G01 X14.3522 Y12.3254
G01 X14.3522 Y12.3654
G01 X16.3354 Y12.3654
G01 X16.3354 Y12.4054
G01 X14.3522 Y12.4054
G01 X14.3522 Y12.4454
G01 X16.3354 Y12.4454
G01 X16.3354 Y12.4854
G01 X14.3522 Y12.4854
G01 X14.3522 Y12.5254
G01 X16.3354 Y12.5254
G01 X16.3354 Y12.5654
G01 X14.3522 Y12.5654
G01 X14.3522 Y12.6054
G01 X16.3354 Y12.6054
G01 X16.3354 Y12.6454
G01 X14.3522 Y12.6454
G00 Z2.0000
G00 X13.3652 Y14.5471
G01 F800.00
G01 Z-0.0001
G01 F300.00
G01 X15.0672 Y14.5471
G01 X15.0672 Y14.5250
G01 X13.3652 Y14.5250
G01 X13.3651 Y16.2270
G01 X15.0672 Y16.2271
G01 X15.0672 Y14.5250
G01 X15.0672 Y14.5871
G01 X13.3652 Y14.5871
G01 X13.3651 Y14.6271
G01 X15.0672 Y14.6271
G01 X15.0672 Y14.6671
G01 X13.3651 Y14.6671
G01 X13.3651 Y14.7071
G01 X15.0672 Y14.7071
G01 X15.0672 Y14.7471
G01 X13.3651 Y14.7471
G01 X13.3651 Y14.7871
G01 X15.0672 Y14.7871
G01 X15.0672 Y14.8271
G01 X13.3651 Y14.8271
G01 X13.3651 Y14.8671
G01 X15.0672 Y14.8671
G01 X15.0672 Y14.9071
G01 X13.3651 Y14.9071
G01 X13.3651 Y14.9471
G01 X15.0672 Y14.9471
G01 X15.0672 Y14.9871
G01 X13.3651 Y14.9871
G01 X13.3651 Y15.0271
G01 X15.0672 Y15.0271
G01 X15.0672 Y15.0671
G01 X13.3651 Y15.0671
G01 X13.3651 Y15.1071
G01 X15.0672 Y15.1071
G01 X15.0672 Y15.1471
G01 X13.3651 Y15.1471
G01 X13.3651 Y15.1871
G01 X15.0672 Y15.1871
G01 X15.0672 Y15.2271
G01 X13.3651 Y15.2271
G01 X13.3651 Y15.2671
G01 X15.0672 Y15.2671
G01 X15.0672 Y15.3071
G01 X13.3651 Y15.3071
G01 X13.3651 Y15.3471
G01 X15.0672 Y15.3471
G01 X15.0672 Y15.3871
G01 X13.3651 Y15.3871
G01 X13.3651 Y15.4271
G01 X15.0672 Y15.4271
G01 X15.0672 Y15.4671
G01 X13.3651 Y15.4671
G01 X13.3651 Y15.5071
G01 X15.0672 Y15.5071
G01 X15.0672 Y15.5471
G01 X13.3651 Y15.5471
G01 X13.3651 Y15.5871
G01 X15.0672 Y15.5871
G01 X15.0672 Y15.6271
G01 X13.3651 Y15.6271
G01 X13.3651 Y15.6671
G01 X15.0672 Y15.6671
G01 X15.0672 Y15.7071
G01 X13.3651 Y15.7071
G01 X13.3651 Y15.7471
G01 X15.0672 Y15.7471
G01 X15.0672 Y15.7871
G01 X13.3651 Y15.7871
G01 X13.3651 Y15.8271
G01 X15.0672 Y15.8271
G01 X15.0672 Y15.8671
G01 X13.3651 Y15.8671
G01 X13.3651 Y15.9071
G01 X15.0672 Y15.9071
G01 X15.0672 Y15.9471
G01 X13.3651 Y15.9471
G01 X13.3651 Y15.9871
G01 X15.0672 Y15.9871
G01 X15.0672 Y16.0271
G01 X13.3651 Y16.0271
G01 X13.3651 Y16.0671
G01 X15.0672 Y16.0671
G01 X15.0672 Y16.1071
G01 X13.3651 Y16.1071
G01 X13.3651 Y16.1471
G01 X15.0672 Y16.1471
G01 X15.0672 Y16.1871
G01 X13.3651 Y16.1871
G00 Z2.0000
G00 X11.5724 Y16.2231
G01 F800.00
G01 Z-0.0001
G01 F300.00
G01 X11.4279 Y16.1944
G01 X11.2730 Y16.1302
G01 X11.1336 Y16.0371
G01 X11.0151 Y15.9185
G01 X10.9220 Y15.7792
G01 X10.8578 Y15.6243
G01 X10.8251 Y15.4599
G01 X10.8251 Y15.2922
G01 X10.8578 Y15.1278
G01 X10.9220 Y14.9729
G01 X11.0151 Y14.8335
G01 X11.1336 Y14.7150
G01 X11.2730 Y14.6218
G01 X11.4279 Y14.5577
G01 X11.5923 Y14.5250
G01 X11.7600 Y14.5250
G01 X11.9244 Y14.5577
G01 X12.0793 Y14.6218
G01 X12.2187 Y14.7150
G01 X12.3372 Y14.8335
G01 X12.4303 Y14.9729
G01 X12.4945 Y15.1278
G01 X12.5272 Y15.2922
G01 X12.5272 Y15.4599
G01 X12.4945 Y15.6243
G01 X12.4303 Y15.7792
G01 X12.3372 Y15.9186
G01 X12.2187 Y16.0371
G01 X12.0793 Y16.1302
G01 X11.9244 Y16.1944
G01 X11.7600 Y16.2271
G01 X11.5923 Y16.2271
G01 X11.5724 Y16.2231
G01 X11.4103 Y16.1871
G01 X11.9420 Y16.1871
G01 X12.0386 Y16.1471
G01 X11.3137 Y16.1471
G01 X11.2384 Y16.1071
G01 X12.1139 Y16.1071
G01 X12.1738 Y16.0671
G01 X11.1785 Y16.0671
G01 X11.1236 Y16.0271
G01 X12.2287 Y16.0271
G01 X12.2687 Y15.9871
G01 X11.0836 Y15.9871
G01 X11.0436 Y15.9471
G01 X12.3087 Y15.9471
G01 X12.3449 Y15.9071
G01 X11.0074 Y15.9071
G01 X10.9807 Y15.8671
G01 X12.3716 Y15.8671
G01 X12.3983 Y15.8271
G01 X10.9540 Y15.8271
G01 X10.9273 Y15.7871
G01 X12.4250 Y15.7871
G01 X12.4436 Y15.7471
G01 X10.9087 Y15.7471
G01 X10.8921 Y15.7071
G01 X12.4602 Y15.7071
G01 X12.4768 Y15.6671
G01 X10.8755 Y15.6671
G01 X10.8590 Y15.6271
G01 X12.4933 Y15.6271
G01 X12.5019 Y15.5871
G01 X10.8504 Y15.5871
G01 X10.8425 Y15.5471
G01 X12.5099 Y15.5471
G01 X12.5178 Y15.5071
G01 X10.8345 Y15.5071
G01 X10.8265 Y15.4671
G01 X12.5258 Y15.4671
G01 X12.5272 Y15.4271
G01 X10.8251 Y15.4271
G01 X10.8251 Y15.3871
G01 X12.5272 Y15.3871
G01 X12.5272 Y15.3471
G01 X10.8251 Y15.3471
G01 X10.8251 Y15.3071
G01 X12.5272 Y15.3071
G01 X12.5222 Y15.2671
G01 X10.8301 Y15.2671
G01 X10.8381 Y15.2271
G01 X12.5142 Y15.2271
G01 X12.5063 Y15.1871
G01 X10.8460 Y15.1871
G01 X10.8540 Y15.1471
G01 X12.4983 Y15.1471
G01 X12.4859 Y15.1071
G01 X10.8664 Y15.1071
G01 X10.8830 Y15.0671
G01 X12.4694 Y15.0671
G01 X12.4528 Y15.0271
G01 X10.8995 Y15.0271
G01 X10.9161 Y14.9871
G01 X12.4362 Y14.9871
G01 X12.4131 Y14.9471
G01 X10.9392 Y14.9471
G01 X10.9659 Y14.9071
G01 X12.3864 Y14.9071
G01 X12.3596 Y14.8671
G01 X10.9927 Y14.8671
G01 X11.0215 Y14.8271
G01 X12.3308 Y14.8271
G01 X12.2908 Y14.7871
G01 X11.0615 Y14.7871
G01 X11.1015 Y14.7471
G01 X12.2508 Y14.7471
G01 X12.2068 Y14.7071
G01 X11.1455 Y14.7071
G00 Z2.0000
G00 X11.2053 Y14.6671
G01 F800.00
G01 Z-0.0001
G01 F300.00
G01 X12.1470 Y14.6671
G01 X12.0871 Y14.6271
G01 X11.2652 Y14.6271
G01 X11.3569 Y14.5871
G01 X11.9954 Y14.5871
G01 X11.8711 Y14.5471
G01 X11.4812 Y14.5471
G00 Z2.0000
G00 X22.4646 Y12.6454
G01 F800.00
G01 Z-0.0001
G01 F300.00
G01 X24.4478 Y12.6454
G01 X24.4478 Y12.6054
G01 X22.4646 Y12.6054
G01 X22.4646 Y12.5654
G01 X24.4478 Y12.5654
G01 X24.4478 Y12.5254
G01 X22.4646 Y12.5254
G01 X22.4646 Y12.4854
G01 X24.4478 Y12.4854
G01 X24.4478 Y12.4454
G01 X22.4646 Y12.4454
G01 X22.4646 Y12.4054
G01 X24.4478 Y12.4054
G01 X24.4478 Y12.3654
G01 X22.4646 Y12.3654
G01 X22.4646 Y12.3254
G01 X24.4478 Y12.3254
G01 X24.4478 Y12.2854
G01 X22.4646 Y12.2854
G01 X22.4646 Y12.2454
G01 X24.4478 Y12.2454
G01 X24.4478 Y12.2054
G01 X22.4646 Y12.2054
G01 X22.4646 Y12.1654
G01 X24.4478 Y12.1654
G01 X24.4478 Y12.1246
G01 X24.4478 Y12.6854
G01 X22.4646 Y12.6854
G01 X22.4646 Y12.1246
G01 X24.4478 Y12.1246
G01 X24.4478 Y12.1254
G01 X22.4646 Y12.1254
G00 Z2.0000
G00 X22.4646 Y11.3754
G01 F800.00
G01 Z-0.0001
G01 F300.00
G01 X24.4478 Y11.3754
G01 X24.4478 Y11.3354
G01 X22.4646 Y11.3354
G01 X22.4646 Y11.2954
G01 X24.4478 Y11.2954
G01 X24.4478 Y11.2554
G01 X22.4646 Y11.2554
G01 X22.4646 Y11.2154
G01 X24.4478 Y11.2154
G01 X24.4478 Y11.1754
G01 X22.4646 Y11.1754
G01 X22.4646 Y11.1354
G01 X24.4478 Y11.1354
G01 X24.4478 Y11.0954
G01 X22.4646 Y11.0954
G01 X22.4646 Y11.0554
G01 X24.4478 Y11.0554
G01 X24.4478 Y11.0154
G01 X22.4646 Y11.0154
G01 X22.4646 Y10.9754
G01 X24.4478 Y10.9754
G01 X24.4478 Y10.9354
G01 X22.4646 Y10.9354
G01 X22.4646 Y10.8954
G01 X24.4478 Y10.8954
G01 X24.4478 Y10.8546
G01 X24.4478 Y11.4154
G01 X22.4646 Y11.4154
G01 X22.4646 Y10.8546
G01 X24.4478 Y10.8546
G01 X24.4478 Y10.8554
G01 X22.4646 Y10.8554
G00 Z2.0000
G00 X22.4646 Y10.1054
G01 F800.00
G01 Z-0.0001
G01 F300.00
G01 X24.4478 Y10.1054
G01 X24.4478 Y10.0654
G01 X22.4646 Y10.0654
G01 X22.4646 Y10.0254
G01 X24.4478 Y10.0254
G01 X24.4478 Y9.9854
G01 X22.4646 Y9.9854
G01 X22.4646 Y9.9454
G01 X24.4478 Y9.9454
G01 X24.4478 Y9.9054
G01 X22.4646 Y9.9054
G01 X22.4646 Y9.8654
G01 X24.4478 Y9.8654
G01 X24.4478 Y9.8254
G01 X22.4646 Y9.8254
G01 X22.4646 Y9.7854
G01 X24.4478 Y9.7854
G01 X24.4478 Y9.7454
G01 X22.4646 Y9.7454
G01 X22.4646 Y9.7054
G01 X24.4478 Y9.7054
G01 X24.4478 Y9.6654
G01 X22.4646 Y9.6654
G01 X22.4646 Y9.6254
G01 X24.4478 Y9.6254
G01 X24.4478 Y9.5846
G01 X24.4478 Y10.1454
G01 X22.4646 Y10.1454
G01 X22.4646 Y9.5846
G01 X24.4478 Y9.5846
G01 X24.4478 Y9.5854
G01 X22.4646 Y9.5854
G00 Z2.0000
G00 X22.4646 Y8.8354
G01 F800.00
G01 Z-0.0001
G01 F300.00
G01 X24.4478 Y8.8354
G01 X24.4478 Y8.7954
G01 X22.4646 Y8.7954
G01 X22.4646 Y8.7554
G01 X24.4478 Y8.7554
G01 X24.4478 Y8.7154
G01 X22.4646 Y8.7154
G01 X22.4646 Y8.6754
G01 X24.4478 Y8.6754
G01 X24.4478 Y8.6354
G01 X22.4646 Y8.6354
G01 X22.4646 Y8.5954
G01 X24.4478 Y8.5954
G01 X24.4478 Y8.5554
G01 X22.4646 Y8.5554
G01 X22.4646 Y8.5154
G01 X24.4478 Y8.5154
G01 X24.4478 Y8.4754
G01 X22.4646 Y8.4754
G01 X22.4646 Y8.4354
G01 X24.4478 Y8.4354
G01 X24.4478 Y8.3954
G01 X22.4646 Y8.3954
G01 X22.4646 Y8.3554
G01 X24.4478 Y8.3554
G01 X24.4478 Y8.3146
G01 X24.4478 Y8.8754
G01 X22.4646 Y8.8754
G01 X22.4646 Y8.3146
G01 X24.4478 Y8.3146
G01 X24.4478 Y8.3154
G01 X22.4646 Y8.3154
G00 Z2.0000
G00 X21.9186 Y5.8023
G01 F800.00
G01 Z-0.0001
G01 F300.00
G01 X22.4193 Y5.8023
G01 X22.5357 Y5.7623
G01 X21.8022 Y5.7623
G01 X21.7273 Y5.7223
G01 X22.6105 Y5.7223
G01 X22.6807 Y5.6823
G01 X21.6572 Y5.6823
G01 X21.6085 Y5.6423
G01 X22.7294 Y5.6423
G01 X22.7782 Y5.6023
G01 X21.5597 Y5.6023
G01 X21.5168 Y5.5623
G01 X22.8211 Y5.5623
G01 X22.8539 Y5.5223
G01 X21.4839 Y5.5223
G01 X21.4511 Y5.4823
G01 X22.8868 Y5.4823
G01 X22.9196 Y5.4423
G01 X21.4183 Y5.4423
G01 X21.3962 Y5.4023
G01 X22.9417 Y5.4023
G01 X22.9631 Y5.3623
G01 X21.3748 Y5.3623
G01 X21.3534 Y5.3223
G01 X22.9845 Y5.3223
G01 X23.0057 Y5.2823
G01 X21.3322 Y5.2823
G01 X21.3201 Y5.2423
G01 X23.0178 Y5.2423
G01 X23.0300 Y5.2023
G01 X21.3079 Y5.2023
G01 X21.2958 Y5.1623
G01 X23.0421 Y5.1623
G01 X23.0542 Y5.1223
G01 X21.2837 Y5.1223
G01 X21.2779 Y5.0823
G01 X23.0600 Y5.0823
G01 X23.0639 Y5.0423
G01 X21.2739 Y5.0423
G01 X21.2700 Y5.0023
G01 X23.0679 Y5.0023
G01 X23.0700 Y4.9623
G01 X21.2679 Y4.9623
G01 X21.2679 Y4.9223
G01 X23.0700 Y4.9223
G01 X23.0700 Y4.8823
G01 X21.2679 Y4.8823
G01 X21.2679 Y4.8423
G01 X23.0700 Y4.8423
G01 X23.0700 Y4.8023
G01 X21.2679 Y4.8023
G01 X21.2679 Y4.7623
G01 X23.0700 Y4.7623
G01 X23.0700 Y4.7223
G01 X21.2679 Y4.7223
G01 X21.2679 Y4.6823
G01 X23.0700 Y4.6823
G01 X23.0700 Y4.6423
G01 X21.2679 Y4.6423
G01 X21.2679 Y4.6023
G01 X23.0700 Y4.6023
G01 X23.0700 Y4.5623
G01 X21.2679 Y4.5623
G01 X21.2679 Y4.5223
G01 X23.0700 Y4.5223
G01 X23.0700 Y4.4823
G01 X21.2679 Y4.4823
G01 X21.2679 Y4.4423
G01 X23.0700 Y4.4423
G01 X23.0700 Y4.4023
G01 X21.2679 Y4.4023
G01 X21.2679 Y4.3623
G01 X23.0700 Y4.3623
G01 X23.0700 Y4.3223
G01 X21.2679 Y4.3223
G01 X21.2679 Y4.2823
G01 X23.0700 Y4.2823
G01 X23.0700 Y4.2423
G01 X21.2679 Y4.2423
G01 X21.2679 Y4.2023
G01 X23.0700 Y4.2023
G01 X23.0700 Y4.1623
G01 X21.2679 Y4.1623
G01 X21.2679 Y4.1223
G01 X23.0700 Y4.1223
G01 X23.0700 Y4.0823
G01 X21.2679 Y4.0823
G01 X21.2679 Y4.0423
G01 X23.0700 Y4.0423
G01 X23.0700 Y4.0023
G01 X21.2679 Y4.0023
G01 X21.2679 Y3.9623
G01 X23.0700 Y3.9623
G01 X23.0700 Y3.9223
G01 X21.2679 Y3.9223
G01 X21.2679 Y3.8823
G01 X23.0700 Y3.8823
G01 X23.0700 Y3.8423
G01 X21.2679 Y3.8423
G01 X21.2679 Y3.8023
G01 X23.0700 Y3.8023
G01 X23.0700 Y3.7623
G01 X21.2679 Y3.7623
G01 X21.2679 Y3.7223
G01 X23.0700 Y3.7223
G01 X23.0700 Y3.6823
G01 X21.2679 Y3.6823
G01 X21.2679 Y3.6423
G01 X23.0700 Y3.6423
G01 X23.0700 Y3.6023
G01 X21.2679 Y3.6023
G01 X21.2679 Y3.5623
G01 X23.0700 Y3.5623
G01 X23.0700 Y3.5223
G01 X21.2679 Y3.5223
G01 X21.2679 Y3.4823
G01 X23.0700 Y3.4823
G01 X23.0700 Y3.4423
G01 X21.2679 Y3.4423
G01 X21.2679 Y3.4023
G01 X23.0700 Y3.4023
G01 X23.0700 Y3.3623
G01 X21.2679 Y3.3623
G01 X21.2679 Y3.3223
G01 X23.0700 Y3.3223
G01 X23.0700 Y3.2823
G01 X21.2679 Y3.2823
G01 X21.2679 Y3.2423
G01 X23.0700 Y3.2423
G01 X23.0700 Y3.2023
G01 X21.2679 Y3.2023
G01 X21.2679 Y3.1623
G01 X23.0700 Y3.1623
G01 X23.0700 Y3.1223
G01 X21.2679 Y3.1223
G01 X21.2689 Y3.0823
G01 X23.0690 Y3.0823
G01 X23.0651 Y3.0423
G01 X21.2728 Y3.0423
G01 X21.2768 Y3.0023
G01 X23.0611 Y3.0023
G01 X23.0572 Y2.9623
G01 X21.2807 Y2.9623
G01 X21.2809 Y2.9600
G01 X21.3325 Y2.7902
G01 X21.4161 Y2.6336
G01 X21.5287 Y2.4964
G01 X21.6659 Y2.3838
G01 X21.8091 Y2.3073
G01 X21.8225 Y2.3002
G01 X21.9923 Y2.2486
G01 X22.1689 Y2.2312
G01 X22.3456 Y2.2486
G01 X22.5154 Y2.3002
G01 X22.6720 Y2.3838
G01 X22.8092 Y2.4964
G01 X22.9218 Y2.6336
G01 X23.0054 Y2.7902
G01 X23.0570 Y2.9600
G01 X23.0700 Y3.0924
G01 X23.0700 Y4.9809
G01 X23.0570 Y5.1133
G01 X23.0054 Y5.2831
G01 X22.9218 Y5.4397
G01 X22.8092 Y5.5769
G01 X22.6720 Y5.6895
G01 X22.5154 Y5.7731
G01 X22.3456 Y5.8247
G01 X22.1689 Y5.8421
G01 X21.9923 Y5.8247
G01 X21.8225 Y5.7731
G01 X21.6659 Y5.6895
G01 X21.5287 Y5.5769
G01 X21.4161 Y5.4397
G01 X21.3325 Y5.2831
G01 X21.2809 Y5.1133
G01 X21.2679 Y4.9809
G01 X21.2679 Y3.0924
G01 X21.2809 Y2.9600
G00 Z2.0000
G00 X21.2924 Y2.9223
G01 F800.00
G01 Z-0.0001
G01 F300.00
G01 X23.0455 Y2.9223
G01 X23.0334 Y2.8823
G01 X21.3045 Y2.8823
G01 X21.3166 Y2.8423
G01 X23.0212 Y2.8423
G01 X23.0091 Y2.8023
G01 X21.3288 Y2.8023
G01 X21.3473 Y2.7623
G01 X22.9905 Y2.7623
G01 X22.9692 Y2.7223
G01 X21.3687 Y2.7223
G01 X21.3901 Y2.6823
G01 X22.9478 Y2.6823
G01 X22.9264 Y2.6423
G01 X21.4115 Y2.6423
G01 X21.4418 Y2.6023
G01 X22.8961 Y2.6023
G01 X22.8632 Y2.5623
G01 X21.4747 Y2.5623
G01 X21.5075 Y2.5223
G01 X22.8304 Y2.5223
G01 X22.7919 Y2.4823
G01 X21.5459 Y2.4823
G01 X21.5947 Y2.4423
G01 X22.7432 Y2.4423
G01 X22.6945 Y2.4023
G01 X21.6434 Y2.4023
G01 X21.7062 Y2.3623
G01 X22.6317 Y2.3623
G01 X22.5568 Y2.3223
G01 X21.7810 Y2.3223
G01 X21.8813 Y2.2823
G01 X22.4565 Y2.2823
G01 X22.2812 Y2.2423
G01 X22.0567 Y2.2423
G00 Z2.0000
G00 X25.0909 Y2.9600
G01 F800.00
G01 Z-0.0001
G01 F300.00
G01 X25.0779 Y3.0924
G01 X25.0779 Y4.9809
G01 X25.0909 Y5.1133
G01 X25.1425 Y5.2831
G01 X25.2261 Y5.4397
G01 X25.3387 Y5.5769
G01 X25.4759 Y5.6895
G01 X25.6325 Y5.7731
G01 X25.8023 Y5.8247
G01 X25.9789 Y5.8421
G01 X26.1556 Y5.8247
G01 X26.3254 Y5.7731
G01 X26.4820 Y5.6895
G01 X26.6192 Y5.5769
G01 X26.7318 Y5.4397
G01 X26.8154 Y5.2831
G01 X26.8670 Y5.1133
G01 X26.8800 Y4.9809
G01 X26.8800 Y3.0924
G01 X26.8670 Y2.9600
G01 X26.8154 Y2.7902
G01 X26.7318 Y2.6336
G01 X26.6192 Y2.4964
G01 X26.4820 Y2.3838
G01 X26.3254 Y2.3002
G01 X26.1556 Y2.2486
G01 X25.9789 Y2.2312
G01 X25.8023 Y2.2486
G01 X25.6325 Y2.3002
G01 X25.6191 Y2.3073
G01 X25.4759 Y2.3838
G01 X25.3387 Y2.4964
G01 X25.2261 Y2.6336
G01 X25.1425 Y2.7902
G01 X25.0909 Y2.9600
G01 X25.0907 Y2.9623
G01 X26.8672 Y2.9623
G01 X26.8711 Y3.0023
G01 X25.0868 Y3.0023
G01 X25.0828 Y3.0423
G01 X26.8751 Y3.0423
G01 X26.8790 Y3.0823
G01 X25.0789 Y3.0823
G01 X25.0779 Y3.1223
G01 X26.8800 Y3.1223
G01 X26.8800 Y3.1623
G01 X25.0779 Y3.1623
G01 X25.0779 Y3.2023
G01 X26.8800 Y3.2023
G01 X26.8800 Y3.2423
G01 X25.0779 Y3.2423
G01 X25.0779 Y3.2823
G01 X26.8800 Y3.2823
G01 X26.8800 Y3.3223
G01 X25.0779 Y3.3223
G01 X25.0779 Y3.3623
G01 X26.8800 Y3.3623
G01 X26.8800 Y3.4023
G01 X25.0779 Y3.4023
G01 X25.0779 Y3.4423
G01 X26.8800 Y3.4423
G01 X26.8800 Y3.4823
G01 X25.0779 Y3.4823
G01 X25.0779 Y3.5223
G01 X26.8800 Y3.5223
G01 X26.8800 Y3.5623
G01 X25.0779 Y3.5623
G01 X25.0779 Y3.6023
G01 X26.8800 Y3.6023
G01 X26.8800 Y3.6423
G01 X25.0779 Y3.6423
G01 X25.0779 Y3.6823
G01 X26.8800 Y3.6823
G01 X26.8800 Y3.7223
G01 X25.0779 Y3.7223
G01 X25.0779 Y3.7623
G01 X26.8800 Y3.7623
G01 X26.8800 Y3.8023
G01 X25.0779 Y3.8023
G01 X25.0779 Y3.8423
G01 X26.8800 Y3.8423
G01 X26.8800 Y3.8823
G01 X25.0779 Y3.8823
G01 X25.0779 Y3.9223
G01 X26.8800 Y3.9223
G01 X26.8800 Y3.9623
G01 X25.0779 Y3.9623
G01 X25.0779 Y4.0023
G01 X26.8800 Y4.0023
G01 X26.8800 Y4.0423
G01 X25.0779 Y4.0423
G01 X25.0779 Y4.0823
G01 X26.8800 Y4.0823
G01 X26.8800 Y4.1223
G01 X25.0779 Y4.1223
G01 X25.0779 Y4.1623
G01 X26.8800 Y4.1623
G01 X26.8800 Y4.2023
G01 X25.0779 Y4.2023
G01 X25.0779 Y4.2423
G01 X26.8800 Y4.2423
G01 X26.8800 Y4.2823
G01 X25.0779 Y4.2823
G01 X25.0779 Y4.3223
G01 X26.8800 Y4.3223
G01 X26.8800 Y4.3623
G01 X25.0779 Y4.3623
G01 X25.0779 Y4.4023
G01 X26.8800 Y4.4023
G01 X26.8800 Y4.4423
G01 X25.0779 Y4.4423
G01 X25.0779 Y4.4823
G01 X26.8800 Y4.4823
G01 X26.8800 Y4.5223
G01 X25.0779 Y4.5223
G01 X25.0779 Y4.5623
G01 X26.8800 Y4.5623
G01 X26.8800 Y4.6023
G01 X25.0779 Y4.6023
G01 X25.0779 Y4.6423
G01 X26.8800 Y4.6423
G01 X26.8800 Y4.6823
G01 X25.0779 Y4.6823
G01 X25.0779 Y4.7223
G01 X26.8800 Y4.7223
G01 X26.8800 Y4.7623
G01 X25.0779 Y4.7623
G01 X25.0779 Y4.8023
G01 X26.8800 Y4.8023
G01 X26.8800 Y4.8423
G01 X25.0779 Y4.8423
G01 X25.0779 Y4.8823
G01 X26.8800 Y4.8823
G01 X26.8800 Y4.9223
G01 X25.0779 Y4.9223
G01 X25.0779 Y4.9623
G01 X26.8800 Y4.9623
G01 X26.8779 Y5.0023
G01 X25.0800 Y5.0023
G01 X25.0839 Y5.0423
G01 X26.8739 Y5.0423
G01 X26.8700 Y5.0823
G01 X25.0879 Y5.0823
G01 X25.0937 Y5.1223
G01 X26.8642 Y5.1223
G01 X26.8521 Y5.1623
G01 X25.1058 Y5.1623
G01 X25.1179 Y5.2023
G01 X26.8400 Y5.2023
G01 X26.8278 Y5.2423
G01 X25.1301 Y5.2423
G01 X25.1422 Y5.2823
G01 X26.8157 Y5.2823
G01 X26.7945 Y5.3223
G01 X25.1634 Y5.3223
G01 X25.1848 Y5.3623
G01 X26.7731 Y5.3623
G01 X26.7517 Y5.4023
G01 X25.2062 Y5.4023
G01 X25.2283 Y5.4423
G01 X26.7296 Y5.4423
G01 X26.6968 Y5.4823
G01 X25.2611 Y5.4823
G01 X25.2939 Y5.5223
G01 X26.6639 Y5.5223
G01 X26.6311 Y5.5623
G01 X25.3268 Y5.5623
G01 X25.3697 Y5.6023
G01 X26.5882 Y5.6023
G01 X26.5394 Y5.6423
G01 X25.4185 Y5.6423
G01 X25.4672 Y5.6823
G01 X26.4907 Y5.6823
G01 X26.4205 Y5.7223
G01 X25.5373 Y5.7223
G01 X25.6122 Y5.7623
G01 X26.3457 Y5.7623
G01 X26.2293 Y5.8023
G01 X25.7286 Y5.8023
G00 Z2.0000
G00 X25.1024 Y2.9223
G01 F800.00
G01 Z-0.0001
G01 F300.00
G01 X26.8555 Y2.9223
G01 X26.8434 Y2.8823
G01 X25.1145 Y2.8823
G01 X25.1266 Y2.8423
G01 X26.8312 Y2.8423
G01 X26.8191 Y2.8023
G01 X25.1388 Y2.8023
G01 X25.1573 Y2.7623
G01 X26.8005 Y2.7623
G01 X26.7792 Y2.7223
G01 X25.1787 Y2.7223
G01 X25.2001 Y2.6823
G01 X26.7578 Y2.6823
G01 X26.7364 Y2.6423
G01 X25.2215 Y2.6423
G01 X25.2518 Y2.6023
G01 X26.7061 Y2.6023
G01 X26.6732 Y2.5623
G01 X25.2847 Y2.5623
G01 X25.3175 Y2.5223
G01 X26.6404 Y2.5223
G01 X26.6019 Y2.4823
G01 X25.3559 Y2.4823
G01 X25.4047 Y2.4423
G01 X26.5532 Y2.4423
G01 X26.5045 Y2.4023
G01 X25.4534 Y2.4023
G01 X25.5162 Y2.3623
G01 X26.4417 Y2.3623
G01 X26.3668 Y2.3223
G01 X25.5910 Y2.3223
G01 X25.6913 Y2.2823
G01 X26.2665 Y2.2823
G01 X26.0912 Y2.2423
G01 X25.8667 Y2.2423
G00 Z2.0000
G00 X28.8889 Y2.3577
G01 F800.00
G01 Z-0.0001
G01 F300.00
G01 X30.6890 Y2.3577
G01 X30.6900 Y2.3977
G01 X28.8879 Y2.3977
G01 X28.8879 Y2.4377
G01 X30.6900 Y2.4377
G01 X30.6900 Y2.4777
G01 X28.8879 Y2.4777
G01 X28.8879 Y2.5177
G01 X30.6900 Y2.5177
G01 X30.6900 Y2.5577
G01 X28.8879 Y2.5577
G01 X28.8879 Y2.5977
G01 X30.6900 Y2.5977
G01 X30.6900 Y2.6377
G01 X28.8879 Y2.6377
G01 X28.8879 Y2.6777
G01 X30.6900 Y2.6777
G01 X30.6900 Y2.7177
G01 X28.8879 Y2.7177
G01 X28.8879 Y2.7577
G01 X30.6900 Y2.7577
G01 X30.6900 Y2.7977
G01 X28.8879 Y2.7977
G01 X28.8879 Y2.8377
G01 X30.6900 Y2.8377
G01 X30.6900 Y2.8777
G01 X28.8879 Y2.8777
G01 X28.8879 Y2.9177
G01 X30.6900 Y2.9177
G01 X30.6900 Y2.9577
G01 X28.8879 Y2.9577
G01 X28.8879 Y2.9977
G01 X30.6900 Y2.9977
G01 X30.6900 Y3.0377
G01 X28.8879 Y3.0377
G01 X28.8879 Y3.0777
G01 X30.6900 Y3.0777
G01 X30.6900 Y3.1177
G01 X28.8879 Y3.1177
G01 X28.8879 Y3.1577
G01 X30.6900 Y3.1577
G01 X30.6900 Y3.1977
G01 X28.8879 Y3.1977
G01 X28.8879 Y3.2377
G01 X30.6900 Y3.2377
G01 X30.6900 Y3.2777
G01 X28.8879 Y3.2777
G01 X28.8879 Y3.3177
G01 X30.6900 Y3.3177
G01 X30.6900 Y3.3577
G01 X28.8879 Y3.3577
G01 X28.8879 Y3.3977
G01 X30.6900 Y3.3977
G01 X30.6900 Y3.4377
G01 X28.8879 Y3.4377
G01 X28.8879 Y3.4777
G01 X30.6900 Y3.4777
G01 X30.6900 Y3.5177
G01 X28.8879 Y3.5177
G01 X28.8879 Y3.5577
G01 X30.6900 Y3.5577
G01 X30.6900 Y3.5977
G01 X28.8879 Y3.5977
G01 X28.8879 Y3.6377
G01 X30.6900 Y3.6377
G01 X30.6900 Y3.6777
G01 X28.8879 Y3.6777
G01 X28.8879 Y3.7177
G01 X30.6900 Y3.7177
G01 X30.6900 Y3.7577
G01 X28.8879 Y3.7577
G01 X28.8879 Y3.7977
G01 X30.6900 Y3.7977
G01 X30.6900 Y3.8377
G01 X28.8879 Y3.8377
G01 X28.8879 Y3.8777
G01 X30.6900 Y3.8777
G01 X30.6900 Y3.9177
G01 X28.8879 Y3.9177
G01 X28.8879 Y3.9577
G01 X30.6900 Y3.9577
G01 X30.6900 Y3.9977
G01 X28.8879 Y3.9977
G01 X28.8879 Y4.0377
G01 X30.6900 Y4.0377
G01 X30.6900 Y4.0777
G01 X28.8879 Y4.0777
G01 X28.8879 Y4.1177
G01 X30.6900 Y4.1177
G01 X30.6900 Y4.1577
G01 X28.8879 Y4.1577
G01 X28.8879 Y4.1977
G01 X30.6900 Y4.1977
G01 X30.6900 Y4.2377
G01 X28.8879 Y4.2377
G01 X28.8879 Y4.2777
G01 X30.6900 Y4.2777
G01 X30.6900 Y4.3177
G01 X28.8879 Y4.3177
G01 X28.8879 Y4.3577
G01 X30.6900 Y4.3577
G01 X30.6900 Y4.3977
G01 X28.8879 Y4.3977
G01 X28.8879 Y4.4377
G01 X30.6900 Y4.4377
G01 X30.6900 Y4.4777
G01 X28.8879 Y4.4777
G01 X28.8879 Y4.5177
G01 X30.6900 Y4.5177
G01 X30.6900 Y4.5577
G01 X28.8879 Y4.5577
G01 X28.8879 Y4.5977
G01 X30.6900 Y4.5977
G01 X30.6900 Y4.6377
G01 X28.8879 Y4.6377
G01 X28.8879 Y4.6777
G01 X30.6900 Y4.6777
G01 X30.6900 Y4.7177
G01 X28.8879 Y4.7177
G01 X28.8879 Y4.7577
G01 X30.6900 Y4.7577
G01 X30.6900 Y4.7977
G01 X28.8879 Y4.7977
G01 X28.8879 Y4.8377
G01 X30.6900 Y4.8377
G01 X30.6900 Y4.8777
G01 X28.8879 Y4.8777
G01 X28.8879 Y4.9177
G01 X30.6900 Y4.9177
G01 X30.6900 Y4.9577
G01 X28.8879 Y4.9577
G01 X28.8879 Y4.9977
G01 X30.6900 Y4.9977
G01 X30.6900 Y5.0377
G01 X28.8879 Y5.0377
G01 X28.8879 Y5.0777
G01 X30.6900 Y5.0777
G01 X30.6900 Y5.1177
G01 X28.8879 Y5.1177
G01 X28.8879 Y5.1577
G01 X30.6900 Y5.1577
G01 X30.6900 Y5.1977
G01 X28.8879 Y5.1977
G01 X28.8879 Y5.2377
G01 X30.6900 Y5.2377
G01 X30.6900 Y5.2777
G01 X28.8879 Y5.2777
G01 X28.8879 Y5.3177
G01 X30.6900 Y5.3177
G01 X30.6900 Y5.3577
G01 X28.8879 Y5.3577
G01 X28.8879 Y5.3977
G01 X30.6900 Y5.3977
G01 X30.6900 Y5.4377
G01 X28.8879 Y5.4377
G01 X28.8879 Y5.4777
G01 X30.6900 Y5.4777
G01 X30.6900 Y5.5177
G01 X28.8879 Y5.5177
G01 X28.8879 Y5.5577
G01 X30.6900 Y5.5577
G01 X30.6900 Y5.5977
G01 X28.8879 Y5.5977
G01 X28.8879 Y5.6377
G01 X30.6900 Y5.6377
G01 X30.6900 Y5.6777
G01 X28.8879 Y5.6777
G01 X28.8891 Y5.7177
G01 X30.6888 Y5.7177
G01 X30.6807 Y5.7577
G01 X28.8972 Y5.7577
G01 X28.9223 Y5.7977
G01 X30.6556 Y5.7977
G00 Z2.0000
G00 X28.9878 Y5.8345
G01 F800.00
G01 Z-0.0001
G01 F300.00
G01 X29.0204 Y5.8377
G01 X30.5575 Y5.8377
G01 X30.5901 Y5.8345
G01 X30.6132 Y5.8275
G01 X30.6344 Y5.8161
G01 X30.6531 Y5.8008
G01 X30.6684 Y5.7822
G01 X30.6798 Y5.7609
G01 X30.6868 Y5.7378
G01 X30.6900 Y5.7052
G01 X30.6900 Y2.3681
G01 X30.6868 Y2.3355
G01 X30.6798 Y2.3124
G01 X30.6684 Y2.2912
G01 X30.6531 Y2.2725
G01 X30.6344 Y2.2572
G01 X30.6132 Y2.2458
G01 X30.5901 Y2.2388
G01 X30.5575 Y2.2356
G01 X29.0204 Y2.2356
G01 X28.9878 Y2.2388
G01 X28.9647 Y2.2458
G01 X28.9435 Y2.2572
G01 X28.9248 Y2.2725
G01 X28.9095 Y2.2912
G01 X28.8981 Y2.3124
G01 X28.8911 Y2.3355
G01 X28.8879 Y2.3681
G01 X28.8879 Y5.7052
G01 X28.8911 Y5.7378
G01 X28.8981 Y5.7609
G01 X28.9095 Y5.7821
G01 X28.9248 Y5.8008
G01 X28.9434 Y5.8161
G01 X28.9647 Y5.8275
G01 X28.9878 Y5.8345
G00 Z2.0000
G00 X27.3922 Y8.3154
G01 F800.00
G01 Z-0.0001
G01 F300.00
G01 X29.3754 Y8.3154
G01 X29.3754 Y8.3146
G01 X27.3922 Y8.3146
G01 X27.3922 Y8.8754
G01 X29.3754 Y8.8754
G01 X29.3754 Y8.3146
G01 X29.3754 Y8.3554
G01 X27.3922 Y8.3554
G01 X27.3922 Y8.3954
G01 X29.3754 Y8.3954
G01 X29.3754 Y8.4354
G01 X27.3922 Y8.4354
G01 X27.3922 Y8.4754
G01 X29.3754 Y8.4754
G01 X29.3754 Y8.5154
G01 X27.3922 Y8.5154
G01 X27.3922 Y8.5554
G01 X29.3754 Y8.5554
G01 X29.3754 Y8.5954
G01 X27.3922 Y8.5954
G01 X27.3922 Y8.6354
G01 X29.3754 Y8.6354
G01 X29.3754 Y8.6754
G01 X27.3922 Y8.6754
G01 X27.3922 Y8.7154
G01 X29.3754 Y8.7154
G01 X29.3754 Y8.7554
G01 X27.3922 Y8.7554
G01 X27.3922 Y8.7954
G01 X29.3754 Y8.7954
G01 X29.3754 Y8.8354
G01 X27.3922 Y8.8354
G00 Z2.0000
G00 X27.3922 Y9.5854
G01 F800.00
G01 Z-0.0001
G01 F300.00
G01 X29.3754 Y9.5854
G01 X29.3754 Y9.5846
G01 X27.3922 Y9.5846
G01 X27.3922 Y10.1454
G01 X29.3754 Y10.1454
G01 X29.3754 Y9.5846
G01 X29.3754 Y9.6254
G01 X27.3922 Y9.6254
G01 X27.3922 Y9.6654
G01 X29.3754 Y9.6654
G01 X29.3754 Y9.7054
G01 X27.3922 Y9.7054
G01 X27.3922 Y9.7454
G01 X29.3754 Y9.7454
G01 X29.3754 Y9.7854
G01 X27.3922 Y9.7854
G01 X27.3922 Y9.8254
G01 X29.3754 Y9.8254
G01 X29.3754 Y9.8654
G01 X27.3922 Y9.8654
G01 X27.3922 Y9.9054
G01 X29.3754 Y9.9054
G01 X29.3754 Y9.9454
G01 X27.3922 Y9.9454
G01 X27.3922 Y9.9854
G01 X29.3754 Y9.9854
G01 X29.3754 Y10.0254
G01 X27.3922 Y10.0254
G01 X27.3922 Y10.0654
G01 X29.3754 Y10.0654
G01 X29.3754 Y10.1054
G01 X27.3922 Y10.1054
G00 Z2.0000
G00 X27.3922 Y10.8554
G01 F800.00
G01 Z-0.0001
G01 F300.00
G01 X29.3754 Y10.8554
G01 X29.3754 Y10.8546
G01 X27.3922 Y10.8546
G01 X27.3922 Y11.4154
G01 X29.3754 Y11.4154
G01 X29.3754 Y10.8546
G01 X29.3754 Y10.8954
G01 X27.3922 Y10.8954
G01 X27.3922 Y10.9354
G01 X29.3754 Y10.9354
G01 X29.3754 Y10.9754
G01 X27.3922 Y10.9754
G01 X27.3922 Y11.0154
G01 X29.3754 Y11.0154
G01 X29.3754 Y11.0554
G01 X27.3922 Y11.0554
G01 X27.3922 Y11.0954
G01 X29.3754 Y11.0954
G01 X29.3754 Y11.1354
G01 X27.3922 Y11.1354
G01 X27.3922 Y11.1754
G01 X29.3754 Y11.1754
G01 X29.3754 Y11.2154
G01 X27.3922 Y11.2154
G01 X27.3922 Y11.2554
G01 X29.3754 Y11.2554
G01 X29.3754 Y11.2954
G01 X27.3922 Y11.2954
G01 X27.3922 Y11.3354
G01 X29.3754 Y11.3354
G01 X29.3754 Y11.3754
G01 X27.3922 Y11.3754
G00 Z2.0000
G00 X27.3922 Y12.1254
G01 F800.00
G01 Z-0.0001
G01 F300.00
G01 X29.3754 Y12.1254
G01 X29.3754 Y12.1246
G01 X27.3922 Y12.1246
G01 X27.3922 Y12.6854
G01 X29.3754 Y12.6854
G01 X29.3754 Y12.1246
G01 X29.3754 Y12.1654
G01 X27.3922 Y12.1654
G01 X27.3922 Y12.2054
G01 X29.3754 Y12.2054
G01 X29.3754 Y12.2454
G01 X27.3922 Y12.2454
G01 X27.3922 Y12.2854
G01 X29.3754 Y12.2854
G01 X29.3754 Y12.3254
G01 X27.3922 Y12.3254
G01 X27.3922 Y12.3654
G01 X29.3754 Y12.3654
G01 X29.3754 Y12.4054
G01 X27.3922 Y12.4054
G01 X27.3922 Y12.4454
G01 X29.3754 Y12.4454
G01 X29.3754 Y12.4854
G01 X27.3922 Y12.4854
G01 X27.3922 Y12.5254
G01 X29.3754 Y12.5254
G01 X29.3754 Y12.5654
G01 X27.3922 Y12.5654
G01 X27.3922 Y12.6054
G01 X29.3754 Y12.6054
G01 X29.3754 Y12.6454
G01 X27.3922 Y12.6454
G00 Z2.0000
G00 X26.4052 Y14.5471
G01 F800.00
G01 Z-0.0001
G01 F300.00
G01 X28.1072 Y14.5471
G01 X28.1072 Y14.5250
G01 X26.4052 Y14.5250
G01 X26.4051 Y16.2270
G01 X28.1072 Y16.2271
G01 X28.1072 Y14.5250
G01 X28.1072 Y14.5871
G01 X26.4052 Y14.5871
G01 X26.4051 Y14.6271
G01 X28.1072 Y14.6271
G01 X28.1072 Y14.6671
G01 X26.4051 Y14.6671
G01 X26.4051 Y14.7071
G01 X28.1072 Y14.7071
G01 X28.1072 Y14.7471
G01 X26.4051 Y14.7471
G01 X26.4051 Y14.7871
G01 X28.1072 Y14.7871
G01 X28.1072 Y14.8271
G01 X26.4051 Y14.8271
G01 X26.4051 Y14.8671
G01 X28.1072 Y14.8671
G01 X28.1072 Y14.9071
G01 X26.4051 Y14.9071
G01 X26.4051 Y14.9471
G01 X28.1072 Y14.9471
G01 X28.1072 Y14.9871
G01 X26.4051 Y14.9871
G01 X26.4051 Y15.0271
G01 X28.1072 Y15.0271
G01 X28.1072 Y15.0671
G01 X26.4051 Y15.0671
G01 X26.4051 Y15.1071
G01 X28.1072 Y15.1071
G01 X28.1072 Y15.1471
G01 X26.4051 Y15.1471
G01 X26.4051 Y15.1871
G01 X28.1072 Y15.1871
G01 X28.1072 Y15.2271
G01 X26.4051 Y15.2271
G01 X26.4051 Y15.2671
G01 X28.1072 Y15.2671
G01 X28.1072 Y15.3071
G01 X26.4051 Y15.3071
G01 X26.4051 Y15.3471
G01 X28.1072 Y15.3471
G01 X28.1072 Y15.3871
G01 X26.4051 Y15.3871
G01 X26.4051 Y15.4271
G01 X28.1072 Y15.4271
G01 X28.1072 Y15.4671
G01 X26.4051 Y15.4671
G01 X26.4051 Y15.5071
G01 X28.1072 Y15.5071
G01 X28.1072 Y15.5471
G01 X26.4051 Y15.5471
G01 X26.4051 Y15.5871
G01 X28.1072 Y15.5871
G01 X28.1072 Y15.6271
G01 X26.4051 Y15.6271
G01 X26.4051 Y15.6671
G01 X28.1072 Y15.6671
G01 X28.1072 Y15.7071
G01 X26.4051 Y15.7071
G01 X26.4051 Y15.7471
G01 X28.1072 Y15.7471
G01 X28.1072 Y15.7871
G01 X26.4051 Y15.7871
G01 X26.4051 Y15.8271
G01 X28.1072 Y15.8271
G01 X28.1072 Y15.8671
G01 X26.4051 Y15.8671
G01 X26.4051 Y15.9071
G01 X28.1072 Y15.9071
G01 X28.1072 Y15.9471
G01 X26.4051 Y15.9471
G01 X26.4051 Y15.9871
G01 X28.1072 Y15.9871
G01 X28.1072 Y16.0271
G01 X26.4051 Y16.0271
G01 X26.4051 Y16.0671
G01 X28.1072 Y16.0671
G01 X28.1072 Y16.1071
G01 X26.4051 Y16.1071
G01 X26.4051 Y16.1471
G01 X28.1072 Y16.1471
G01 X28.1072 Y16.1871
G01 X26.4051 Y16.1871
G00 Z2.0000
G00 X24.6124 Y16.2231
G01 F800.00
G01 Z-0.0001
G01 F300.00
G01 X24.4679 Y16.1944
G01 X24.3130 Y16.1302
G01 X24.1736 Y16.0371
G01 X24.0551 Y15.9185
G01 X23.9620 Y15.7792
G01 X23.8978 Y15.6243
G01 X23.8651 Y15.4599
G01 X23.8651 Y15.2922
G01 X23.8978 Y15.1278
G01 X23.9620 Y14.9729
G01 X24.0551 Y14.8335
G01 X24.1736 Y14.7150
G01 X24.3130 Y14.6218
G01 X24.4679 Y14.5577
G01 X24.6323 Y14.5250
G01 X24.8000 Y14.5250
G01 X24.9644 Y14.5577
G01 X25.1193 Y14.6218
G01 X25.2587 Y14.7150
G01 X25.3772 Y14.8335
G01 X25.4703 Y14.9729
G01 X25.5345 Y15.1278
G01 X25.5672 Y15.2922
G01 X25.5672 Y15.4599
G01 X25.5345 Y15.6243
G01 X25.4703 Y15.7792
G01 X25.3772 Y15.9186
G01 X25.2587 Y16.0371
G01 X25.1193 Y16.1302
G01 X24.9644 Y16.1944
G01 X24.8000 Y16.2271
G01 X24.6323 Y16.2271
G01 X24.6124 Y16.2231
G01 X24.4503 Y16.1871
G01 X24.9820 Y16.1871
G01 X25.0786 Y16.1471
G01 X24.3537 Y16.1471
G01 X24.2784 Y16.1071
G01 X25.1539 Y16.1071
G01 X25.2138 Y16.0671
G01 X24.2185 Y16.0671
G01 X24.1636 Y16.0271
G01 X25.2687 Y16.0271
G01 X25.3087 Y15.9871
G01 X24.1236 Y15.9871
G01 X24.0836 Y15.9471
G01 X25.3487 Y15.9471
G01 X25.3849 Y15.9071
G01 X24.0474 Y15.9071
G01 X24.0207 Y15.8671
G01 X25.4116 Y15.8671
G01 X25.4383 Y15.8271
G01 X23.9940 Y15.8271
G01 X23.9673 Y15.7871
G01 X25.4650 Y15.7871
G01 X25.4836 Y15.7471
G01 X23.9487 Y15.7471
G01 X23.9321 Y15.7071
G01 X25.5002 Y15.7071
G01 X25.5168 Y15.6671
G01 X23.9155 Y15.6671
G01 X23.8990 Y15.6271
G01 X25.5333 Y15.6271
G01 X25.5419 Y15.5871
G01 X23.8904 Y15.5871
G01 X23.8825 Y15.5471
G01 X25.5499 Y15.5471
G01 X25.5578 Y15.5071
G01 X23.8745 Y15.5071
G01 X23.8665 Y15.4671
G01 X25.5658 Y15.4671
G01 X25.5672 Y15.4271
G01 X23.8651 Y15.4271
G01 X23.8651 Y15.3871
G01 X25.5672 Y15.3871
G01 X25.5672 Y15.3471
G01 X23.8651 Y15.3471
G01 X23.8651 Y15.3071
G01 X25.5672 Y15.3071
G01 X25.5622 Y15.2671
G01 X23.8701 Y15.2671
G01 X23.8781 Y15.2271
G01 X25.5542 Y15.2271
G01 X25.5463 Y15.1871
G01 X23.8860 Y15.1871
G01 X23.8940 Y15.1471
G01 X25.5383 Y15.1471
G01 X25.5259 Y15.1071
G01 X23.9064 Y15.1071
G01 X23.9230 Y15.0671
G01 X25.5094 Y15.0671
G01 X25.4928 Y15.0271
G01 X23.9395 Y15.0271
G01 X23.9561 Y14.9871
G01 X25.4762 Y14.9871
G01 X25.4531 Y14.9471
G01 X23.9792 Y14.9471
G00 Z2.0000
G00 X24.0059 Y14.9071
G01 F800.00
G01 Z-0.0001
G01 F300.00
G01 X25.4264 Y14.9071
G01 X25.3996 Y14.8671
G01 X24.0327 Y14.8671
G01 X24.0615 Y14.8271
G01 X25.3708 Y14.8271
G01 X25.3308 Y14.7871
G01 X24.1015 Y14.7871
G01 X24.1415 Y14.7471
G01 X25.2908 Y14.7471
G01 X25.2468 Y14.7071
G01 X24.1855 Y14.7071
G01 X24.2453 Y14.6671
G01 X25.1870 Y14.6671
G01 X25.1271 Y14.6271
G01 X24.3052 Y14.6271
G01 X24.3969 Y14.5871
G01 X25.0354 Y14.5871
G01 X24.9111 Y14.5471
G01 X24.5212 Y14.5471
G00 Z2.0000
G00 X35.5046 Y12.6454
G01 F800.00
G01 Z-0.0001
G01 F300.00
G01 X37.4878 Y12.6454
G01 X37.4878 Y12.6054
G01 X35.5046 Y12.6054
G01 X35.5046 Y12.5654
G01 X37.4878 Y12.5654
G01 X37.4878 Y12.5254
G01 X35.5046 Y12.5254
G01 X35.5046 Y12.4854
G01 X37.4878 Y12.4854
G01 X37.4878 Y12.4454
G01 X35.5046 Y12.4454
G01 X35.5046 Y12.4054
G01 X37.4878 Y12.4054
G01 X37.4878 Y12.3654
G01 X35.5046 Y12.3654
G01 X35.5046 Y12.3254
G01 X37.4878 Y12.3254
G01 X37.4878 Y12.2854
G01 X35.5046 Y12.2854
G01 X35.5046 Y12.2454
G01 X37.4878 Y12.2454
G01 X37.4878 Y12.2054
G01 X35.5046 Y12.2054
G01 X35.5046 Y12.1654
G01 X37.4878 Y12.1654
G01 X37.4878 Y12.1246
G01 X37.4878 Y12.6854
G01 X35.5046 Y12.6854
G01 X35.5046 Y12.1246
G01 X37.4878 Y12.1246
G01 X37.4878 Y12.1254
G01 X35.5046 Y12.1254
G00 Z2.0000
G00 X35.5046 Y11.3754
G01 F800.00
G01 Z-0.0001
G01 F300.00
G01 X37.4878 Y11.3754
G01 X37.4878 Y11.3354
G01 X35.5046 Y11.3354
G01 X35.5046 Y11.2954
G01 X37.4878 Y11.2954
G01 X37.4878 Y11.2554
G01 X35.5046 Y11.2554
G01 X35.5046 Y11.2154
G01 X37.4878 Y11.2154
G01 X37.4878 Y11.1754
G01 X35.5046 Y11.1754
G01 X35.5046 Y11.1354
G01 X37.4878 Y11.1354
G01 X37.4878 Y11.0954
G01 X35.5046 Y11.0954
G01 X35.5046 Y11.0554
G01 X37.4878 Y11.0554
G01 X37.4878 Y11.0154
G01 X35.5046 Y11.0154
G01 X35.5046 Y10.9754
G01 X37.4878 Y10.9754
G01 X37.4878 Y10.9354
G01 X35.5046 Y10.9354
G01 X35.5046 Y10.8954
G01 X37.4878 Y10.8954
G01 X37.4878 Y10.8546
G01 X37.4878 Y11.4154
G01 X35.5046 Y11.4154
G01 X35.5046 Y10.8546
G01 X37.4878 Y10.8546
G01 X37.4878 Y10.8554
G01 X35.5046 Y10.8554
G00 Z2.0000
G00 X35.5046 Y10.1054
G01 F800.00
G01 Z-0.0001
G01 F300.00
G01 X37.4878 Y10.1054
G01 X37.4878 Y10.0654
G01 X35.5046 Y10.0654
G01 X35.5046 Y10.0254
G01 X37.4878 Y10.0254
G01 X37.4878 Y9.9854
G01 X35.5046 Y9.9854
G01 X35.5046 Y9.9454
G01 X37.4878 Y9.9454
G01 X37.4878 Y9.9054
G01 X35.5046 Y9.9054
G01 X35.5046 Y9.8654
G01 X37.4878 Y9.8654
G01 X37.4878 Y9.8254
G01 X35.5046 Y9.8254
G01 X35.5046 Y9.7854
G01 X37.4878 Y9.7854
G01 X37.4878 Y9.7454
G01 X35.5046 Y9.7454
G01 X35.5046 Y9.7054
G01 X37.4878 Y9.7054
G01 X37.4878 Y9.6654
G01 X35.5046 Y9.6654
G01 X35.5046 Y9.6254
G01 X37.4878 Y9.6254
G01 X37.4878 Y9.5846
G01 X37.4878 Y10.1454
G01 X35.5046 Y10.1454
G01 X35.5046 Y9.5846
G01 X37.4878 Y9.5846
G01 X37.4878 Y9.5854
G01 X35.5046 Y9.5854
G00 Z2.0000
G00 X35.5046 Y8.8354
G01 F800.00
G01 Z-0.0001
G01 F300.00
G01 X37.4878 Y8.8354
G01 X37.4878 Y8.7954
G01 X35.5046 Y8.7954
G01 X35.5046 Y8.7554
G01 X37.4878 Y8.7554
G01 X37.4878 Y8.7154
G01 X35.5046 Y8.7154
G01 X35.5046 Y8.6754
G01 X37.4878 Y8.6754
G01 X37.4878 Y8.6354
G01 X35.5046 Y8.6354
G01 X35.5046 Y8.5954
G01 X37.4878 Y8.5954
G01 X37.4878 Y8.5554
G01 X35.5046 Y8.5554
G01 X35.5046 Y8.5154
G01 X37.4878 Y8.5154
G01 X37.4878 Y8.4754
G01 X35.5046 Y8.4754
G01 X35.5046 Y8.4354
G01 X37.4878 Y8.4354
G01 X37.4878 Y8.3954
G01 X35.5046 Y8.3954
G01 X35.5046 Y8.3554
G01 X37.4878 Y8.3554
G01 X37.4878 Y8.3146
G01 X37.4878 Y8.8754
G01 X35.5046 Y8.8754
G01 X35.5046 Y8.3146
G01 X37.4878 Y8.3146
G01 X37.4878 Y8.3154
G01 X35.5046 Y8.3154
G00 Z2.0000
G00 X35.4593 Y5.8023
G01 F800.00
G01 Z-0.0001
G01 F300.00
G01 X34.9586 Y5.8023
G01 X34.8422 Y5.7623
G01 X35.5757 Y5.7623
G01 X35.6505 Y5.7223
G01 X34.7673 Y5.7223
G01 X34.6972 Y5.6823
G01 X35.7207 Y5.6823
G01 X35.7694 Y5.6423
G01 X34.6485 Y5.6423
G01 X34.5997 Y5.6023
G01 X35.8182 Y5.6023
G01 X35.8611 Y5.5623
G01 X34.5568 Y5.5623
G01 X34.5239 Y5.5223
G01 X35.8939 Y5.5223
G01 X35.9268 Y5.4823
G01 X34.4911 Y5.4823
G01 X34.4583 Y5.4423
G01 X35.9596 Y5.4423
G01 X35.9817 Y5.4023
G01 X34.4362 Y5.4023
G01 X34.4148 Y5.3623
G01 X36.0031 Y5.3623
G01 X36.0245 Y5.3223
G01 X34.3934 Y5.3223
G01 X34.3722 Y5.2823
G01 X36.0457 Y5.2823
G01 X36.0578 Y5.2423
G01 X34.3601 Y5.2423
G01 X34.3479 Y5.2023
G01 X36.0700 Y5.2023
G01 X36.0821 Y5.1623
G01 X34.3358 Y5.1623
G01 X34.3237 Y5.1223
G01 X36.0942 Y5.1223
G01 X36.1000 Y5.0823
G01 X34.3179 Y5.0823
G01 X34.3139 Y5.0423
G01 X36.1039 Y5.0423
G01 X36.1079 Y5.0023
G01 X34.3100 Y5.0023
G01 X34.3079 Y4.9623
G01 X36.1100 Y4.9623
G01 X36.1100 Y4.9223
G01 X34.3079 Y4.9223
G01 X34.3079 Y4.8823
G01 X36.1100 Y4.8823
G01 X36.1100 Y4.8423
G01 X34.3079 Y4.8423
G01 X34.3079 Y4.8023
G01 X36.1100 Y4.8023
G01 X36.1100 Y4.7623
G01 X34.3079 Y4.7623
G01 X34.3079 Y4.7223
G01 X36.1100 Y4.7223
G01 X36.1100 Y4.6823
G01 X34.3079 Y4.6823
G01 X34.3079 Y4.6423
G01 X36.1100 Y4.6423
G01 X36.1100 Y4.6023
G01 X34.3079 Y4.6023
G01 X34.3079 Y4.5623
G01 X36.1100 Y4.5623
G01 X36.1100 Y4.5223
G01 X34.3079 Y4.5223
G01 X34.3079 Y4.4823
G01 X36.1100 Y4.4823
G01 X36.1100 Y4.4423
G01 X34.3079 Y4.4423
G01 X34.3079 Y4.4023
G01 X36.1100 Y4.4023
G01 X36.1100 Y4.3623
G01 X34.3079 Y4.3623
G01 X34.3079 Y4.3223
G01 X36.1100 Y4.3223
G01 X36.1100 Y4.2823
G01 X34.3079 Y4.2823
G01 X34.3079 Y4.2423
G01 X36.1100 Y4.2423
G01 X36.1100 Y4.2023
G01 X34.3079 Y4.2023
G01 X34.3079 Y4.1623
G01 X36.1100 Y4.1623
G01 X36.1100 Y4.1223
G01 X34.3079 Y4.1223
G01 X34.3079 Y4.0823
G01 X36.1100 Y4.0823
G01 X36.1100 Y4.0423
G01 X34.3079 Y4.0423
G01 X34.3079 Y4.0023
G01 X36.1100 Y4.0023
G01 X36.1100 Y3.9623
G01 X34.3079 Y3.9623
G01 X34.3079 Y3.9223
G01 X36.1100 Y3.9223
G01 X36.1100 Y3.8823
G01 X34.3079 Y3.8823
G01 X34.3079 Y3.8423
G01 X36.1100 Y3.8423
G01 X36.1100 Y3.8023
G01 X34.3079 Y3.8023
G01 X34.3079 Y3.7623
G01 X36.1100 Y3.7623
G01 X36.1100 Y3.7223
G01 X34.3079 Y3.7223
G01 X34.3079 Y3.6823
G01 X36.1100 Y3.6823
G01 X36.1100 Y3.6423
G01 X34.3079 Y3.6423
G01 X34.3079 Y3.6023
G01 X36.1100 Y3.6023
G01 X36.1100 Y3.5623
G01 X34.3079 Y3.5623
G01 X34.3079 Y3.5223
G01 X36.1100 Y3.5223
G01 X36.1100 Y3.4823
G01 X34.3079 Y3.4823
G01 X34.3079 Y3.4423
G01 X36.1100 Y3.4423
G01 X36.1100 Y3.4023
G01 X34.3079 Y3.4023
G01 X34.3079 Y3.3623
G01 X36.1100 Y3.3623
G01 X36.1100 Y3.3223
G01 X34.3079 Y3.3223
G01 X34.3079 Y3.2823
G01 X36.1100 Y3.2823
G01 X36.1100 Y3.2423
G01 X34.3079 Y3.2423
G01 X34.3079 Y3.2023
G01 X36.1100 Y3.2023
G01 X36.1100 Y3.1623
G01 X34.3079 Y3.1623
G01 X34.3079 Y3.1223
G01 X36.1100 Y3.1223
G01 X36.1090 Y3.0823
G01 X34.3089 Y3.0823
G00 Z2.0000
G00 X35.0967 Y2.2423
G01 F800.00
G01 Z-0.0001
G01 F300.00
G01 X35.3212 Y2.2423
G01 X35.4965 Y2.2823
G01 X34.9213 Y2.2823
G01 X34.8210 Y2.3223
G01 X35.5968 Y2.3223
G01 X35.6717 Y2.3623
G01 X34.7462 Y2.3623
G01 X34.6834 Y2.4023
G01 X35.7345 Y2.4023
G01 X35.7832 Y2.4423
G01 X34.6347 Y2.4423
G01 X34.5859 Y2.4823
G01 X35.8319 Y2.4823
G01 X35.8704 Y2.5223
G01 X34.5475 Y2.5223
G01 X34.5147 Y2.5623
G01 X35.9032 Y2.5623
G01 X35.9361 Y2.6023
G01 X34.4818 Y2.6023
G01 X34.4515 Y2.6423
G01 X35.9664 Y2.6423
G01 X35.9878 Y2.6823
G01 X34.4301 Y2.6823
G01 X34.4087 Y2.7223
G01 X36.0092 Y2.7223
G01 X36.0305 Y2.7623
G01 X34.3873 Y2.7623
G01 X34.3688 Y2.8023
G01 X36.0491 Y2.8023
G01 X36.0612 Y2.8423
G01 X34.3566 Y2.8423
G01 X34.3445 Y2.8823
G01 X36.0734 Y2.8823
G01 X36.0855 Y2.9223
G01 X34.3324 Y2.9223
G01 X34.3209 Y2.9600
G01 X34.3725 Y2.7902
G01 X34.4561 Y2.6336
G01 X34.5687 Y2.4964
G01 X34.7059 Y2.3838
G01 X34.8491 Y2.3073
G01 X34.8625 Y2.3002
G01 X35.0323 Y2.2486
G01 X35.2089 Y2.2312
G01 X35.3856 Y2.2486
G01 X35.5554 Y2.3002
G01 X35.5688 Y2.3073
G01 X35.7120 Y2.3838
G01 X35.8492 Y2.4964
G01 X35.9618 Y2.6336
G01 X36.0454 Y2.7902
G01 X36.0970 Y2.9600
G01 X36.1100 Y3.0924
G01 X36.1100 Y4.9809
G01 X36.0970 Y5.1133
G01 X36.0454 Y5.2831
G01 X35.9618 Y5.4397
G01 X35.8492 Y5.5769
G01 X35.7120 Y5.6895
G01 X35.5554 Y5.7731
G01 X35.3856 Y5.8247
G01 X35.2089 Y5.8421
G01 X35.0323 Y5.8247
G01 X34.8625 Y5.7731
G01 X34.7059 Y5.6895
G01 X34.5687 Y5.5769
G01 X34.4561 Y5.4397
G01 X34.3725 Y5.2831
G01 X34.3209 Y5.1133
G01 X34.3079 Y4.9809
G01 X34.3079 Y3.0924
G01 X34.3209 Y2.9600
G01 X34.3207 Y2.9623
G01 X36.0972 Y2.9623
G01 X36.1011 Y3.0023
G01 X34.3168 Y3.0023
G01 X34.3128 Y3.0423
G01 X36.1051 Y3.0423
G00 Z2.0000
G00 X38.1189 Y3.0823
G01 F800.00
G01 Z-0.0001
G01 F300.00
G01 X39.9190 Y3.0823
G01 X39.9200 Y3.1223
G01 X38.1179 Y3.1223
G01 X38.1179 Y3.1623
G01 X39.9200 Y3.1623
G01 X39.9200 Y3.2023
G01 X38.1179 Y3.2023
G01 X38.1179 Y3.2423
G01 X39.9200 Y3.2423
G01 X39.9200 Y3.2823
G01 X38.1179 Y3.2823
G01 X38.1179 Y3.3223
G01 X39.9200 Y3.3223
G01 X39.9200 Y3.3623
G01 X38.1179 Y3.3623
G01 X38.1179 Y3.4023
G01 X39.9200 Y3.4023
G01 X39.9200 Y3.4423
G01 X38.1179 Y3.4423
G01 X38.1179 Y3.4823
G01 X39.9200 Y3.4823
G01 X39.9200 Y3.5223
G01 X38.1179 Y3.5223
G01 X38.1179 Y3.5623
G01 X39.9200 Y3.5623
G01 X39.9200 Y3.6023
G01 X38.1179 Y3.6023
G01 X38.1179 Y3.6423
G01 X39.9200 Y3.6423
G01 X39.9200 Y3.6823
G01 X38.1179 Y3.6823
G01 X38.1179 Y3.7223
G01 X39.9200 Y3.7223
G01 X39.9200 Y3.7623
G01 X38.1179 Y3.7623
G01 X38.1179 Y3.8023
G01 X39.9200 Y3.8023
G01 X39.9200 Y3.8423
G01 X38.1179 Y3.8423
G01 X38.1179 Y3.8823
G01 X39.9200 Y3.8823
G01 X39.9200 Y3.9223
G01 X38.1179 Y3.9223
G01 X38.1179 Y3.9623
G01 X39.9200 Y3.9623
G01 X39.9200 Y4.0023
G01 X38.1179 Y4.0023
G01 X38.1179 Y4.0423
G01 X39.9200 Y4.0423
G01 X39.9200 Y4.0823
G01 X38.1179 Y4.0823
G01 X38.1179 Y4.1223
G01 X39.9200 Y4.1223
G01 X39.9200 Y4.1623
G01 X38.1179 Y4.1623
G01 X38.1179 Y4.2023
G01 X39.9200 Y4.2023
G01 X39.9200 Y4.2423
G01 X38.1179 Y4.2423
G01 X38.1179 Y4.2823
G01 X39.9200 Y4.2823
G01 X39.9200 Y4.3223
G01 X38.1179 Y4.3223
G01 X38.1179 Y4.3623
G01 X39.9200 Y4.3623
G01 X39.9200 Y4.4023
G01 X38.1179 Y4.4023
G01 X38.1179 Y4.4423
G01 X39.9200 Y4.4423
G01 X39.9200 Y4.4823
G01 X38.1179 Y4.4823
G01 X38.1179 Y4.5223
G01 X39.9200 Y4.5223
G01 X39.9200 Y4.5623
G01 X38.1179 Y4.5623
G01 X38.1179 Y4.6023
G01 X39.9200 Y4.6023
G01 X39.9200 Y4.6423
G01 X38.1179 Y4.6423
G01 X38.1179 Y4.6823
G01 X39.9200 Y4.6823
G01 X39.9200 Y4.7223
G01 X38.1179 Y4.7223
G01 X38.1179 Y4.7623
G01 X39.9200 Y4.7623
G01 X39.9200 Y4.8023
G01 X38.1179 Y4.8023
G01 X38.1179 Y4.8423
G01 X39.9200 Y4.8423
G01 X39.9200 Y4.8823
G01 X38.1179 Y4.8823
G01 X38.1179 Y4.9223
G01 X39.9200 Y4.9223
G01 X39.9200 Y4.9623
G01 X38.1179 Y4.9623
G01 X38.1200 Y5.0023
G01 X39.9179 Y5.0023
G01 X39.9139 Y5.0423
G01 X38.1239 Y5.0423
G01 X38.1279 Y5.0823
G01 X39.9100 Y5.0823
G01 X39.9042 Y5.1223
G01 X38.1337 Y5.1223
G01 X38.1458 Y5.1623
G01 X39.8921 Y5.1623
G01 X39.8800 Y5.2023
G01 X38.1579 Y5.2023
G01 X38.1701 Y5.2423
G01 X39.8678 Y5.2423
G01 X39.8557 Y5.2823
G01 X38.1822 Y5.2823
G01 X38.2034 Y5.3223
G01 X39.8345 Y5.3223
G01 X39.8131 Y5.3623
G01 X38.2248 Y5.3623
G01 X38.2462 Y5.4023
G01 X39.7917 Y5.4023
G01 X39.7696 Y5.4423
G01 X38.2683 Y5.4423
G01 X38.3011 Y5.4823
G01 X39.7368 Y5.4823
G01 X39.7039 Y5.5223
G01 X38.3339 Y5.5223
G01 X38.3668 Y5.5623
G01 X39.6711 Y5.5623
G01 X39.6282 Y5.6023
G01 X38.4097 Y5.6023
G01 X38.4585 Y5.6423
G01 X39.5794 Y5.6423
G01 X39.5307 Y5.6823
G01 X38.5072 Y5.6823
G01 X38.5773 Y5.7223
G01 X39.4605 Y5.7223
G01 X39.3857 Y5.7623
G01 X38.6522 Y5.7623
G01 X38.7686 Y5.8023
G01 X39.2693 Y5.8023
G00 Z2.0000
G00 X42.0278 Y5.8345
G01 F800.00
G01 Z-0.0001
G01 F300.00
G01 X42.0604 Y5.8377
G01 X43.5975 Y5.8377
G01 X43.6301 Y5.8345
G01 X43.6532 Y5.8275
G01 X43.6744 Y5.8161
G01 X43.6931 Y5.8008
G01 X43.7084 Y5.7822
G01 X43.7198 Y5.7609
G01 X43.7268 Y5.7378
G01 X43.7300 Y5.7052
G01 X43.7300 Y2.3681
G01 X43.7268 Y2.3355
G01 X43.7198 Y2.3124
G01 X43.7084 Y2.2912
G01 X43.6931 Y2.2725
G01 X43.6744 Y2.2572
G01 X43.6532 Y2.2458
G01 X43.6301 Y2.2388
G01 X43.5975 Y2.2356
G01 X42.0604 Y2.2356
G01 X42.0278 Y2.2388
G01 X42.0047 Y2.2458
G01 X41.9835 Y2.2572
G01 X41.9648 Y2.2725
G01 X41.9495 Y2.2912
G01 X41.9381 Y2.3124
G01 X41.9311 Y2.3355
G01 X41.9279 Y2.3681
G01 X41.9279 Y5.7052
G01 X41.9311 Y5.7378
G01 X41.9381 Y5.7609
G01 X41.9495 Y5.7821
G01 X41.9648 Y5.8008
G01 X41.9834 Y5.8161
G01 X42.0047 Y5.8275
G01 X42.0278 Y5.8345
G00 Z2.0000
G00 X43.6956 Y5.7977
G01 F800.00
G01 Z-0.0001
G01 F300.00
G01 X41.9623 Y5.7977
G01 X41.9372 Y5.7577
G01 X43.7207 Y5.7577
G01 X43.7288 Y5.7177
G01 X41.9291 Y5.7177
G01 X41.9279 Y5.6777
G01 X43.7300 Y5.6777
G01 X43.7300 Y5.6377
G01 X41.9279 Y5.6377
G01 X41.9279 Y5.5977
G01 X43.7300 Y5.5977
G01 X43.7300 Y5.5577
G01 X41.9279 Y5.5577
G01 X41.9279 Y5.5177
G01 X43.7300 Y5.5177
G01 X43.7300 Y5.4777
G01 X41.9279 Y5.4777
G01 X41.9279 Y5.4377
G01 X43.7300 Y5.4377
G01 X43.7300 Y5.3977
G01 X41.9279 Y5.3977
G01 X41.9279 Y5.3577
G01 X43.7300 Y5.3577
G01 X43.7300 Y5.3177
G01 X41.9279 Y5.3177
G01 X41.9279 Y5.2777
G01 X43.7300 Y5.2777
G01 X43.7300 Y5.2377
G01 X41.9279 Y5.2377
G01 X41.9279 Y5.1977
G01 X43.7300 Y5.1977
G01 X43.7300 Y5.1577
G01 X41.9279 Y5.1577
G01 X41.9279 Y5.1177
G01 X43.7300 Y5.1177
G01 X43.7300 Y5.0777
G01 X41.9279 Y5.0777
G01 X41.9279 Y5.0377
G01 X43.7300 Y5.0377
G01 X43.7300 Y4.9977
G01 X41.9279 Y4.9977
G01 X41.9279 Y4.9577
G01 X43.7300 Y4.9577
G01 X43.7300 Y4.9177
G01 X41.9279 Y4.9177
G01 X41.9279 Y4.8777
G01 X43.7300 Y4.8777
G01 X43.7300 Y4.8377
G01 X41.9279 Y4.8377
G01 X41.9279 Y4.7977
G01 X43.7300 Y4.7977
G01 X43.7300 Y4.7577
G01 X41.9279 Y4.7577
G01 X41.9279 Y4.7177
G01 X43.7300 Y4.7177
G01 X43.7300 Y4.6777
G01 X41.9279 Y4.6777
G01 X41.9279 Y4.6377
G01 X43.7300 Y4.6377
G01 X43.7300 Y4.5977
G01 X41.9279 Y4.5977
G01 X41.9279 Y4.5577
G01 X43.7300 Y4.5577
G01 X43.7300 Y4.5177
G01 X41.9279 Y4.5177
G01 X41.9279 Y4.4777
G01 X43.7300 Y4.4777
G01 X43.7300 Y4.4377
G01 X41.9279 Y4.4377
G01 X41.9279 Y4.3977
G01 X43.7300 Y4.3977
G01 X43.7300 Y4.3577
G01 X41.9279 Y4.3577
G01 X41.9279 Y4.3177
G01 X43.7300 Y4.3177
G01 X43.7300 Y4.2777
G01 X41.9279 Y4.2777
G01 X41.9279 Y4.2377
G01 X43.7300 Y4.2377
G01 X43.7300 Y4.1977
G01 X41.9279 Y4.1977
G01 X41.9279 Y4.1577
G01 X43.7300 Y4.1577
G01 X43.7300 Y4.1177
G01 X41.9279 Y4.1177
G01 X41.9279 Y4.0777
G01 X43.7300 Y4.0777
G01 X43.7300 Y4.0377
G01 X41.9279 Y4.0377
G01 X41.9279 Y3.9977
G01 X43.7300 Y3.9977
G01 X43.7300 Y3.9577
G01 X41.9279 Y3.9577
G01 X41.9279 Y3.9177
G01 X43.7300 Y3.9177
G01 X43.7300 Y3.8777
G01 X41.9279 Y3.8777
G01 X41.9279 Y3.8377
G01 X43.7300 Y3.8377
G01 X43.7300 Y3.7977
G01 X41.9279 Y3.7977
G01 X41.9279 Y3.7577
G01 X43.7300 Y3.7577
G01 X43.7300 Y3.7177
G01 X41.9279 Y3.7177
G01 X41.9279 Y3.6777
G01 X43.7300 Y3.6777
G01 X43.7300 Y3.6377
G01 X41.9279 Y3.6377
G01 X41.9279 Y3.5977
G01 X43.7300 Y3.5977
G01 X43.7300 Y3.5577
G01 X41.9279 Y3.5577
G01 X41.9279 Y3.5177
G01 X43.7300 Y3.5177
G01 X43.7300 Y3.4777
G01 X41.9279 Y3.4777
G01 X41.9279 Y3.4377
G01 X43.7300 Y3.4377
G01 X43.7300 Y3.3977
G01 X41.9279 Y3.3977
G01 X41.9279 Y3.3577
G01 X43.7300 Y3.3577
G01 X43.7300 Y3.3177
G01 X41.9279 Y3.3177
G01 X41.9279 Y3.2777
G01 X43.7300 Y3.2777
G01 X43.7300 Y3.2377
G01 X41.9279 Y3.2377
G01 X41.9279 Y3.1977
G01 X43.7300 Y3.1977
G01 X43.7300 Y3.1577
G01 X41.9279 Y3.1577
G01 X41.9279 Y3.1177
G01 X43.7300 Y3.1177
G01 X43.7300 Y3.0777
G01 X41.9279 Y3.0777
G01 X41.9279 Y3.0377
G01 X43.7300 Y3.0377
G01 X43.7300 Y2.9977
G01 X41.9279 Y2.9977
G01 X41.9279 Y2.9577
G01 X43.7300 Y2.9577
G01 X43.7300 Y2.9177
G01 X41.9279 Y2.9177
G01 X41.9279 Y2.8777
G01 X43.7300 Y2.8777
G01 X43.7300 Y2.8377
G01 X41.9279 Y2.8377
G01 X41.9279 Y2.7977
G01 X43.7300 Y2.7977
G01 X43.7300 Y2.7577
G01 X41.9279 Y2.7577
G01 X41.9279 Y2.7177
G01 X43.7300 Y2.7177
G01 X43.7300 Y2.6777
G01 X41.9279 Y2.6777
G01 X41.9279 Y2.6377
G01 X43.7300 Y2.6377
G01 X43.7300 Y2.5977
G01 X41.9279 Y2.5977
G01 X41.9279 Y2.5577
G01 X43.7300 Y2.5577
G01 X43.7300 Y2.5177
G01 X41.9279 Y2.5177
G01 X41.9279 Y2.4777
G01 X43.7300 Y2.4777
G01 X43.7300 Y2.4377
G01 X41.9279 Y2.4377
G01 X41.9279 Y2.3977
G01 X43.7300 Y2.3977
G01 X43.7290 Y2.3577
G01 X41.9289 Y2.3577
G00 Z2.0000
G00 X41.9365 Y2.3177
G01 F800.00
G01 Z-0.0001
G01 F300.00
G01 X43.7214 Y2.3177
G01 X43.6974 Y2.2777
G01 X41.9605 Y2.2777
G01 X42.0391 Y2.2377
G01 X43.6188 Y2.2377
G00 Z2.0000
G00 X39.9151 Y3.0423
G01 F800.00
G01 Z-0.0001
G01 F300.00
G01 X38.1228 Y3.0423
G01 X38.1268 Y3.0023
G01 X39.9111 Y3.0023
G01 X39.9072 Y2.9623
G01 X38.1307 Y2.9623
G01 X38.1309 Y2.9600
G01 X38.1179 Y3.0924
G01 X38.1179 Y4.9809
G01 X38.1309 Y5.1133
G01 X38.1825 Y5.2831
G01 X38.2661 Y5.4397
G01 X38.3787 Y5.5769
G01 X38.5159 Y5.6895
G01 X38.6725 Y5.7731
G01 X38.8423 Y5.8247
G01 X39.0189 Y5.8421
G01 X39.1956 Y5.8247
G01 X39.3654 Y5.7731
G01 X39.5220 Y5.6895
G01 X39.6592 Y5.5769
G01 X39.7718 Y5.4397
G01 X39.8554 Y5.2831
G01 X39.9070 Y5.1133
G01 X39.9200 Y4.9809
G01 X39.9200 Y3.0924
G01 X39.9070 Y2.9600
G01 X39.8554 Y2.7902
G01 X39.7718 Y2.6336
G01 X39.6592 Y2.4964
G01 X39.5220 Y2.3838
G01 X39.3788 Y2.3073
G01 X39.3654 Y2.3002
G01 X39.1956 Y2.2486
G01 X39.0189 Y2.2312
G01 X38.8423 Y2.2486
G01 X38.6725 Y2.3002
G01 X38.6591 Y2.3073
G01 X38.5159 Y2.3838
G01 X38.3787 Y2.4964
G01 X38.2661 Y2.6336
G01 X38.1825 Y2.7902
G01 X38.1309 Y2.9600
G01 X38.1424 Y2.9223
G01 X39.8955 Y2.9223
G01 X39.8834 Y2.8823
G01 X38.1545 Y2.8823
G01 X38.1666 Y2.8423
G01 X39.8712 Y2.8423
G01 X39.8591 Y2.8023
G01 X38.1788 Y2.8023
G01 X38.1973 Y2.7623
G01 X39.8405 Y2.7623
G01 X39.8192 Y2.7223
G01 X38.2187 Y2.7223
G01 X38.2401 Y2.6823
G01 X39.7978 Y2.6823
G01 X39.7764 Y2.6423
G01 X38.2615 Y2.6423
G01 X38.2918 Y2.6023
G01 X39.7461 Y2.6023
G01 X39.7132 Y2.5623
G01 X38.3247 Y2.5623
G01 X38.3575 Y2.5223
G01 X39.6804 Y2.5223
G01 X39.6419 Y2.4823
G01 X38.3959 Y2.4823
G01 X38.4447 Y2.4423
G01 X39.5932 Y2.4423
G01 X39.5445 Y2.4023
G01 X38.4934 Y2.4023
G01 X38.5562 Y2.3623
G01 X39.4817 Y2.3623
G01 X39.4068 Y2.3223
G01 X38.6310 Y2.3223
G01 X38.7313 Y2.2823
G01 X39.3065 Y2.2823
G01 X39.1312 Y2.2423
G01 X38.9067 Y2.2423
G00 Z2.0000
G00 X40.4322 Y8.3154
G01 F800.00
G01 Z-0.0001
G01 F300.00
G01 X42.4154 Y8.3154
G01 X42.4154 Y8.3146
G01 X40.4322 Y8.3146
G01 X40.4322 Y8.8754
G01 X42.4154 Y8.8754
G01 X42.4154 Y8.3146
G01 X42.4154 Y8.3554
G01 X40.4322 Y8.3554
G01 X40.4322 Y8.3954
G01 X42.4154 Y8.3954
G01 X42.4154 Y8.4354
G01 X40.4322 Y8.4354
G01 X40.4322 Y8.4754
G01 X42.4154 Y8.4754
G01 X42.4154 Y8.5154
G01 X40.4322 Y8.5154
G01 X40.4322 Y8.5554
G01 X42.4154 Y8.5554
G01 X42.4154 Y8.5954
G01 X40.4322 Y8.5954
G01 X40.4322 Y8.6354
G01 X42.4154 Y8.6354
G01 X42.4154 Y8.6754
G01 X40.4322 Y8.6754
G01 X40.4322 Y8.7154
G01 X42.4154 Y8.7154
G01 X42.4154 Y8.7554
G01 X40.4322 Y8.7554
G01 X40.4322 Y8.7954
G01 X42.4154 Y8.7954
G01 X42.4154 Y8.8354
G01 X40.4322 Y8.8354
G00 Z2.0000
G00 X40.4322 Y9.5854
G01 F800.00
G01 Z-0.0001
G01 F300.00
G01 X42.4154 Y9.5854
G01 X42.4154 Y9.5846
G01 X40.4322 Y9.5846
G01 X40.4322 Y10.1454
G01 X42.4154 Y10.1454
G01 X42.4154 Y9.5846
G01 X42.4154 Y9.6254
G01 X40.4322 Y9.6254
G01 X40.4322 Y9.6654
G01 X42.4154 Y9.6654
G01 X42.4154 Y9.7054
G01 X40.4322 Y9.7054
G01 X40.4322 Y9.7454
G01 X42.4154 Y9.7454
G01 X42.4154 Y9.7854
G01 X40.4322 Y9.7854
G01 X40.4322 Y9.8254
G01 X42.4154 Y9.8254
G01 X42.4154 Y9.8654
G01 X40.4322 Y9.8654
G01 X40.4322 Y9.9054
G01 X42.4154 Y9.9054
G01 X42.4154 Y9.9454
G01 X40.4322 Y9.9454
G01 X40.4322 Y9.9854
G01 X42.4154 Y9.9854
G01 X42.4154 Y10.0254
G01 X40.4322 Y10.0254
G01 X40.4322 Y10.0654
G01 X42.4154 Y10.0654
G01 X42.4154 Y10.1054
G01 X40.4322 Y10.1054
G00 Z2.0000
G00 X40.4322 Y10.8554
G01 F800.00
G01 Z-0.0001
G01 F300.00
G01 X42.4154 Y10.8554
G01 X42.4154 Y10.8546
G01 X40.4322 Y10.8546
G01 X40.4322 Y11.4154
G01 X42.4154 Y11.4154
G01 X42.4154 Y10.8546
G01 X42.4154 Y10.8954
G01 X40.4322 Y10.8954
G01 X40.4322 Y10.9354
G01 X42.4154 Y10.9354
G01 X42.4154 Y10.9754
G01 X40.4322 Y10.9754
G01 X40.4322 Y11.0154
G01 X42.4154 Y11.0154
G01 X42.4154 Y11.0554
G01 X40.4322 Y11.0554
G01 X40.4322 Y11.0954
G01 X42.4154 Y11.0954
G01 X42.4154 Y11.1354
G01 X40.4322 Y11.1354
G01 X40.4322 Y11.1754
G01 X42.4154 Y11.1754
G01 X42.4154 Y11.2154
G01 X40.4322 Y11.2154
G01 X40.4322 Y11.2554
G01 X42.4154 Y11.2554
G01 X42.4154 Y11.2954
G01 X40.4322 Y11.2954
G01 X40.4322 Y11.3354
G01 X42.4154 Y11.3354
G01 X42.4154 Y11.3754
G01 X40.4322 Y11.3754
G00 Z2.0000
G00 X40.4322 Y12.1254
G01 F800.00
G01 Z-0.0001
G01 F300.00
G01 X42.4154 Y12.1254
G01 X42.4154 Y12.1246
G01 X40.4322 Y12.1246
G01 X40.4322 Y12.6854
G01 X42.4154 Y12.6854
G01 X42.4154 Y12.1246
G01 X42.4154 Y12.1654
G01 X40.4322 Y12.1654
G01 X40.4322 Y12.2054
G01 X42.4154 Y12.2054
G01 X42.4154 Y12.2454
G01 X40.4322 Y12.2454
G01 X40.4322 Y12.2854
G01 X42.4154 Y12.2854
G01 X42.4154 Y12.3254
G01 X40.4322 Y12.3254
G01 X40.4322 Y12.3654
G01 X42.4154 Y12.3654
G01 X42.4154 Y12.4054
G01 X40.4322 Y12.4054
G01 X40.4322 Y12.4454
G01 X42.4154 Y12.4454
G01 X42.4154 Y12.4854
G01 X40.4322 Y12.4854
G01 X40.4322 Y12.5254
G01 X42.4154 Y12.5254
G01 X42.4154 Y12.5654
G01 X40.4322 Y12.5654
G01 X40.4322 Y12.6054
G01 X42.4154 Y12.6054
G01 X42.4154 Y12.6454
G01 X40.4322 Y12.6454
G00 Z2.0000
G00 X39.4452 Y14.5471
G01 F800.00
G01 Z-0.0001
G01 F300.00
G01 X41.1472 Y14.5471
G01 X41.1472 Y14.5250
G01 X39.4452 Y14.5250
G01 X39.4451 Y16.2270
G01 X41.1472 Y16.2271
G01 X41.1472 Y14.5250
G01 X41.1472 Y14.5871
G01 X39.4452 Y14.5871
G01 X39.4451 Y14.6271
G01 X41.1472 Y14.6271
G01 X41.1472 Y14.6671
G01 X39.4451 Y14.6671
G01 X39.4451 Y14.7071
G01 X41.1472 Y14.7071
G01 X41.1472 Y14.7471
G01 X39.4451 Y14.7471
G01 X39.4451 Y14.7871
G01 X41.1472 Y14.7871
G01 X41.1472 Y14.8271
G01 X39.4451 Y14.8271
G01 X39.4451 Y14.8671
G01 X41.1472 Y14.8671
G01 X41.1472 Y14.9071
G01 X39.4451 Y14.9071
G01 X39.4451 Y14.9471
G01 X41.1472 Y14.9471
G01 X41.1472 Y14.9871
G01 X39.4451 Y14.9871
G01 X39.4451 Y15.0271
G01 X41.1472 Y15.0271
G01 X41.1472 Y15.0671
G01 X39.4451 Y15.0671
G01 X39.4451 Y15.1071
G01 X41.1472 Y15.1071
G01 X41.1472 Y15.1471
G01 X39.4451 Y15.1471
G01 X39.4451 Y15.1871
G01 X41.1472 Y15.1871
G01 X41.1472 Y15.2271
G01 X39.4451 Y15.2271
G01 X39.4451 Y15.2671
G01 X41.1472 Y15.2671
G01 X41.1472 Y15.3071
G01 X39.4451 Y15.3071
G01 X39.4451 Y15.3471
G01 X41.1472 Y15.3471
G01 X41.1472 Y15.3871
G01 X39.4451 Y15.3871
G01 X39.4451 Y15.4271
G01 X41.1472 Y15.4271
G01 X41.1472 Y15.4671
G01 X39.4451 Y15.4671
G01 X39.4451 Y15.5071
G01 X41.1472 Y15.5071
G01 X41.1472 Y15.5471
G01 X39.4451 Y15.5471
G01 X39.4451 Y15.5871
G01 X41.1472 Y15.5871
G01 X41.1472 Y15.6271
G01 X39.4451 Y15.6271
G01 X39.4451 Y15.6671
G01 X41.1472 Y15.6671
G01 X41.1472 Y15.7071
G01 X39.4451 Y15.7071
G01 X39.4451 Y15.7471
G01 X41.1472 Y15.7471
G01 X41.1472 Y15.7871
G01 X39.4451 Y15.7871
G01 X39.4451 Y15.8271
G01 X41.1472 Y15.8271
G01 X41.1472 Y15.8671
G01 X39.4451 Y15.8671
G01 X39.4451 Y15.9071
G01 X41.1472 Y15.9071
G01 X41.1472 Y15.9471
G01 X39.4451 Y15.9471
G01 X39.4451 Y15.9871
G01 X41.1472 Y15.9871
G01 X41.1472 Y16.0271
G01 X39.4451 Y16.0271
G01 X39.4451 Y16.0671
G01 X41.1472 Y16.0671
G01 X41.1472 Y16.1071
G01 X39.4451 Y16.1071
G01 X39.4451 Y16.1471
G01 X41.1472 Y16.1471
G01 X41.1472 Y16.1871
G01 X39.4451 Y16.1871
G00 Z2.0000
G00 X37.6524 Y16.2231
G01 F800.00
G01 Z-0.0001
G01 F300.00
G01 X37.5079 Y16.1944
G01 X37.3530 Y16.1302
G01 X37.2136 Y16.0371
G01 X37.0951 Y15.9185
G01 X37.0020 Y15.7792
G01 X36.9378 Y15.6243
G01 X36.9051 Y15.4599
G01 X36.9051 Y15.2922
G01 X36.9378 Y15.1278
G01 X37.0020 Y14.9729
G01 X37.0951 Y14.8335
G01 X37.2136 Y14.7150
G01 X37.3530 Y14.6218
G01 X37.5079 Y14.5577
G01 X37.6723 Y14.5250
G01 X37.8400 Y14.5250
G01 X38.0044 Y14.5577
G01 X38.1593 Y14.6218
G01 X38.2987 Y14.7150
G01 X38.4172 Y14.8335
G01 X38.5103 Y14.9729
G01 X38.5745 Y15.1278
G01 X38.6072 Y15.2922
G01 X38.6072 Y15.4599
G01 X38.5745 Y15.6243
G01 X38.5103 Y15.7792
G01 X38.4172 Y15.9186
G01 X38.2987 Y16.0371
G01 X38.1593 Y16.1302
G01 X38.0044 Y16.1944
G01 X37.8400 Y16.2271
G01 X37.6723 Y16.2271
G01 X37.6524 Y16.2231
G01 X37.4903 Y16.1871
G01 X38.0220 Y16.1871
G01 X38.1186 Y16.1471
G01 X37.3937 Y16.1471
G01 X37.3184 Y16.1071
G01 X38.1939 Y16.1071
G01 X38.2538 Y16.0671
G01 X37.2585 Y16.0671
G01 X37.2036 Y16.0271
G01 X38.3087 Y16.0271
G01 X38.3487 Y15.9871
G01 X37.1636 Y15.9871
G01 X37.1236 Y15.9471
G01 X38.3887 Y15.9471
G01 X38.4249 Y15.9071
G01 X37.0874 Y15.9071
G01 X37.0607 Y15.8671
G01 X38.4516 Y15.8671
G01 X38.4783 Y15.8271
G01 X37.0340 Y15.8271
G01 X37.0073 Y15.7871
G01 X38.5050 Y15.7871
G01 X38.5236 Y15.7471
G01 X36.9887 Y15.7471
G01 X36.9721 Y15.7071
G01 X38.5402 Y15.7071
G01 X38.5568 Y15.6671
G01 X36.9555 Y15.6671
G01 X36.9390 Y15.6271
G01 X38.5733 Y15.6271
G01 X38.5819 Y15.5871
G01 X36.9304 Y15.5871
G01 X36.9225 Y15.5471
G01 X38.5899 Y15.5471
G01 X38.5978 Y15.5071
G01 X36.9145 Y15.5071
G01 X36.9065 Y15.4671
G01 X38.6058 Y15.4671
G01 X38.6072 Y15.4271
G01 X36.9051 Y15.4271
G01 X36.9051 Y15.3871
G01 X38.6072 Y15.3871
G01 X38.6072 Y15.3471
G01 X36.9051 Y15.3471
G01 X36.9051 Y15.3071
G01 X38.6072 Y15.3071
G01 X38.6022 Y15.2671
G01 X36.9101 Y15.2671
G01 X36.9181 Y15.2271
G01 X38.5942 Y15.2271
G01 X38.5863 Y15.1871
G01 X36.9260 Y15.1871
G01 X36.9340 Y15.1471
G01 X38.5783 Y15.1471
G01 X38.5659 Y15.1071
G01 X36.9464 Y15.1071
G00 Z2.0000
G00 X36.9630 Y15.0671
G01 F800.00
G01 Z-0.0001
G01 F300.00
G01 X38.5494 Y15.0671
G01 X38.5328 Y15.0271
G01 X36.9795 Y15.0271
G01 X36.9961 Y14.9871
G01 X38.5162 Y14.9871
G01 X38.4931 Y14.9471
G01 X37.0192 Y14.9471
G01 X37.0459 Y14.9071
G01 X38.4664 Y14.9071
G01 X38.4396 Y14.8671
G01 X37.0727 Y14.8671
G01 X37.1015 Y14.8271
G01 X38.4108 Y14.8271
G01 X38.3708 Y14.7871
G01 X37.1415 Y14.7871
G01 X37.1815 Y14.7471
G01 X38.3308 Y14.7471
G01 X38.2868 Y14.7071
G01 X37.2255 Y14.7071
G01 X37.2853 Y14.6671
G01 X38.2270 Y14.6671
G01 X38.1671 Y14.6271
G01 X37.3452 Y14.6271
G01 X37.4369 Y14.5871
G01 X38.0754 Y14.5871
G01 X37.9511 Y14.5471
G01 X37.5612 Y14.5471
G00 Z2.0000
G00 X48.5446 Y12.6454
G01 F800.00
G01 Z-0.0001
G01 F300.00
G01 X50.5278 Y12.6454
G01 X50.5278 Y12.6054
G01 X48.5446 Y12.6054
G01 X48.5446 Y12.5654
G01 X50.5278 Y12.5654
G01 X50.5278 Y12.5254
G01 X48.5446 Y12.5254
G01 X48.5446 Y12.4854
G01 X50.5278 Y12.4854
G01 X50.5278 Y12.4454
G01 X48.5446 Y12.4454
G01 X48.5446 Y12.4054
G01 X50.5278 Y12.4054
G01 X50.5278 Y12.3654
G01 X48.5446 Y12.3654
G01 X48.5446 Y12.3254
G01 X50.5278 Y12.3254
G01 X50.5278 Y12.2854
G01 X48.5446 Y12.2854
G01 X48.5446 Y12.2454
G01 X50.5278 Y12.2454
G01 X50.5278 Y12.2054
G01 X48.5446 Y12.2054
G01 X48.5446 Y12.1654
G01 X50.5278 Y12.1654
G01 X50.5278 Y12.1246
G01 X50.5278 Y12.6854
G01 X48.5446 Y12.6854
G01 X48.5446 Y12.1246
G01 X50.5278 Y12.1246
G01 X50.5278 Y12.1254
G01 X48.5446 Y12.1254
G00 Z2.0000
G00 X48.5446 Y11.3754
G01 F800.00
G01 Z-0.0001
G01 F300.00
G01 X50.5278 Y11.3754
G01 X50.5278 Y11.3354
G01 X48.5446 Y11.3354
G01 X48.5446 Y11.2954
G01 X50.5278 Y11.2954
G01 X50.5278 Y11.2554
G01 X48.5446 Y11.2554
G01 X48.5446 Y11.2154
G01 X50.5278 Y11.2154
G01 X50.5278 Y11.1754
G01 X48.5446 Y11.1754
G01 X48.5446 Y11.1354
G01 X50.5278 Y11.1354
G01 X50.5278 Y11.0954
G01 X48.5446 Y11.0954
G01 X48.5446 Y11.0554
G01 X50.5278 Y11.0554
G01 X50.5278 Y11.0154
G01 X48.5446 Y11.0154
G01 X48.5446 Y10.9754
G01 X50.5278 Y10.9754
G01 X50.5278 Y10.9354
G01 X48.5446 Y10.9354
G01 X48.5446 Y10.8954
G01 X50.5278 Y10.8954
G01 X50.5278 Y10.8546
G01 X50.5278 Y11.4154
G01 X48.5446 Y11.4154
G01 X48.5446 Y10.8546
G01 X50.5278 Y10.8546
G01 X50.5278 Y10.8554
G01 X48.5446 Y10.8554
G00 Z2.0000
G00 X48.5446 Y10.1054
G01 F800.00
G01 Z-0.0001
G01 F300.00
G01 X50.5278 Y10.1054
G01 X50.5278 Y10.0654
G01 X48.5446 Y10.0654
G01 X48.5446 Y10.0254
G01 X50.5278 Y10.0254
G01 X50.5278 Y9.9854
G01 X48.5446 Y9.9854
G01 X48.5446 Y9.9454
G01 X50.5278 Y9.9454
G01 X50.5278 Y9.9054
G01 X48.5446 Y9.9054
G01 X48.5446 Y9.8654
G01 X50.5278 Y9.8654
G01 X50.5278 Y9.8254
G01 X48.5446 Y9.8254
G01 X48.5446 Y9.7854
G01 X50.5278 Y9.7854
G01 X50.5278 Y9.7454
G01 X48.5446 Y9.7454
G01 X48.5446 Y9.7054
G01 X50.5278 Y9.7054
G01 X50.5278 Y9.6654
G01 X48.5446 Y9.6654
G01 X48.5446 Y9.6254
G01 X50.5278 Y9.6254
G01 X50.5278 Y9.5846
G01 X50.5278 Y10.1454
G01 X48.5446 Y10.1454
G01 X48.5446 Y9.5846
G01 X50.5278 Y9.5846
G01 X50.5278 Y9.5854
G01 X48.5446 Y9.5854
G00 Z2.0000
G00 X48.5446 Y8.8354
G01 F800.00
G01 Z-0.0001
G01 F300.00
G01 X50.5278 Y8.8354
G01 X50.5278 Y8.7954
G01 X48.5446 Y8.7954
G01 X48.5446 Y8.7554
G01 X50.5278 Y8.7554
G01 X50.5278 Y8.7154
G01 X48.5446 Y8.7154
G01 X48.5446 Y8.6754
G01 X50.5278 Y8.6754
G01 X50.5278 Y8.6354
G01 X48.5446 Y8.6354
G01 X48.5446 Y8.5954
G01 X50.5278 Y8.5954
G01 X50.5278 Y8.5554
G01 X48.5446 Y8.5554
G01 X48.5446 Y8.5154
G01 X50.5278 Y8.5154
G01 X50.5278 Y8.4754
G01 X48.5446 Y8.4754
G01 X48.5446 Y8.4354
G01 X50.5278 Y8.4354
G01 X50.5278 Y8.3954
G01 X48.5446 Y8.3954
G01 X48.5446 Y8.3554
G01 X50.5278 Y8.3554
G01 X50.5278 Y8.3146
G01 X50.5278 Y8.8754
G01 X48.5446 Y8.8754
G01 X48.5446 Y8.3146
G01 X50.5278 Y8.3146
G01 X50.5278 Y8.3154
G01 X48.5446 Y8.3154
G00 Z2.0000
G00 X48.4993 Y5.8023
G01 F800.00
G01 Z-0.0001
G01 F300.00
G01 X47.9986 Y5.8023
G01 X47.8822 Y5.7623
G01 X48.6157 Y5.7623
G01 X48.6905 Y5.7223
G01 X47.8073 Y5.7223
G01 X47.7372 Y5.6823
G01 X48.7607 Y5.6823
G01 X48.8094 Y5.6423
G01 X47.6885 Y5.6423
G01 X47.6397 Y5.6023
G01 X48.8582 Y5.6023
G01 X48.9011 Y5.5623
G01 X47.5968 Y5.5623
G01 X47.5639 Y5.5223
G01 X48.9339 Y5.5223
G01 X48.9668 Y5.4823
G01 X47.5311 Y5.4823
G01 X47.4983 Y5.4423
G01 X48.9996 Y5.4423
G01 X49.0217 Y5.4023
G01 X47.4762 Y5.4023
G01 X47.4548 Y5.3623
G01 X49.0431 Y5.3623
G01 X49.0645 Y5.3223
G01 X47.4334 Y5.3223
G01 X47.4122 Y5.2823
G01 X49.0857 Y5.2823
G01 X49.0978 Y5.2423
G01 X47.4001 Y5.2423
G01 X47.3879 Y5.2023
G01 X49.1100 Y5.2023
G01 X49.1221 Y5.1623
G01 X47.3758 Y5.1623
G01 X47.3637 Y5.1223
G01 X49.1342 Y5.1223
G01 X49.1400 Y5.0823
G01 X47.3579 Y5.0823
G01 X47.3539 Y5.0423
G01 X49.1439 Y5.0423
G01 X49.1479 Y5.0023
G01 X47.3500 Y5.0023
G01 X47.3479 Y4.9623
G01 X49.1500 Y4.9623
G01 X49.1500 Y4.9223
G01 X47.3479 Y4.9223
G01 X47.3479 Y4.8823
G01 X49.1500 Y4.8823
G01 X49.1500 Y4.8423
G01 X47.3479 Y4.8423
G01 X47.3479 Y4.8023
G01 X49.1500 Y4.8023
G01 X49.1500 Y4.7623
G01 X47.3479 Y4.7623
G01 X47.3479 Y4.7223
G01 X49.1500 Y4.7223
G01 X49.1500 Y4.6823
G01 X47.3479 Y4.6823
G01 X47.3479 Y4.6423
G01 X49.1500 Y4.6423
G01 X49.1500 Y4.6023
G01 X47.3479 Y4.6023
G01 X47.3479 Y4.5623
G01 X49.1500 Y4.5623
G01 X49.1500 Y4.5223
G01 X47.3479 Y4.5223
G01 X47.3479 Y4.4823
G01 X49.1500 Y4.4823
G01 X49.1500 Y4.4423
G01 X47.3479 Y4.4423
G01 X47.3479 Y4.4023
G01 X49.1500 Y4.4023
G01 X49.1500 Y4.3623
G01 X47.3479 Y4.3623
G01 X47.3479 Y4.3223
G01 X49.1500 Y4.3223
G01 X49.1500 Y4.2823
G01 X47.3479 Y4.2823
G01 X47.3479 Y4.2423
G01 X49.1500 Y4.2423
G01 X49.1500 Y4.2023
G01 X47.3479 Y4.2023
G01 X47.3479 Y4.1623
G01 X49.1500 Y4.1623
G01 X49.1500 Y4.1223
G01 X47.3479 Y4.1223
G01 X47.3479 Y4.0823
G01 X49.1500 Y4.0823
G01 X49.1500 Y4.0423
G01 X47.3479 Y4.0423
G01 X47.3479 Y4.0023
G01 X49.1500 Y4.0023
G01 X49.1500 Y3.9623
G01 X47.3479 Y3.9623
G01 X47.3479 Y3.9223
G01 X49.1500 Y3.9223
G01 X49.1500 Y3.8823
G01 X47.3479 Y3.8823
G01 X47.3479 Y3.8423
G01 X49.1500 Y3.8423
G01 X49.1500 Y3.8023
G01 X47.3479 Y3.8023
G01 X47.3479 Y3.7623
G01 X49.1500 Y3.7623
G01 X49.1500 Y3.7223
G01 X47.3479 Y3.7223
G01 X47.3479 Y3.6823
G01 X49.1500 Y3.6823
G01 X49.1500 Y3.6423
G01 X47.3479 Y3.6423
G01 X47.3479 Y3.6023
G01 X49.1500 Y3.6023
G01 X49.1500 Y3.5623
G01 X47.3479 Y3.5623
G01 X47.3479 Y3.5223
G01 X49.1500 Y3.5223
G01 X49.1500 Y3.4823
G01 X47.3479 Y3.4823
G01 X47.3479 Y3.4423
G01 X49.1500 Y3.4423
G01 X49.1500 Y3.4023
G01 X47.3479 Y3.4023
G01 X47.3479 Y3.3623
G01 X49.1500 Y3.3623
G01 X49.1500 Y3.3223
G01 X47.3479 Y3.3223
G01 X47.3479 Y3.2823
G01 X49.1500 Y3.2823
G01 X49.1500 Y3.2423
G01 X47.3479 Y3.2423
G01 X47.3479 Y3.2023
G01 X49.1500 Y3.2023
G01 X49.1500 Y3.1623
G01 X47.3479 Y3.1623
G01 X47.3479 Y3.1223
G01 X49.1500 Y3.1223
G01 X49.1490 Y3.0823
G01 X47.3489 Y3.0823
G00 Z2.0000
G00 X48.1367 Y2.2423
G01 F800.00
G01 Z-0.0001
G01 F300.00
G01 X48.3612 Y2.2423
G01 X48.5365 Y2.2823
G01 X47.9613 Y2.2823
G01 X47.8610 Y2.3223
G01 X48.6368 Y2.3223
G01 X48.7117 Y2.3623
G01 X47.7862 Y2.3623
G01 X47.7234 Y2.4023
G01 X48.7745 Y2.4023
G01 X48.8232 Y2.4423
G01 X47.6747 Y2.4423
G01 X47.6259 Y2.4823
G01 X48.8719 Y2.4823
G01 X48.9104 Y2.5223
G01 X47.5875 Y2.5223
G01 X47.5547 Y2.5623
G01 X48.9432 Y2.5623
G01 X48.9761 Y2.6023
G01 X47.5218 Y2.6023
G01 X47.4915 Y2.6423
G01 X49.0064 Y2.6423
G01 X49.0278 Y2.6823
G01 X47.4701 Y2.6823
G01 X47.4487 Y2.7223
G01 X49.0492 Y2.7223
G01 X49.0705 Y2.7623
G01 X47.4273 Y2.7623
G01 X47.4088 Y2.8023
G01 X49.0891 Y2.8023
G01 X49.1012 Y2.8423
G01 X47.3966 Y2.8423
G01 X47.3845 Y2.8823
G01 X49.1134 Y2.8823
G01 X49.1255 Y2.9223
G01 X47.3724 Y2.9223
G01 X47.3609 Y2.9600
G01 X47.4125 Y2.7902
G01 X47.4961 Y2.6336
G01 X47.6087 Y2.4964
G01 X47.7459 Y2.3838
G01 X47.8891 Y2.3073
G01 X47.9025 Y2.3002
G01 X48.0723 Y2.2486
G01 X48.2489 Y2.2312
G01 X48.4256 Y2.2486
G01 X48.5954 Y2.3002
G01 X48.6088 Y2.3073
G01 X48.7520 Y2.3838
G01 X48.8892 Y2.4964
G01 X49.0018 Y2.6336
G01 X49.0854 Y2.7902
G01 X49.1370 Y2.9600
G01 X49.1500 Y3.0924
G01 X49.1500 Y4.9809
G01 X49.1370 Y5.1133
G01 X49.0854 Y5.2831
G01 X49.0018 Y5.4397
G01 X48.8892 Y5.5769
G01 X48.7520 Y5.6895
G01 X48.5954 Y5.7731
G01 X48.4256 Y5.8247
G01 X48.2489 Y5.8421
G01 X48.0723 Y5.8247
G01 X47.9025 Y5.7731
G01 X47.7459 Y5.6895
G01 X47.6087 Y5.5769
G01 X47.4961 Y5.4397
G01 X47.4125 Y5.2831
G01 X47.3609 Y5.1133
G01 X47.3479 Y4.9809
G01 X47.3479 Y3.0924
G01 X47.3609 Y2.9600
G01 X47.3607 Y2.9623
G01 X49.1372 Y2.9623
G01 X49.1411 Y3.0023
G01 X47.3568 Y3.0023
G01 X47.3528 Y3.0423
G01 X49.1451 Y3.0423
G00 Z2.0000
G00 X51.1589 Y3.0823
G01 F800.00
G01 Z-0.0001
G01 F300.00
G01 X52.9590 Y3.0823
G01 X52.9600 Y3.1223
G01 X51.1579 Y3.1223
G01 X51.1579 Y3.1623
G01 X52.9600 Y3.1623
G01 X52.9600 Y3.2023
G01 X51.1579 Y3.2023
G01 X51.1579 Y3.2423
G01 X52.9600 Y3.2423
G01 X52.9600 Y3.2823
G01 X51.1579 Y3.2823
G01 X51.1579 Y3.3223
G01 X52.9600 Y3.3223
G01 X52.9600 Y3.3623
G01 X51.1579 Y3.3623
G01 X51.1579 Y3.4023
G01 X52.9600 Y3.4023
G01 X52.9600 Y3.4423
G01 X51.1579 Y3.4423
G01 X51.1579 Y3.4823
G01 X52.9600 Y3.4823
G01 X52.9600 Y3.5223
G01 X51.1579 Y3.5223
G01 X51.1579 Y3.5623
G01 X52.9600 Y3.5623
G01 X52.9600 Y3.6023
G01 X51.1579 Y3.6023
G01 X51.1579 Y3.6423
G01 X52.9600 Y3.6423
G01 X52.9600 Y3.6823
G01 X51.1579 Y3.6823
G01 X51.1579 Y3.7223
G01 X52.9600 Y3.7223
G01 X52.9600 Y3.7623
G01 X51.1579 Y3.7623
G01 X51.1579 Y3.8023
G01 X52.9600 Y3.8023
G01 X52.9600 Y3.8423
G01 X51.1579 Y3.8423
G01 X51.1579 Y3.8823
G01 X52.9600 Y3.8823
G01 X52.9600 Y3.9223
G01 X51.1579 Y3.9223
G01 X51.1579 Y3.9623
G01 X52.9600 Y3.9623
G01 X52.9600 Y4.0023
G01 X51.1579 Y4.0023
G01 X51.1579 Y4.0423
G01 X52.9600 Y4.0423
G01 X52.9600 Y4.0823
G01 X51.1579 Y4.0823
G01 X51.1579 Y4.1223
G01 X52.9600 Y4.1223
G01 X52.9600 Y4.1623
G01 X51.1579 Y4.1623
G01 X51.1579 Y4.2023
G01 X52.9600 Y4.2023
G01 X52.9600 Y4.2423
G01 X51.1579 Y4.2423
G01 X51.1579 Y4.2823
G01 X52.9600 Y4.2823
G01 X52.9600 Y4.3223
G01 X51.1579 Y4.3223
G01 X51.1579 Y4.3623
G01 X52.9600 Y4.3623
G01 X52.9600 Y4.4023
G01 X51.1579 Y4.4023
G01 X51.1579 Y4.4423
G01 X52.9600 Y4.4423
G01 X52.9600 Y4.4823
G01 X51.1579 Y4.4823
G01 X51.1579 Y4.5223
G01 X52.9600 Y4.5223
G01 X52.9600 Y4.5623
G01 X51.1579 Y4.5623
G01 X51.1579 Y4.6023
G01 X52.9600 Y4.6023
G01 X52.9600 Y4.6423
G01 X51.1579 Y4.6423
G01 X51.1579 Y4.6823
G01 X52.9600 Y4.6823
G01 X52.9600 Y4.7223
G01 X51.1579 Y4.7223
G01 X51.1579 Y4.7623
G01 X52.9600 Y4.7623
G01 X52.9600 Y4.8023
G01 X51.1579 Y4.8023
G01 X51.1579 Y4.8423
G01 X52.9600 Y4.8423
G01 X52.9600 Y4.8823
G01 X51.1579 Y4.8823
G01 X51.1579 Y4.9223
G01 X52.9600 Y4.9223
G01 X52.9600 Y4.9623
G01 X51.1579 Y4.9623
G01 X51.1600 Y5.0023
G01 X52.9579 Y5.0023
G01 X52.9539 Y5.0423
G01 X51.1639 Y5.0423
G01 X51.1679 Y5.0823
G01 X52.9500 Y5.0823
G01 X52.9442 Y5.1223
G01 X51.1737 Y5.1223
G01 X51.1858 Y5.1623
G01 X52.9321 Y5.1623
