(G-CODE GENERATED BY FLATCAM v8.991 - www.flatcam.org - Version Date: 2019/12/27)

(Name: 03 - 1mm Endmill Mill Holes)
(Type: G-code from Geometry)
(Units: MM)

(Created on Tuesday, 10 March 2020 at 13:06)

(TOOL DIAMETER: 1.0 mm)
(Feedrate: 300.0 mm/min)
(Feedrate_Z: 400.0 mm/min)
(Feedrate rapids 1500.0 mm/min)

(Z_Cut: -1.8 mm)
(DepthPerCut: 0.9 mm <=>2 passes)
(Z_Move: 2.0 mm)
(Z Toolchange: 15.0 mm)
(X,Y Toolchange: 0.0000, 0.0000 mm)
(Z Start: None mm)
(Z End: 15.0 mm)
(Steps per circle: 64)
(Preprocessor Geometry: default)

(X range:    1.9009 ...   63.1005  mm)
(Y range:    3.9366 ...   15.3775  mm)

(Spindle Speed: 24000 RPM)
G21
G90
G94

M08


G01 F300.00
G00 Z2.0000

M03 S24000
G00 X4.1013 Y8.9992
G01 F400.00
G01 Z-0.9000
G01 F300.00
G01 X4.0960 Y8.8914
G01 X4.0802 Y8.7846
G01 X4.0540 Y8.6798
G01 X4.0176 Y8.5782
G01 X3.9714 Y8.4806
G01 X3.9159 Y8.3880
G01 X3.8516 Y8.3013
G01 X3.7791 Y8.2213
G01 X3.6991 Y8.1488
G01 X3.6124 Y8.0844
G01 X3.5198 Y8.0289
G01 X3.4222 Y7.9828
G01 X3.3205 Y7.9464
G01 X3.2158 Y7.9202
G01 X3.1090 Y7.9043
G01 X3.0011 Y7.8990
G01 X2.8933 Y7.9043
G01 X2.7865 Y7.9202
G01 X2.6818 Y7.9464
G01 X2.5801 Y7.9828
G01 X2.4825 Y8.0289
G01 X2.3899 Y8.0844
G01 X2.3032 Y8.1488
G01 X2.2232 Y8.2213
G01 X2.1507 Y8.3013
G01 X2.0864 Y8.3880
G01 X2.0309 Y8.4806
G01 X1.9847 Y8.5782
G01 X1.9483 Y8.6798
G01 X1.9221 Y8.7846
G01 X1.9062 Y8.8914
G01 X1.9009 Y8.9992
G01 X1.9062 Y9.1071
G01 X1.9221 Y9.2139
G01 X1.9483 Y9.3186
G01 X1.9847 Y9.4202
G01 X2.0309 Y9.5179
G01 X2.0864 Y9.6105
G01 X2.1507 Y9.6972
G01 X2.2232 Y9.7772
G01 X2.3032 Y9.8497
G01 X2.3899 Y9.9140
G01 X2.4825 Y9.9695
G01 X2.5801 Y10.0157
G01 X2.6818 Y10.0520
G01 X2.7865 Y10.0783
G01 X2.8933 Y10.0941
G01 X3.0011 Y10.0994
G01 X3.1090 Y10.0941
G01 X3.2158 Y10.0783
G01 X3.3205 Y10.0520
G01 X3.4222 Y10.0157
G01 X3.5198 Y9.9695
G01 X3.6124 Y9.9140
G01 X3.6991 Y9.8497
G01 X3.7791 Y9.7772
G01 X3.8516 Y9.6972
G01 X3.9159 Y9.6105
G01 X3.9714 Y9.5179
G01 X4.0176 Y9.4202
G01 X4.0540 Y9.3186
G01 X4.0802 Y9.2139
G01 X4.0960 Y9.1071
G01 X4.1013 Y8.9992
G00 X4.1013 Y8.9992
G01 F400.00
G01 Z-1.8000
G01 F300.00
G01 X4.0960 Y8.8914
G01 X4.0802 Y8.7846
G01 X4.0540 Y8.6798
G01 X4.0176 Y8.5782
G01 X3.9714 Y8.4806
G01 X3.9159 Y8.3880
G01 X3.8516 Y8.3013
G01 X3.7791 Y8.2213
G01 X3.6991 Y8.1488
G01 X3.6124 Y8.0844
G01 X3.5198 Y8.0289
G01 X3.4222 Y7.9828
G01 X3.3205 Y7.9464
G01 X3.2158 Y7.9202
G01 X3.1090 Y7.9043
G01 X3.0011 Y7.8990
G01 X2.8933 Y7.9043
G01 X2.7865 Y7.9202
G01 X2.6818 Y7.9464
G01 X2.5801 Y7.9828
G01 X2.4825 Y8.0289
G01 X2.3899 Y8.0844
G01 X2.3032 Y8.1488
G01 X2.2232 Y8.2213
G01 X2.1507 Y8.3013
G01 X2.0864 Y8.3880
G01 X2.0309 Y8.4806
G01 X1.9847 Y8.5782
G01 X1.9483 Y8.6798
G01 X1.9221 Y8.7846
G01 X1.9062 Y8.8914
G01 X1.9009 Y8.9992
G01 X1.9062 Y9.1071
G01 X1.9221 Y9.2139
G01 X1.9483 Y9.3186
G01 X1.9847 Y9.4202
G01 X2.0309 Y9.5179
G01 X2.0864 Y9.6105
G01 X2.1507 Y9.6972
G01 X2.2232 Y9.7772
G01 X2.3032 Y9.8497
G01 X2.3899 Y9.9140
G01 X2.4825 Y9.9695
G01 X2.5801 Y10.0157
G01 X2.6818 Y10.0520
G01 X2.7865 Y10.0783
G01 X2.8933 Y10.0941
G01 X3.0011 Y10.0994
G01 X3.1090 Y10.0941
G01 X3.2158 Y10.0783
G01 X3.3205 Y10.0520
G01 X3.4222 Y10.0157
G01 X3.5198 Y9.9695
G01 X3.6124 Y9.9140
G01 X3.6991 Y9.8497
G01 X3.7791 Y9.7772
G01 X3.8516 Y9.6972
G01 X3.9159 Y9.6105
G01 X3.9714 Y9.5179
G01 X4.0176 Y9.4202
G01 X4.0540 Y9.3186
G01 X4.0802 Y9.2139
G01 X4.0960 Y9.1071
G01 X4.1013 Y8.9992
G00 Z2.0000
G00 X3.4613 Y15.3772
G01 F400.00
G01 Z-0.9000
G01 F300.00
G01 X3.4609 Y15.3768
G01 X3.4605 Y15.3772
G01 X3.4609 Y15.3775
G01 X3.4613 Y15.3772
G00 X3.4613 Y15.3772
G01 F400.00
G01 Z-1.8000
G01 F300.00
G01 X3.4609 Y15.3768
G01 X3.4605 Y15.3772
G01 X3.4609 Y15.3775
G01 X3.4613 Y15.3772
G00 Z2.0000
G00 X6.0013 Y15.3772
G01 F400.00
G01 Z-0.9000
G01 F300.00
G01 X6.0009 Y15.3768
G01 X6.0005 Y15.3772
G01 X6.0009 Y15.3775
G01 X6.0013 Y15.3772
G00 X6.0013 Y15.3772
G01 F400.00
G01 Z-1.8000
G01 F300.00
G01 X6.0009 Y15.3768
G01 X6.0005 Y15.3772
G01 X6.0009 Y15.3775
G01 X6.0013 Y15.3772
G00 Z2.0000
G00 X11.6756 Y15.3772
G01 F400.00
G01 Z-0.9000
G01 F300.00
G01 X11.6752 Y15.3768
G01 X11.6749 Y15.3772
G01 X11.6752 Y15.3775
G01 X11.6756 Y15.3772
G00 X11.6756 Y15.3772
G01 F400.00
G01 Z-1.8000
G01 F300.00
G01 X11.6752 Y15.3768
G01 X11.6749 Y15.3772
G01 X11.6752 Y15.3775
G01 X11.6756 Y15.3772
G00 Z2.0000
G00 X14.2156 Y15.3772
G01 F400.00
G01 Z-0.9000
G01 F300.00
G01 X14.2152 Y15.3768
G01 X14.2149 Y15.3772
G01 X14.2152 Y15.3775
G01 X14.2156 Y15.3772
G00 X14.2156 Y15.3772
G01 F400.00
G01 Z-1.8000
G01 F300.00
G01 X14.2152 Y15.3768
G01 X14.2149 Y15.3772
G01 X14.2152 Y15.3775
G01 X14.2156 Y15.3772
G00 Z2.0000
G00 X24.7160 Y15.3772
G01 F400.00
G01 Z-0.9000
G01 F300.00
G01 X24.7156 Y15.3768
G01 X24.7152 Y15.3772
G01 X24.7156 Y15.3775
G01 X24.7160 Y15.3772
G00 X24.7160 Y15.3772
G01 F400.00
G01 Z-1.8000
G01 F300.00
G01 X24.7156 Y15.3768
G01 X24.7152 Y15.3772
G01 X24.7156 Y15.3775
G01 X24.7160 Y15.3772
G00 Z2.0000
G00 X27.2560 Y15.3772
G01 F400.00
G01 Z-0.9000
G01 F300.00
G01 X27.2556 Y15.3768
G01 X27.2552 Y15.3772
G01 X27.2556 Y15.3775
G01 X27.2560 Y15.3772
G00 X27.2560 Y15.3772
G01 F400.00
G01 Z-1.8000
G01 F300.00
G01 X27.2556 Y15.3768
G01 X27.2552 Y15.3772
G01 X27.2556 Y15.3775
G01 X27.2560 Y15.3772
G00 Z2.0000
G00 X37.7563 Y15.3772
G01 F400.00
G01 Z-0.9000
G01 F300.00
G01 X37.7560 Y15.3768
G01 X37.7556 Y15.3772
G01 X37.7560 Y15.3775
G01 X37.7563 Y15.3772
G00 X37.7563 Y15.3772
G01 F400.00
G01 Z-1.8000
G01 F300.00
G01 X37.7560 Y15.3768
G01 X37.7556 Y15.3772
G01 X37.7560 Y15.3775
G01 X37.7563 Y15.3772
G00 Z2.0000
G00 X40.2963 Y15.3772
G01 F400.00
G01 Z-0.9000
G01 F300.00
G01 X40.2960 Y15.3768
G01 X40.2956 Y15.3772
G01 X40.2960 Y15.3775
G01 X40.2963 Y15.3772
G00 X40.2963 Y15.3772
G01 F400.00
G01 Z-1.8000
G01 F300.00
G01 X40.2960 Y15.3768
G01 X40.2956 Y15.3772
G01 X40.2960 Y15.3775
G01 X40.2963 Y15.3772
G00 Z2.0000
G00 X50.7967 Y15.3772
G01 F400.00
G01 Z-0.9000
G01 F300.00
G01 X50.7963 Y15.3768
G01 X50.7959 Y15.3772
G01 X50.7963 Y15.3775
G01 X50.7967 Y15.3772
G00 X50.7967 Y15.3772
G01 F400.00
G01 Z-1.8000
G01 F300.00
G01 X50.7963 Y15.3768
G01 X50.7959 Y15.3772
G01 X50.7963 Y15.3775
G01 X50.7967 Y15.3772
G00 Z2.0000
G00 X53.3367 Y15.3772
G01 F400.00
G01 Z-0.9000
G01 F300.00
G01 X53.3363 Y15.3768
G01 X53.3359 Y15.3772
G01 X53.3363 Y15.3775
G01 X53.3367 Y15.3772
G00 X53.3367 Y15.3772
G01 F400.00
G01 Z-1.8000
G01 F300.00
G01 X53.3363 Y15.3768
G01 X53.3359 Y15.3772
G01 X53.3363 Y15.3775
G01 X53.3367 Y15.3772
G00 Z2.0000
G00 X52.1581 Y4.0361
G01 F400.00
G01 Z-0.9000
G01 F300.00
G01 X52.1577 Y4.0263
G01 X52.1562 Y4.0167
G01 X52.1539 Y4.0072
G01 X52.1506 Y3.9980
G01 X52.1464 Y3.9892
G01 X52.1414 Y3.9808
G01 X52.1356 Y3.9730
G01 X52.1290 Y3.9657
G01 X52.1218 Y3.9592
G01 X52.1139 Y3.9534
G01 X52.1056 Y3.9484
G01 X52.0968 Y3.9442
G01 X52.0876 Y3.9409
G01 X52.0781 Y3.9385
G01 X52.0684 Y3.9371
G01 X52.0587 Y3.9366
G01 X52.0490 Y3.9371
G01 X52.0393 Y3.9385
G01 X52.0298 Y3.9409
G01 X52.0206 Y3.9442
G01 X52.0118 Y3.9484
G01 X52.0035 Y3.9534
G01 X51.9956 Y3.9592
G01 X51.9884 Y3.9657
G01 X51.9818 Y3.9730
G01 X51.9760 Y3.9808
G01 X51.9710 Y3.9892
G01 X51.9668 Y3.9980
G01 X51.9635 Y4.0072
G01 X51.9612 Y4.0167
G01 X51.9597 Y4.0263
G01 X51.9593 Y4.0361
G01 X51.9597 Y4.0458
G01 X51.9612 Y4.0555
G01 X51.9635 Y4.0649
G01 X51.9668 Y4.0741
G01 X51.9710 Y4.0829
G01 X51.9760 Y4.0913
G01 X51.9818 Y4.0991
G01 X51.9884 Y4.1064
G01 X51.9956 Y4.1129
G01 X52.0035 Y4.1187
G01 X52.0118 Y4.1238
G01 X52.0206 Y4.1279
G01 X52.0298 Y4.1312
G01 X52.0393 Y4.1336
G01 X52.0490 Y4.1350
G01 X52.0587 Y4.1355
G01 X52.0684 Y4.1350
G01 X52.0781 Y4.1336
G01 X52.0876 Y4.1312
G01 X52.0968 Y4.1279
G01 X52.1056 Y4.1238
G01 X52.1139 Y4.1187
G01 X52.1218 Y4.1129
G01 X52.1290 Y4.1064
G01 X52.1356 Y4.0991
G01 X52.1414 Y4.0913
G01 X52.1464 Y4.0829
G01 X52.1506 Y4.0741
G01 X52.1539 Y4.0649
G01 X52.1562 Y4.0555
G01 X52.1577 Y4.0458
G01 X52.1581 Y4.0361
G00 X52.1581 Y4.0361
G01 F400.00
G01 Z-1.8000
G01 F300.00
G01 X52.1577 Y4.0263
G01 X52.1562 Y4.0167
G01 X52.1539 Y4.0072
G01 X52.1506 Y3.9980
G01 X52.1464 Y3.9892
G01 X52.1414 Y3.9808
G01 X52.1356 Y3.9730
G01 X52.1290 Y3.9657
G01 X52.1218 Y3.9592
G01 X52.1139 Y3.9534
G01 X52.1056 Y3.9484
G01 X52.0968 Y3.9442
G01 X52.0876 Y3.9409
G01 X52.0781 Y3.9385
G01 X52.0684 Y3.9371
G01 X52.0587 Y3.9366
G01 X52.0490 Y3.9371
G01 X52.0393 Y3.9385
G01 X52.0298 Y3.9409
G01 X52.0206 Y3.9442
G01 X52.0118 Y3.9484
G01 X52.0035 Y3.9534
G01 X51.9956 Y3.9592
G01 X51.9884 Y3.9657
G01 X51.9818 Y3.9730
G01 X51.9760 Y3.9808
G01 X51.9710 Y3.9892
G01 X51.9668 Y3.9980
G01 X51.9635 Y4.0072
G01 X51.9612 Y4.0167
G01 X51.9597 Y4.0263
G01 X51.9593 Y4.0361
G01 X51.9597 Y4.0458
G01 X51.9612 Y4.0555
G01 X51.9635 Y4.0649
G01 X51.9668 Y4.0741
G01 X51.9710 Y4.0829
G01 X51.9760 Y4.0913
G01 X51.9818 Y4.0991
G01 X51.9884 Y4.1064
G01 X51.9956 Y4.1129
G01 X52.0035 Y4.1187
G01 X52.0118 Y4.1238
G01 X52.0206 Y4.1279
G01 X52.0298 Y4.1312
G01 X52.0393 Y4.1336
G01 X52.0490 Y4.1350
G01 X52.0587 Y4.1355
G01 X52.0684 Y4.1350
G01 X52.0781 Y4.1336
G01 X52.0876 Y4.1312
G01 X52.0968 Y4.1279
G01 X52.1056 Y4.1238
G01 X52.1139 Y4.1187
G01 X52.1218 Y4.1129
G01 X52.1290 Y4.1064
G01 X52.1356 Y4.0991
G01 X52.1414 Y4.0913
G01 X52.1464 Y4.0829
G01 X52.1506 Y4.0741
G01 X52.1539 Y4.0649
G01 X52.1562 Y4.0555
G01 X52.1577 Y4.0458
G01 X52.1581 Y4.0361
G00 Z2.0000
G00 X55.9681 Y4.0361
G01 F400.00
G01 Z-0.9000
G01 F300.00
G01 X55.9677 Y4.0263
G01 X55.9662 Y4.0167
G01 X55.9639 Y4.0072
G01 X55.9606 Y3.9980
G01 X55.9564 Y3.9892
G01 X55.9514 Y3.9808
G01 X55.9456 Y3.9730
G01 X55.9390 Y3.9657
G01 X55.9318 Y3.9592
G01 X55.9239 Y3.9534
G01 X55.9156 Y3.9484
G01 X55.9068 Y3.9442
G01 X55.8976 Y3.9409
G01 X55.8881 Y3.9385
G01 X55.8784 Y3.9371
G01 X55.8687 Y3.9366
G01 X55.8590 Y3.9371
G01 X55.8493 Y3.9385
G01 X55.8398 Y3.9409
G01 X55.8306 Y3.9442
G01 X55.8218 Y3.9484
G01 X55.8135 Y3.9534
G01 X55.8056 Y3.9592
G01 X55.7984 Y3.9657
G01 X55.7918 Y3.9730
G01 X55.7860 Y3.9808
G01 X55.7810 Y3.9892
G01 X55.7768 Y3.9980
G01 X55.7735 Y4.0072
G01 X55.7712 Y4.0167
G01 X55.7697 Y4.0263
G01 X55.7693 Y4.0361
G01 X55.7697 Y4.0458
G01 X55.7712 Y4.0555
G01 X55.7735 Y4.0649
G01 X55.7768 Y4.0741
G01 X55.7810 Y4.0829
G01 X55.7860 Y4.0913
G01 X55.7918 Y4.0991
G01 X55.7984 Y4.1064
G01 X55.8056 Y4.1129
G01 X55.8135 Y4.1187
G01 X55.8218 Y4.1238
G01 X55.8306 Y4.1279
G01 X55.8398 Y4.1312
G01 X55.8493 Y4.1336
G01 X55.8590 Y4.1350
G01 X55.8687 Y4.1355
G01 X55.8784 Y4.1350
G01 X55.8881 Y4.1336
G01 X55.8976 Y4.1312
G01 X55.9068 Y4.1279
G01 X55.9156 Y4.1238
G01 X55.9239 Y4.1187
G01 X55.9318 Y4.1129
G01 X55.9390 Y4.1064
G01 X55.9456 Y4.0991
G01 X55.9514 Y4.0913
G01 X55.9564 Y4.0829
G01 X55.9606 Y4.0741
G01 X55.9639 Y4.0649
G01 X55.9662 Y4.0555
G01 X55.9677 Y4.0458
G01 X55.9681 Y4.0361
G00 X55.9681 Y4.0361
G01 F400.00
G01 Z-1.8000
G01 F300.00
G01 X55.9677 Y4.0263
G01 X55.9662 Y4.0167
G01 X55.9639 Y4.0072
G01 X55.9606 Y3.9980
G01 X55.9564 Y3.9892
G01 X55.9514 Y3.9808
G01 X55.9456 Y3.9730
G01 X55.9390 Y3.9657
G01 X55.9318 Y3.9592
G01 X55.9239 Y3.9534
G01 X55.9156 Y3.9484
G01 X55.9068 Y3.9442
G01 X55.8976 Y3.9409
G01 X55.8881 Y3.9385
G01 X55.8784 Y3.9371
G01 X55.8687 Y3.9366
G01 X55.8590 Y3.9371
G01 X55.8493 Y3.9385
G01 X55.8398 Y3.9409
G01 X55.8306 Y3.9442
G01 X55.8218 Y3.9484
G01 X55.8135 Y3.9534
G01 X55.8056 Y3.9592
G01 X55.7984 Y3.9657
G01 X55.7918 Y3.9730
G01 X55.7860 Y3.9808
G01 X55.7810 Y3.9892
G01 X55.7768 Y3.9980
G01 X55.7735 Y4.0072
G01 X55.7712 Y4.0167
G01 X55.7697 Y4.0263
G01 X55.7693 Y4.0361
G01 X55.7697 Y4.0458
G01 X55.7712 Y4.0555
G01 X55.7735 Y4.0649
G01 X55.7768 Y4.0741
G01 X55.7810 Y4.0829
G01 X55.7860 Y4.0913
G01 X55.7918 Y4.0991
G01 X55.7984 Y4.1064
G01 X55.8056 Y4.1129
G01 X55.8135 Y4.1187
G01 X55.8218 Y4.1238
G01 X55.8306 Y4.1279
G01 X55.8398 Y4.1312
G01 X55.8493 Y4.1336
G01 X55.8590 Y4.1350
G01 X55.8687 Y4.1355
G01 X55.8784 Y4.1350
G01 X55.8881 Y4.1336
G01 X55.8976 Y4.1312
G01 X55.9068 Y4.1279
G01 X55.9156 Y4.1238
G01 X55.9239 Y4.1187
G01 X55.9318 Y4.1129
G01 X55.9390 Y4.1064
G01 X55.9456 Y4.0991
G01 X55.9514 Y4.0913
G01 X55.9564 Y4.0829
G01 X55.9606 Y4.0741
G01 X55.9639 Y4.0649
G01 X55.9662 Y4.0555
G01 X55.9677 Y4.0458
G01 X55.9681 Y4.0361
G00 Z2.0000
G00 X48.3481 Y4.0361
G01 F400.00
G01 Z-0.9000
G01 F300.00
G01 X48.3477 Y4.0263
G01 X48.3462 Y4.0167
G01 X48.3439 Y4.0072
G01 X48.3406 Y3.9980
G01 X48.3364 Y3.9892
G01 X48.3314 Y3.9808
G01 X48.3256 Y3.9730
G01 X48.3190 Y3.9657
G01 X48.3118 Y3.9592
G01 X48.3039 Y3.9534
G01 X48.2956 Y3.9484
G01 X48.2868 Y3.9442
G01 X48.2776 Y3.9409
G01 X48.2681 Y3.9385
G01 X48.2584 Y3.9371
G01 X48.2487 Y3.9366
G01 X48.2390 Y3.9371
G01 X48.2293 Y3.9385
G01 X48.2198 Y3.9409
G01 X48.2106 Y3.9442
G01 X48.2018 Y3.9484
G01 X48.1935 Y3.9534
G01 X48.1856 Y3.9592
G01 X48.1784 Y3.9657
G01 X48.1718 Y3.9730
G01 X48.1660 Y3.9808
G01 X48.1610 Y3.9892
G01 X48.1568 Y3.9980
G01 X48.1535 Y4.0072
G01 X48.1512 Y4.0167
G01 X48.1497 Y4.0263
G01 X48.1493 Y4.0361
G01 X48.1497 Y4.0458
G01 X48.1512 Y4.0555
G01 X48.1535 Y4.0649
G01 X48.1568 Y4.0741
G01 X48.1610 Y4.0829
G01 X48.1660 Y4.0913
G01 X48.1718 Y4.0991
G01 X48.1784 Y4.1064
G01 X48.1856 Y4.1129
G01 X48.1935 Y4.1187
G01 X48.2018 Y4.1238
G01 X48.2106 Y4.1279
G01 X48.2198 Y4.1312
G01 X48.2293 Y4.1336
G01 X48.2390 Y4.1350
G01 X48.2487 Y4.1355
G01 X48.2584 Y4.1350
G01 X48.2681 Y4.1336
G01 X48.2776 Y4.1312
G01 X48.2868 Y4.1279
G01 X48.2956 Y4.1238
G01 X48.3039 Y4.1187
G01 X48.3118 Y4.1129
G01 X48.3190 Y4.1064
G01 X48.3256 Y4.0991
G01 X48.3314 Y4.0913
G01 X48.3364 Y4.0829
G01 X48.3406 Y4.0741
G01 X48.3439 Y4.0649
G01 X48.3462 Y4.0555
G01 X48.3477 Y4.0458
G01 X48.3481 Y4.0361
G00 X48.3481 Y4.0361
G01 F400.00
G01 Z-1.8000
G01 F300.00
G01 X48.3477 Y4.0263
G01 X48.3462 Y4.0167
G01 X48.3439 Y4.0072
G01 X48.3406 Y3.9980
G01 X48.3364 Y3.9892
G01 X48.3314 Y3.9808
G01 X48.3256 Y3.9730
G01 X48.3190 Y3.9657
G01 X48.3118 Y3.9592
G01 X48.3039 Y3.9534
G01 X48.2956 Y3.9484
G01 X48.2868 Y3.9442
G01 X48.2776 Y3.9409
G01 X48.2681 Y3.9385
G01 X48.2584 Y3.9371
G01 X48.2487 Y3.9366
G01 X48.2390 Y3.9371
G01 X48.2293 Y3.9385
G01 X48.2198 Y3.9409
G01 X48.2106 Y3.9442
G01 X48.2018 Y3.9484
G01 X48.1935 Y3.9534
G01 X48.1856 Y3.9592
G01 X48.1784 Y3.9657
G01 X48.1718 Y3.9730
G01 X48.1660 Y3.9808
G01 X48.1610 Y3.9892
G01 X48.1568 Y3.9980
G01 X48.1535 Y4.0072
G01 X48.1512 Y4.0167
G01 X48.1497 Y4.0263
G01 X48.1493 Y4.0361
G01 X48.1497 Y4.0458
G01 X48.1512 Y4.0555
G01 X48.1535 Y4.0649
G01 X48.1568 Y4.0741
G01 X48.1610 Y4.0829
G01 X48.1660 Y4.0913
G01 X48.1718 Y4.0991
G01 X48.1784 Y4.1064
G01 X48.1856 Y4.1129
G01 X48.1935 Y4.1187
G01 X48.2018 Y4.1238
G01 X48.2106 Y4.1279
G01 X48.2198 Y4.1312
G01 X48.2293 Y4.1336
G01 X48.2390 Y4.1350
G01 X48.2487 Y4.1355
G01 X48.2584 Y4.1350
G01 X48.2681 Y4.1336
G01 X48.2776 Y4.1312
G01 X48.2868 Y4.1279
G01 X48.2956 Y4.1238
G01 X48.3039 Y4.1187
G01 X48.3118 Y4.1129
G01 X48.3190 Y4.1064
G01 X48.3256 Y4.0991
G01 X48.3314 Y4.0913
G01 X48.3364 Y4.0829
G01 X48.3406 Y4.0741
G01 X48.3439 Y4.0649
G01 X48.3462 Y4.0555
G01 X48.3477 Y4.0458
G01 X48.3481 Y4.0361
G00 Z2.0000
G00 X42.9278 Y4.0361
G01 F400.00
G01 Z-0.9000
G01 F300.00
G01 X42.9273 Y4.0263
G01 X42.9259 Y4.0167
G01 X42.9235 Y4.0072
G01 X42.9202 Y3.9980
G01 X42.9160 Y3.9892
G01 X42.9110 Y3.9808
G01 X42.9052 Y3.9730
G01 X42.8987 Y3.9657
G01 X42.8914 Y3.9592
G01 X42.8836 Y3.9534
G01 X42.8752 Y3.9484
G01 X42.8664 Y3.9442
G01 X42.8572 Y3.9409
G01 X42.8477 Y3.9385
G01 X42.8381 Y3.9371
G01 X42.8283 Y3.9366
G01 X42.8186 Y3.9371
G01 X42.8089 Y3.9385
G01 X42.7995 Y3.9409
G01 X42.7903 Y3.9442
G01 X42.7815 Y3.9484
G01 X42.7731 Y3.9534
G01 X42.7653 Y3.9592
G01 X42.7580 Y3.9657
G01 X42.7515 Y3.9730
G01 X42.7457 Y3.9808
G01 X42.7406 Y3.9892
G01 X42.7365 Y3.9980
G01 X42.7332 Y4.0072
G01 X42.7308 Y4.0167
G01 X42.7294 Y4.0263
G01 X42.7289 Y4.0361
G01 X42.7294 Y4.0458
G01 X42.7308 Y4.0555
G01 X42.7332 Y4.0649
G01 X42.7365 Y4.0741
G01 X42.7406 Y4.0829
G01 X42.7457 Y4.0913
G01 X42.7515 Y4.0991
G01 X42.7580 Y4.1064
G01 X42.7653 Y4.1129
G01 X42.7731 Y4.1187
G01 X42.7815 Y4.1238
G01 X42.7903 Y4.1279
G01 X42.7995 Y4.1312
G01 X42.8089 Y4.1336
G01 X42.8186 Y4.1350
G01 X42.8283 Y4.1355
G01 X42.8381 Y4.1350
G01 X42.8477 Y4.1336
G01 X42.8572 Y4.1312
G01 X42.8664 Y4.1279
G01 X42.8752 Y4.1238
G01 X42.8836 Y4.1187
G01 X42.8914 Y4.1129
G01 X42.8987 Y4.1064
G01 X42.9052 Y4.0991
G01 X42.9110 Y4.0913
G01 X42.9160 Y4.0829
G01 X42.9202 Y4.0741
G01 X42.9235 Y4.0649
G01 X42.9259 Y4.0555
G01 X42.9273 Y4.0458
G01 X42.9278 Y4.0361
G00 X42.9278 Y4.0361
G01 F400.00
G01 Z-1.8000
G01 F300.00
G01 X42.9273 Y4.0263
G01 X42.9259 Y4.0167
G01 X42.9235 Y4.0072
G01 X42.9202 Y3.9980
G01 X42.9160 Y3.9892
G01 X42.9110 Y3.9808
G01 X42.9052 Y3.9730
G01 X42.8987 Y3.9657
G01 X42.8914 Y3.9592
G01 X42.8836 Y3.9534
G01 X42.8752 Y3.9484
G01 X42.8664 Y3.9442
G01 X42.8572 Y3.9409
G01 X42.8477 Y3.9385
G01 X42.8381 Y3.9371
G01 X42.8283 Y3.9366
G01 X42.8186 Y3.9371
G01 X42.8089 Y3.9385
G01 X42.7995 Y3.9409
G01 X42.7903 Y3.9442
G01 X42.7815 Y3.9484
G01 X42.7731 Y3.9534
G01 X42.7653 Y3.9592
G01 X42.7580 Y3.9657
G01 X42.7515 Y3.9730
G01 X42.7457 Y3.9808
G01 X42.7406 Y3.9892
G01 X42.7365 Y3.9980
G01 X42.7332 Y4.0072
G01 X42.7308 Y4.0167
G01 X42.7294 Y4.0263
G01 X42.7289 Y4.0361
G01 X42.7294 Y4.0458
G01 X42.7308 Y4.0555
G01 X42.7332 Y4.0649
G01 X42.7365 Y4.0741
G01 X42.7406 Y4.0829
G01 X42.7457 Y4.0913
G01 X42.7515 Y4.0991
G01 X42.7580 Y4.1064
G01 X42.7653 Y4.1129
G01 X42.7731 Y4.1187
G01 X42.7815 Y4.1238
G01 X42.7903 Y4.1279
G01 X42.7995 Y4.1312
G01 X42.8089 Y4.1336
G01 X42.8186 Y4.1350
G01 X42.8283 Y4.1355
G01 X42.8381 Y4.1350
G01 X42.8477 Y4.1336
G01 X42.8572 Y4.1312
G01 X42.8664 Y4.1279
G01 X42.8752 Y4.1238
G01 X42.8836 Y4.1187
G01 X42.8914 Y4.1129
G01 X42.8987 Y4.1064
G01 X42.9052 Y4.0991
G01 X42.9110 Y4.0913
G01 X42.9160 Y4.0829
G01 X42.9202 Y4.0741
G01 X42.9235 Y4.0649
G01 X42.9259 Y4.0555
G01 X42.9273 Y4.0458
G01 X42.9278 Y4.0361
G00 Z2.0000
G00 X39.1178 Y4.0361
G01 F400.00
G01 Z-0.9000
G01 F300.00
G01 X39.1173 Y4.0263
G01 X39.1159 Y4.0167
G01 X39.1135 Y4.0072
G01 X39.1102 Y3.9980
G01 X39.1060 Y3.9892
G01 X39.1010 Y3.9808
G01 X39.0952 Y3.9730
G01 X39.0887 Y3.9657
G01 X39.0814 Y3.9592
G01 X39.0736 Y3.9534
G01 X39.0652 Y3.9484
G01 X39.0564 Y3.9442
G01 X39.0472 Y3.9409
G01 X39.0377 Y3.9385
G01 X39.0281 Y3.9371
G01 X39.0183 Y3.9366
G01 X39.0086 Y3.9371
G01 X38.9989 Y3.9385
G01 X38.9895 Y3.9409
G01 X38.9803 Y3.9442
G01 X38.9715 Y3.9484
G01 X38.9631 Y3.9534
G01 X38.9553 Y3.9592
G01 X38.9480 Y3.9657
G01 X38.9415 Y3.9730
G01 X38.9357 Y3.9808
G01 X38.9306 Y3.9892
G01 X38.9265 Y3.9980
G01 X38.9232 Y4.0072
G01 X38.9208 Y4.0167
G01 X38.9194 Y4.0263
G01 X38.9189 Y4.0361
G01 X38.9194 Y4.0458
G01 X38.9208 Y4.0555
G01 X38.9232 Y4.0649
G01 X38.9265 Y4.0741
G01 X38.9306 Y4.0829
G01 X38.9357 Y4.0913
G01 X38.9415 Y4.0991
G01 X38.9480 Y4.1064
G01 X38.9553 Y4.1129
G01 X38.9631 Y4.1187
G01 X38.9715 Y4.1238
G01 X38.9803 Y4.1279
G01 X38.9895 Y4.1312
G01 X38.9989 Y4.1336
G01 X39.0086 Y4.1350
G01 X39.0183 Y4.1355
G01 X39.0281 Y4.1350
G01 X39.0377 Y4.1336
G01 X39.0472 Y4.1312
G01 X39.0564 Y4.1279
G01 X39.0652 Y4.1238
G01 X39.0736 Y4.1187
G01 X39.0814 Y4.1129
G01 X39.0887 Y4.1064
G01 X39.0952 Y4.0991
G01 X39.1010 Y4.0913
G01 X39.1060 Y4.0829
G01 X39.1102 Y4.0741
G01 X39.1135 Y4.0649
G01 X39.1159 Y4.0555
G01 X39.1173 Y4.0458
G01 X39.1178 Y4.0361
G00 X39.1178 Y4.0361
G01 F400.00
G01 Z-1.8000
G01 F300.00
G01 X39.1173 Y4.0263
G01 X39.1159 Y4.0167
G01 X39.1135 Y4.0072
G01 X39.1102 Y3.9980
G01 X39.1060 Y3.9892
G01 X39.1010 Y3.9808
G01 X39.0952 Y3.9730
G01 X39.0887 Y3.9657
G01 X39.0814 Y3.9592
G01 X39.0736 Y3.9534
G01 X39.0652 Y3.9484
G01 X39.0564 Y3.9442
G01 X39.0472 Y3.9409
G01 X39.0377 Y3.9385
G01 X39.0281 Y3.9371
G01 X39.0183 Y3.9366
G01 X39.0086 Y3.9371
G01 X38.9989 Y3.9385
G01 X38.9895 Y3.9409
G01 X38.9803 Y3.9442
G01 X38.9715 Y3.9484
G01 X38.9631 Y3.9534
G01 X38.9553 Y3.9592
G01 X38.9480 Y3.9657
G01 X38.9415 Y3.9730
G01 X38.9357 Y3.9808
G01 X38.9306 Y3.9892
G01 X38.9265 Y3.9980
G01 X38.9232 Y4.0072
G01 X38.9208 Y4.0167
G01 X38.9194 Y4.0263
G01 X38.9189 Y4.0361
G01 X38.9194 Y4.0458
G01 X38.9208 Y4.0555
G01 X38.9232 Y4.0649
G01 X38.9265 Y4.0741
G01 X38.9306 Y4.0829
G01 X38.9357 Y4.0913
G01 X38.9415 Y4.0991
G01 X38.9480 Y4.1064
G01 X38.9553 Y4.1129
G01 X38.9631 Y4.1187
G01 X38.9715 Y4.1238
G01 X38.9803 Y4.1279
G01 X38.9895 Y4.1312
G01 X38.9989 Y4.1336
G01 X39.0086 Y4.1350
G01 X39.0183 Y4.1355
G01 X39.0281 Y4.1350
G01 X39.0377 Y4.1336
G01 X39.0472 Y4.1312
G01 X39.0564 Y4.1279
G01 X39.0652 Y4.1238
G01 X39.0736 Y4.1187
G01 X39.0814 Y4.1129
G01 X39.0887 Y4.1064
G01 X39.0952 Y4.0991
G01 X39.1010 Y4.0913
G01 X39.1060 Y4.0829
G01 X39.1102 Y4.0741
G01 X39.1135 Y4.0649
G01 X39.1159 Y4.0555
G01 X39.1173 Y4.0458
G01 X39.1178 Y4.0361
G00 Z2.0000
G00 X35.3078 Y4.0361
G01 F400.00
G01 Z-0.9000
G01 F300.00
G01 X35.3073 Y4.0263
G01 X35.3059 Y4.0167
G01 X35.3035 Y4.0072
G01 X35.3002 Y3.9980
G01 X35.2960 Y3.9892
G01 X35.2910 Y3.9808
G01 X35.2852 Y3.9730
G01 X35.2787 Y3.9657
G01 X35.2714 Y3.9592
G01 X35.2636 Y3.9534
G01 X35.2552 Y3.9484
G01 X35.2464 Y3.9442
G01 X35.2372 Y3.9409
G01 X35.2277 Y3.9385
G01 X35.2181 Y3.9371
G01 X35.2083 Y3.9366
G01 X35.1986 Y3.9371
G01 X35.1889 Y3.9385
G01 X35.1795 Y3.9409
G01 X35.1703 Y3.9442
G01 X35.1615 Y3.9484
G01 X35.1531 Y3.9534
G01 X35.1453 Y3.9592
G01 X35.1380 Y3.9657
G01 X35.1315 Y3.9730
G01 X35.1257 Y3.9808
G01 X35.1206 Y3.9892
G01 X35.1165 Y3.9980
G01 X35.1132 Y4.0072
G01 X35.1108 Y4.0167
G01 X35.1094 Y4.0263
G01 X35.1089 Y4.0361
G01 X35.1094 Y4.0458
G01 X35.1108 Y4.0555
G01 X35.1132 Y4.0649
G01 X35.1165 Y4.0741
G01 X35.1206 Y4.0829
G01 X35.1257 Y4.0913
G01 X35.1315 Y4.0991
G01 X35.1380 Y4.1064
G01 X35.1453 Y4.1129
G01 X35.1531 Y4.1187
G01 X35.1615 Y4.1238
G01 X35.1703 Y4.1279
G01 X35.1795 Y4.1312
G01 X35.1889 Y4.1336
G01 X35.1986 Y4.1350
G01 X35.2083 Y4.1355
G01 X35.2181 Y4.1350
G01 X35.2277 Y4.1336
G01 X35.2372 Y4.1312
G01 X35.2464 Y4.1279
G01 X35.2552 Y4.1238
G01 X35.2636 Y4.1187
G01 X35.2714 Y4.1129
G01 X35.2787 Y4.1064
G01 X35.2852 Y4.0991
G01 X35.2910 Y4.0913
G01 X35.2960 Y4.0829
G01 X35.3002 Y4.0741
G01 X35.3035 Y4.0649
G01 X35.3059 Y4.0555
G01 X35.3073 Y4.0458
G01 X35.3078 Y4.0361
G00 X35.3078 Y4.0361
G01 F400.00
G01 Z-1.8000
G01 F300.00
G01 X35.3073 Y4.0263
G01 X35.3059 Y4.0167
G01 X35.3035 Y4.0072
G01 X35.3002 Y3.9980
G01 X35.2960 Y3.9892
G01 X35.2910 Y3.9808
G01 X35.2852 Y3.9730
G01 X35.2787 Y3.9657
G01 X35.2714 Y3.9592
G01 X35.2636 Y3.9534
G01 X35.2552 Y3.9484
G01 X35.2464 Y3.9442
G01 X35.2372 Y3.9409
G01 X35.2277 Y3.9385
G01 X35.2181 Y3.9371
G01 X35.2083 Y3.9366
G01 X35.1986 Y3.9371
G01 X35.1889 Y3.9385
G01 X35.1795 Y3.9409
G01 X35.1703 Y3.9442
G01 X35.1615 Y3.9484
G01 X35.1531 Y3.9534
G01 X35.1453 Y3.9592
G01 X35.1380 Y3.9657
G01 X35.1315 Y3.9730
G01 X35.1257 Y3.9808
G01 X35.1206 Y3.9892
G01 X35.1165 Y3.9980
G01 X35.1132 Y4.0072
G01 X35.1108 Y4.0167
G01 X35.1094 Y4.0263
G01 X35.1089 Y4.0361
G01 X35.1094 Y4.0458
G01 X35.1108 Y4.0555
G01 X35.1132 Y4.0649
G01 X35.1165 Y4.0741
G01 X35.1206 Y4.0829
G01 X35.1257 Y4.0913
G01 X35.1315 Y4.0991
G01 X35.1380 Y4.1064
G01 X35.1453 Y4.1129
G01 X35.1531 Y4.1187
G01 X35.1615 Y4.1238
G01 X35.1703 Y4.1279
G01 X35.1795 Y4.1312
G01 X35.1889 Y4.1336
G01 X35.1986 Y4.1350
G01 X35.2083 Y4.1355
G01 X35.2181 Y4.1350
G01 X35.2277 Y4.1336
G01 X35.2372 Y4.1312
G01 X35.2464 Y4.1279
G01 X35.2552 Y4.1238
G01 X35.2636 Y4.1187
G01 X35.2714 Y4.1129
G01 X35.2787 Y4.1064
G01 X35.2852 Y4.0991
G01 X35.2910 Y4.0913
G01 X35.2960 Y4.0829
G01 X35.3002 Y4.0741
G01 X35.3035 Y4.0649
G01 X35.3059 Y4.0555
G01 X35.3073 Y4.0458
G01 X35.3078 Y4.0361
G00 Z2.0000
G00 X29.8874 Y4.0361
G01 F400.00
G01 Z-0.9000
G01 F300.00
G01 X29.8869 Y4.0263
G01 X29.8855 Y4.0167
G01 X29.8831 Y4.0072
G01 X29.8799 Y3.9980
G01 X29.8757 Y3.9892
G01 X29.8707 Y3.9808
G01 X29.8648 Y3.9730
G01 X29.8583 Y3.9657
G01 X29.8511 Y3.9592
G01 X29.8432 Y3.9534
G01 X29.8349 Y3.9484
G01 X29.8260 Y3.9442
G01 X29.8168 Y3.9409
G01 X29.8074 Y3.9385
G01 X29.7977 Y3.9371
G01 X29.7880 Y3.9366
G01 X29.7782 Y3.9371
G01 X29.7686 Y3.9385
G01 X29.7591 Y3.9409
G01 X29.7499 Y3.9442
G01 X29.7411 Y3.9484
G01 X29.7327 Y3.9534
G01 X29.7249 Y3.9592
G01 X29.7177 Y3.9657
G01 X29.7111 Y3.9730
G01 X29.7053 Y3.9808
G01 X29.7003 Y3.9892
G01 X29.6961 Y3.9980
G01 X29.6928 Y4.0072
G01 X29.6905 Y4.0167
G01 X29.6890 Y4.0263
G01 X29.6885 Y4.0361
G01 X29.6890 Y4.0458
G01 X29.6905 Y4.0555
G01 X29.6928 Y4.0649
G01 X29.6961 Y4.0741
G01 X29.7003 Y4.0829
G01 X29.7053 Y4.0913
G01 X29.7111 Y4.0991
G01 X29.7177 Y4.1064
G01 X29.7249 Y4.1129
G01 X29.7327 Y4.1187
G01 X29.7411 Y4.1238
G01 X29.7499 Y4.1279
G01 X29.7591 Y4.1312
G01 X29.7686 Y4.1336
G01 X29.7782 Y4.1350
G01 X29.7880 Y4.1355
G01 X29.7977 Y4.1350
G01 X29.8074 Y4.1336
G01 X29.8168 Y4.1312
G01 X29.8260 Y4.1279
G01 X29.8349 Y4.1238
G01 X29.8432 Y4.1187
G01 X29.8511 Y4.1129
G01 X29.8583 Y4.1064
G01 X29.8648 Y4.0991
G01 X29.8707 Y4.0913
G01 X29.8757 Y4.0829
G01 X29.8799 Y4.0741
G01 X29.8831 Y4.0649
G01 X29.8855 Y4.0555
G01 X29.8869 Y4.0458
G01 X29.8874 Y4.0361
G00 X29.8874 Y4.0361
G01 F400.00
G01 Z-1.8000
G01 F300.00
G01 X29.8869 Y4.0263
G01 X29.8855 Y4.0167
G01 X29.8831 Y4.0072
G01 X29.8799 Y3.9980
G01 X29.8757 Y3.9892
G01 X29.8707 Y3.9808
G01 X29.8648 Y3.9730
G01 X29.8583 Y3.9657
G01 X29.8511 Y3.9592
G01 X29.8432 Y3.9534
G01 X29.8349 Y3.9484
G01 X29.8260 Y3.9442
G01 X29.8168 Y3.9409
G01 X29.8074 Y3.9385
G01 X29.7977 Y3.9371
G01 X29.7880 Y3.9366
G01 X29.7782 Y3.9371
G01 X29.7686 Y3.9385
G01 X29.7591 Y3.9409
G01 X29.7499 Y3.9442
G01 X29.7411 Y3.9484
G01 X29.7327 Y3.9534
G01 X29.7249 Y3.9592
G01 X29.7177 Y3.9657
G01 X29.7111 Y3.9730
G01 X29.7053 Y3.9808
G01 X29.7003 Y3.9892
G01 X29.6961 Y3.9980
G01 X29.6928 Y4.0072
G01 X29.6905 Y4.0167
G01 X29.6890 Y4.0263
G01 X29.6885 Y4.0361
G01 X29.6890 Y4.0458
G01 X29.6905 Y4.0555
G01 X29.6928 Y4.0649
G01 X29.6961 Y4.0741
G01 X29.7003 Y4.0829
G01 X29.7053 Y4.0913
G01 X29.7111 Y4.0991
G01 X29.7177 Y4.1064
G01 X29.7249 Y4.1129
G01 X29.7327 Y4.1187
G01 X29.7411 Y4.1238
G01 X29.7499 Y4.1279
G01 X29.7591 Y4.1312
G01 X29.7686 Y4.1336
G01 X29.7782 Y4.1350
G01 X29.7880 Y4.1355
G01 X29.7977 Y4.1350
G01 X29.8074 Y4.1336
G01 X29.8168 Y4.1312
G01 X29.8260 Y4.1279
G01 X29.8349 Y4.1238
G01 X29.8432 Y4.1187
G01 X29.8511 Y4.1129
G01 X29.8583 Y4.1064
G01 X29.8648 Y4.0991
G01 X29.8707 Y4.0913
G01 X29.8757 Y4.0829
G01 X29.8799 Y4.0741
G01 X29.8831 Y4.0649
G01 X29.8855 Y4.0555
G01 X29.8869 Y4.0458
G01 X29.8874 Y4.0361
G00 Z2.0000
G00 X26.0774 Y4.0361
G01 F400.00
G01 Z-0.9000
G01 F300.00
G01 X26.0769 Y4.0263
G01 X26.0755 Y4.0167
G01 X26.0731 Y4.0072
G01 X26.0699 Y3.9980
G01 X26.0657 Y3.9892
G01 X26.0607 Y3.9808
G01 X26.0548 Y3.9730
G01 X26.0483 Y3.9657
G01 X26.0411 Y3.9592
G01 X26.0332 Y3.9534
G01 X26.0249 Y3.9484
G01 X26.0160 Y3.9442
G01 X26.0068 Y3.9409
G01 X25.9974 Y3.9385
G01 X25.9877 Y3.9371
G01 X25.9780 Y3.9366
G01 X25.9682 Y3.9371
G01 X25.9586 Y3.9385
G01 X25.9491 Y3.9409
G01 X25.9399 Y3.9442
G01 X25.9311 Y3.9484
G01 X25.9227 Y3.9534
G01 X25.9149 Y3.9592
G01 X25.9077 Y3.9657
G01 X25.9011 Y3.9730
G01 X25.8953 Y3.9808
G01 X25.8903 Y3.9892
G01 X25.8861 Y3.9980
G01 X25.8828 Y4.0072
G01 X25.8805 Y4.0167
G01 X25.8790 Y4.0263
G01 X25.8785 Y4.0361
G01 X25.8790 Y4.0458
G01 X25.8805 Y4.0555
G01 X25.8828 Y4.0649
G01 X25.8861 Y4.0741
G01 X25.8903 Y4.0829
G01 X25.8953 Y4.0913
G01 X25.9011 Y4.0991
G01 X25.9077 Y4.1064
G01 X25.9149 Y4.1129
G01 X25.9227 Y4.1187
G01 X25.9311 Y4.1238
G01 X25.9399 Y4.1279
G01 X25.9491 Y4.1312
G01 X25.9586 Y4.1336
G01 X25.9682 Y4.1350
G01 X25.9780 Y4.1355
G01 X25.9877 Y4.1350
G01 X25.9974 Y4.1336
G01 X26.0068 Y4.1312
G01 X26.0160 Y4.1279
G01 X26.0249 Y4.1238
G01 X26.0332 Y4.1187
G01 X26.0411 Y4.1129
G01 X26.0483 Y4.1064
G01 X26.0548 Y4.0991
G01 X26.0607 Y4.0913
G01 X26.0657 Y4.0829
G01 X26.0699 Y4.0741
G01 X26.0731 Y4.0649
G01 X26.0755 Y4.0555
G01 X26.0769 Y4.0458
G01 X26.0774 Y4.0361
G00 X26.0774 Y4.0361
G01 F400.00
G01 Z-1.8000
G01 F300.00
G01 X26.0769 Y4.0263
G01 X26.0755 Y4.0167
G01 X26.0731 Y4.0072
G01 X26.0699 Y3.9980
G01 X26.0657 Y3.9892
G01 X26.0607 Y3.9808
G01 X26.0548 Y3.9730
G01 X26.0483 Y3.9657
G01 X26.0411 Y3.9592
G01 X26.0332 Y3.9534
G01 X26.0249 Y3.9484
G01 X26.0160 Y3.9442
G01 X26.0068 Y3.9409
G01 X25.9974 Y3.9385
G01 X25.9877 Y3.9371
G01 X25.9780 Y3.9366
G01 X25.9682 Y3.9371
G01 X25.9586 Y3.9385
G01 X25.9491 Y3.9409
G01 X25.9399 Y3.9442
G01 X25.9311 Y3.9484
G01 X25.9227 Y3.9534
G01 X25.9149 Y3.9592
G01 X25.9077 Y3.9657
G01 X25.9011 Y3.9730
G01 X25.8953 Y3.9808
G01 X25.8903 Y3.9892
G01 X25.8861 Y3.9980
G01 X25.8828 Y4.0072
G01 X25.8805 Y4.0167
G01 X25.8790 Y4.0263
G01 X25.8785 Y4.0361
G01 X25.8790 Y4.0458
G01 X25.8805 Y4.0555
G01 X25.8828 Y4.0649
G01 X25.8861 Y4.0741
G01 X25.8903 Y4.0829
G01 X25.8953 Y4.0913
G01 X25.9011 Y4.0991
G01 X25.9077 Y4.1064
G01 X25.9149 Y4.1129
G01 X25.9227 Y4.1187
G01 X25.9311 Y4.1238
G01 X25.9399 Y4.1279
G01 X25.9491 Y4.1312
G01 X25.9586 Y4.1336
G01 X25.9682 Y4.1350
G01 X25.9780 Y4.1355
G01 X25.9877 Y4.1350
G01 X25.9974 Y4.1336
G01 X26.0068 Y4.1312
G01 X26.0160 Y4.1279
G01 X26.0249 Y4.1238
G01 X26.0332 Y4.1187
G01 X26.0411 Y4.1129
G01 X26.0483 Y4.1064
G01 X26.0548 Y4.0991
G01 X26.0607 Y4.0913
G01 X26.0657 Y4.0829
G01 X26.0699 Y4.0741
G01 X26.0731 Y4.0649
G01 X26.0755 Y4.0555
G01 X26.0769 Y4.0458
G01 X26.0774 Y4.0361
G00 Z2.0000
G00 X22.2674 Y4.0361
G01 F400.00
G01 Z-0.9000
G01 F300.00
G01 X22.2669 Y4.0263
G01 X22.2655 Y4.0167
G01 X22.2631 Y4.0072
G01 X22.2599 Y3.9980
G01 X22.2557 Y3.9892
G01 X22.2507 Y3.9808
G01 X22.2448 Y3.9730
G01 X22.2383 Y3.9657
G01 X22.2311 Y3.9592
G01 X22.2232 Y3.9534
G01 X22.2149 Y3.9484
G01 X22.2060 Y3.9442
G01 X22.1968 Y3.9409
G01 X22.1874 Y3.9385
G01 X22.1777 Y3.9371
G01 X22.1680 Y3.9366
G01 X22.1582 Y3.9371
G01 X22.1486 Y3.9385
G01 X22.1391 Y3.9409
G01 X22.1299 Y3.9442
G01 X22.1211 Y3.9484
G01 X22.1127 Y3.9534
G01 X22.1049 Y3.9592
G01 X22.0977 Y3.9657
G01 X22.0911 Y3.9730
G01 X22.0853 Y3.9808
G01 X22.0803 Y3.9892
G01 X22.0761 Y3.9980
G01 X22.0728 Y4.0072
G01 X22.0705 Y4.0167
G01 X22.0690 Y4.0263
G01 X22.0685 Y4.0361
G01 X22.0690 Y4.0458
G01 X22.0705 Y4.0555
G01 X22.0728 Y4.0649
G01 X22.0761 Y4.0741
G01 X22.0803 Y4.0829
G01 X22.0853 Y4.0913
G01 X22.0911 Y4.0991
G01 X22.0977 Y4.1064
G01 X22.1049 Y4.1129
G01 X22.1127 Y4.1187
G01 X22.1211 Y4.1238
G01 X22.1299 Y4.1279
G01 X22.1391 Y4.1312
G01 X22.1486 Y4.1336
G01 X22.1582 Y4.1350
G01 X22.1680 Y4.1355
G01 X22.1777 Y4.1350
G01 X22.1874 Y4.1336
G01 X22.1968 Y4.1312
G01 X22.2060 Y4.1279
G01 X22.2149 Y4.1238
G01 X22.2232 Y4.1187
G01 X22.2311 Y4.1129
G01 X22.2383 Y4.1064
G01 X22.2448 Y4.0991
G01 X22.2507 Y4.0913
G01 X22.2557 Y4.0829
G01 X22.2599 Y4.0741
G01 X22.2631 Y4.0649
G01 X22.2655 Y4.0555
G01 X22.2669 Y4.0458
G01 X22.2674 Y4.0361
G00 X22.2674 Y4.0361
G01 F400.00
G01 Z-1.8000
G01 F300.00
G01 X22.2669 Y4.0263
G01 X22.2655 Y4.0167
G01 X22.2631 Y4.0072
G01 X22.2599 Y3.9980
G01 X22.2557 Y3.9892
G01 X22.2507 Y3.9808
G01 X22.2448 Y3.9730
G01 X22.2383 Y3.9657
G01 X22.2311 Y3.9592
G01 X22.2232 Y3.9534
G01 X22.2149 Y3.9484
G01 X22.2060 Y3.9442
G01 X22.1968 Y3.9409
G01 X22.1874 Y3.9385
G01 X22.1777 Y3.9371
G01 X22.1680 Y3.9366
G01 X22.1582 Y3.9371
G01 X22.1486 Y3.9385
G01 X22.1391 Y3.9409
G01 X22.1299 Y3.9442
G01 X22.1211 Y3.9484
G01 X22.1127 Y3.9534
G01 X22.1049 Y3.9592
G01 X22.0977 Y3.9657
G01 X22.0911 Y3.9730
G01 X22.0853 Y3.9808
G01 X22.0803 Y3.9892
G01 X22.0761 Y3.9980
G01 X22.0728 Y4.0072
G01 X22.0705 Y4.0167
G01 X22.0690 Y4.0263
G01 X22.0685 Y4.0361
G01 X22.0690 Y4.0458
G01 X22.0705 Y4.0555
G01 X22.0728 Y4.0649
G01 X22.0761 Y4.0741
G01 X22.0803 Y4.0829
G01 X22.0853 Y4.0913
G01 X22.0911 Y4.0991
G01 X22.0977 Y4.1064
G01 X22.1049 Y4.1129
G01 X22.1127 Y4.1187
G01 X22.1211 Y4.1238
G01 X22.1299 Y4.1279
G01 X22.1391 Y4.1312
G01 X22.1486 Y4.1336
G01 X22.1582 Y4.1350
G01 X22.1680 Y4.1355
G01 X22.1777 Y4.1350
G01 X22.1874 Y4.1336
G01 X22.1968 Y4.1312
G01 X22.2060 Y4.1279
G01 X22.2149 Y4.1238
G01 X22.2232 Y4.1187
G01 X22.2311 Y4.1129
G01 X22.2383 Y4.1064
G01 X22.2448 Y4.0991
G01 X22.2507 Y4.0913
G01 X22.2557 Y4.0829
G01 X22.2599 Y4.0741
G01 X22.2631 Y4.0649
G01 X22.2655 Y4.0555
G01 X22.2669 Y4.0458
G01 X22.2674 Y4.0361
G00 Z2.0000
G00 X16.8496 Y4.0361
G01 F400.00
G01 Z-0.9000
G01 F300.00
G01 X16.8491 Y4.0263
G01 X16.8477 Y4.0167
G01 X16.8453 Y4.0072
G01 X16.8420 Y3.9980
G01 X16.8379 Y3.9892
G01 X16.8328 Y3.9808
G01 X16.8270 Y3.9730
G01 X16.8205 Y3.9657
G01 X16.8132 Y3.9592
G01 X16.8054 Y3.9534
G01 X16.7970 Y3.9484
G01 X16.7882 Y3.9442
G01 X16.7790 Y3.9409
G01 X16.7696 Y3.9385
G01 X16.7599 Y3.9371
G01 X16.7502 Y3.9366
G01 X16.7404 Y3.9371
G01 X16.7308 Y3.9385
G01 X16.7213 Y3.9409
G01 X16.7121 Y3.9442
G01 X16.7033 Y3.9484
G01 X16.6949 Y3.9534
G01 X16.6871 Y3.9592
G01 X16.6798 Y3.9657
G01 X16.6733 Y3.9730
G01 X16.6675 Y3.9808
G01 X16.6625 Y3.9892
G01 X16.6583 Y3.9980
G01 X16.6550 Y4.0072
G01 X16.6526 Y4.0167
G01 X16.6512 Y4.0263
G01 X16.6507 Y4.0361
G01 X16.6512 Y4.0458
G01 X16.6526 Y4.0555
G01 X16.6550 Y4.0649
G01 X16.6583 Y4.0741
G01 X16.6625 Y4.0829
G01 X16.6675 Y4.0913
G01 X16.6733 Y4.0991
G01 X16.6798 Y4.1064
G01 X16.6871 Y4.1129
G01 X16.6949 Y4.1187
G01 X16.7033 Y4.1238
G01 X16.7121 Y4.1279
G01 X16.7213 Y4.1312
G01 X16.7308 Y4.1336
G01 X16.7404 Y4.1350
G01 X16.7502 Y4.1355
G01 X16.7599 Y4.1350
G01 X16.7696 Y4.1336
G01 X16.7790 Y4.1312
G01 X16.7882 Y4.1279
G01 X16.7970 Y4.1238
G01 X16.8054 Y4.1187
G01 X16.8132 Y4.1129
G01 X16.8205 Y4.1064
G01 X16.8270 Y4.0991
G01 X16.8328 Y4.0913
G01 X16.8379 Y4.0829
G01 X16.8420 Y4.0741
G01 X16.8453 Y4.0649
G01 X16.8477 Y4.0555
G01 X16.8491 Y4.0458
G01 X16.8496 Y4.0361
G00 X16.8496 Y4.0361
G01 F400.00
G01 Z-1.8000
G01 F300.00
G01 X16.8491 Y4.0263
G01 X16.8477 Y4.0167
G01 X16.8453 Y4.0072
G01 X16.8420 Y3.9980
G01 X16.8379 Y3.9892
G01 X16.8328 Y3.9808
G01 X16.8270 Y3.9730
G01 X16.8205 Y3.9657
G01 X16.8132 Y3.9592
G01 X16.8054 Y3.9534
G01 X16.7970 Y3.9484
G01 X16.7882 Y3.9442
G01 X16.7790 Y3.9409
G01 X16.7696 Y3.9385
G01 X16.7599 Y3.9371
G01 X16.7502 Y3.9366
G01 X16.7404 Y3.9371
G01 X16.7308 Y3.9385
G01 X16.7213 Y3.9409
G01 X16.7121 Y3.9442
G01 X16.7033 Y3.9484
G01 X16.6949 Y3.9534
G01 X16.6871 Y3.9592
G01 X16.6798 Y3.9657
G01 X16.6733 Y3.9730
G01 X16.6675 Y3.9808
G01 X16.6625 Y3.9892
G01 X16.6583 Y3.9980
G01 X16.6550 Y4.0072
G01 X16.6526 Y4.0167
G01 X16.6512 Y4.0263
G01 X16.6507 Y4.0361
G01 X16.6512 Y4.0458
G01 X16.6526 Y4.0555
G01 X16.6550 Y4.0649
G01 X16.6583 Y4.0741
G01 X16.6625 Y4.0829
G01 X16.6675 Y4.0913
G01 X16.6733 Y4.0991
G01 X16.6798 Y4.1064
G01 X16.6871 Y4.1129
G01 X16.6949 Y4.1187
G01 X16.7033 Y4.1238
G01 X16.7121 Y4.1279
G01 X16.7213 Y4.1312
G01 X16.7308 Y4.1336
G01 X16.7404 Y4.1350
G01 X16.7502 Y4.1355
G01 X16.7599 Y4.1350
G01 X16.7696 Y4.1336
G01 X16.7790 Y4.1312
G01 X16.7882 Y4.1279
G01 X16.7970 Y4.1238
G01 X16.8054 Y4.1187
G01 X16.8132 Y4.1129
G01 X16.8205 Y4.1064
G01 X16.8270 Y4.0991
G01 X16.8328 Y4.0913
G01 X16.8379 Y4.0829
G01 X16.8420 Y4.0741
G01 X16.8453 Y4.0649
G01 X16.8477 Y4.0555
G01 X16.8491 Y4.0458
G01 X16.8496 Y4.0361
G00 Z2.0000
G00 X13.0396 Y4.0361
G01 F400.00
G01 Z-0.9000
G01 F300.00
G01 X13.0391 Y4.0263
G01 X13.0377 Y4.0167
G01 X13.0353 Y4.0072
G01 X13.0320 Y3.9980
G01 X13.0279 Y3.9892
G01 X13.0228 Y3.9808
G01 X13.0170 Y3.9730
G01 X13.0105 Y3.9657
G01 X13.0032 Y3.9592
G01 X12.9954 Y3.9534
G01 X12.9870 Y3.9484
G01 X12.9782 Y3.9442
G01 X12.9690 Y3.9409
G01 X12.9596 Y3.9385
G01 X12.9499 Y3.9371
G01 X12.9402 Y3.9366
G01 X12.9304 Y3.9371
G01 X12.9208 Y3.9385
G01 X12.9113 Y3.9409
G01 X12.9021 Y3.9442
G01 X12.8933 Y3.9484
G01 X12.8849 Y3.9534
G01 X12.8771 Y3.9592
G01 X12.8698 Y3.9657
G01 X12.8633 Y3.9730
G01 X12.8575 Y3.9808
G01 X12.8525 Y3.9892
G01 X12.8483 Y3.9980
G01 X12.8450 Y4.0072
G01 X12.8426 Y4.0167
G01 X12.8412 Y4.0263
G01 X12.8407 Y4.0361
G01 X12.8412 Y4.0458
G01 X12.8426 Y4.0555
G01 X12.8450 Y4.0649
G01 X12.8483 Y4.0741
G01 X12.8525 Y4.0829
G01 X12.8575 Y4.0913
G01 X12.8633 Y4.0991
G01 X12.8698 Y4.1064
G01 X12.8771 Y4.1129
G01 X12.8849 Y4.1187
G01 X12.8933 Y4.1238
G01 X12.9021 Y4.1279
G01 X12.9113 Y4.1312
G01 X12.9208 Y4.1336
G01 X12.9304 Y4.1350
G01 X12.9402 Y4.1355
G01 X12.9499 Y4.1350
G01 X12.9596 Y4.1336
G01 X12.9690 Y4.1312
G01 X12.9782 Y4.1279
G01 X12.9870 Y4.1238
G01 X12.9954 Y4.1187
G01 X13.0032 Y4.1129
G01 X13.0105 Y4.1064
G01 X13.0170 Y4.0991
G01 X13.0228 Y4.0913
G01 X13.0279 Y4.0829
G01 X13.0320 Y4.0741
G01 X13.0353 Y4.0649
G01 X13.0377 Y4.0555
G01 X13.0391 Y4.0458
G01 X13.0396 Y4.0361
G00 X13.0396 Y4.0361
G01 F400.00
G01 Z-1.8000
G01 F300.00
G01 X13.0391 Y4.0263
G01 X13.0377 Y4.0167
G01 X13.0353 Y4.0072
G01 X13.0320 Y3.9980
G01 X13.0279 Y3.9892
G01 X13.0228 Y3.9808
G01 X13.0170 Y3.9730
G01 X13.0105 Y3.9657
G01 X13.0032 Y3.9592
G01 X12.9954 Y3.9534
G01 X12.9870 Y3.9484
G01 X12.9782 Y3.9442
G01 X12.9690 Y3.9409
G01 X12.9596 Y3.9385
G01 X12.9499 Y3.9371
G01 X12.9402 Y3.9366
G01 X12.9304 Y3.9371
G01 X12.9208 Y3.9385
G01 X12.9113 Y3.9409
G01 X12.9021 Y3.9442
G01 X12.8933 Y3.9484
G01 X12.8849 Y3.9534
G01 X12.8771 Y3.9592
G01 X12.8698 Y3.9657
G01 X12.8633 Y3.9730
G01 X12.8575 Y3.9808
G01 X12.8525 Y3.9892
G01 X12.8483 Y3.9980
G01 X12.8450 Y4.0072
G01 X12.8426 Y4.0167
G01 X12.8412 Y4.0263
G01 X12.8407 Y4.0361
G01 X12.8412 Y4.0458
G01 X12.8426 Y4.0555
G01 X12.8450 Y4.0649
G01 X12.8483 Y4.0741
G01 X12.8525 Y4.0829
G01 X12.8575 Y4.0913
G01 X12.8633 Y4.0991
G01 X12.8698 Y4.1064
G01 X12.8771 Y4.1129
G01 X12.8849 Y4.1187
G01 X12.8933 Y4.1238
G01 X12.9021 Y4.1279
G01 X12.9113 Y4.1312
G01 X12.9208 Y4.1336
G01 X12.9304 Y4.1350
G01 X12.9402 Y4.1355
G01 X12.9499 Y4.1350
G01 X12.9596 Y4.1336
G01 X12.9690 Y4.1312
G01 X12.9782 Y4.1279
G01 X12.9870 Y4.1238
G01 X12.9954 Y4.1187
G01 X13.0032 Y4.1129
G01 X13.0105 Y4.1064
G01 X13.0170 Y4.0991
G01 X13.0228 Y4.0913
G01 X13.0279 Y4.0829
G01 X13.0320 Y4.0741
G01 X13.0353 Y4.0649
G01 X13.0377 Y4.0555
G01 X13.0391 Y4.0458
G01 X13.0396 Y4.0361
G00 Z2.0000
G00 X9.2296 Y4.0361
G01 F400.00
G01 Z-0.9000
G01 F300.00
G01 X9.2291 Y4.0263
G01 X9.2277 Y4.0167
G01 X9.2253 Y4.0072
G01 X9.2220 Y3.9980
G01 X9.2179 Y3.9892
G01 X9.2128 Y3.9808
G01 X9.2070 Y3.9730
G01 X9.2005 Y3.9657
G01 X9.1932 Y3.9592
G01 X9.1854 Y3.9534
G01 X9.1770 Y3.9484
G01 X9.1682 Y3.9442
G01 X9.1590 Y3.9409
G01 X9.1496 Y3.9385
G01 X9.1399 Y3.9371
G01 X9.1302 Y3.9366
G01 X9.1204 Y3.9371
G01 X9.1108 Y3.9385
G01 X9.1013 Y3.9409
G01 X9.0921 Y3.9442
G01 X9.0833 Y3.9484
G01 X9.0749 Y3.9534
G01 X9.0671 Y3.9592
G01 X9.0598 Y3.9657
G01 X9.0533 Y3.9730
G01 X9.0475 Y3.9808
G01 X9.0425 Y3.9892
G01 X9.0383 Y3.9980
G01 X9.0350 Y4.0072
G01 X9.0326 Y4.0167
G01 X9.0312 Y4.0263
G01 X9.0307 Y4.0361
G01 X9.0312 Y4.0458
G01 X9.0326 Y4.0555
G01 X9.0350 Y4.0649
G01 X9.0383 Y4.0741
G01 X9.0425 Y4.0829
G01 X9.0475 Y4.0913
G01 X9.0533 Y4.0991
G01 X9.0598 Y4.1064
G01 X9.0671 Y4.1129
G01 X9.0749 Y4.1187
G01 X9.0833 Y4.1238
G01 X9.0921 Y4.1279
G01 X9.1013 Y4.1312
G01 X9.1108 Y4.1336
G01 X9.1204 Y4.1350
G01 X9.1302 Y4.1355
G01 X9.1399 Y4.1350
G01 X9.1496 Y4.1336
G01 X9.1590 Y4.1312
G01 X9.1682 Y4.1279
G01 X9.1770 Y4.1238
G01 X9.1854 Y4.1187
G01 X9.1932 Y4.1129
G01 X9.2005 Y4.1064
G01 X9.2070 Y4.0991
G01 X9.2128 Y4.0913
G01 X9.2179 Y4.0829
G01 X9.2220 Y4.0741
G01 X9.2253 Y4.0649
G01 X9.2277 Y4.0555
G01 X9.2291 Y4.0458
G01 X9.2296 Y4.0361
G00 X9.2296 Y4.0361
G01 F400.00
G01 Z-1.8000
G01 F300.00
G01 X9.2291 Y4.0263
G01 X9.2277 Y4.0167
G01 X9.2253 Y4.0072
G01 X9.2220 Y3.9980
G01 X9.2179 Y3.9892
G01 X9.2128 Y3.9808
G01 X9.2070 Y3.9730
G01 X9.2005 Y3.9657
G01 X9.1932 Y3.9592
G01 X9.1854 Y3.9534
G01 X9.1770 Y3.9484
G01 X9.1682 Y3.9442
G01 X9.1590 Y3.9409
G01 X9.1496 Y3.9385
G01 X9.1399 Y3.9371
G01 X9.1302 Y3.9366
G01 X9.1204 Y3.9371
G01 X9.1108 Y3.9385
G01 X9.1013 Y3.9409
G01 X9.0921 Y3.9442
G01 X9.0833 Y3.9484
G01 X9.0749 Y3.9534
G01 X9.0671 Y3.9592
G01 X9.0598 Y3.9657
G01 X9.0533 Y3.9730
G01 X9.0475 Y3.9808
G01 X9.0425 Y3.9892
G01 X9.0383 Y3.9980
G01 X9.0350 Y4.0072
G01 X9.0326 Y4.0167
G01 X9.0312 Y4.0263
G01 X9.0307 Y4.0361
G01 X9.0312 Y4.0458
G01 X9.0326 Y4.0555
G01 X9.0350 Y4.0649
G01 X9.0383 Y4.0741
G01 X9.0425 Y4.0829
G01 X9.0475 Y4.0913
G01 X9.0533 Y4.0991
G01 X9.0598 Y4.1064
G01 X9.0671 Y4.1129
G01 X9.0749 Y4.1187
G01 X9.0833 Y4.1238
G01 X9.0921 Y4.1279
G01 X9.1013 Y4.1312
G01 X9.1108 Y4.1336
G01 X9.1204 Y4.1350
G01 X9.1302 Y4.1355
G01 X9.1399 Y4.1350
G01 X9.1496 Y4.1336
G01 X9.1590 Y4.1312
G01 X9.1682 Y4.1279
G01 X9.1770 Y4.1238
G01 X9.1854 Y4.1187
G01 X9.1932 Y4.1129
G01 X9.2005 Y4.1064
G01 X9.2070 Y4.0991
G01 X9.2128 Y4.0913
G01 X9.2179 Y4.0829
G01 X9.2220 Y4.0741
G01 X9.2253 Y4.0649
G01 X9.2277 Y4.0555
G01 X9.2291 Y4.0458
G01 X9.2296 Y4.0361
G00 Z2.0000
G00 X63.1005 Y8.9992
G01 F400.00
G01 Z-0.9000
G01 F300.00
G01 X63.0952 Y8.8914
G01 X63.0793 Y8.7846
G01 X63.0531 Y8.6798
G01 X63.0167 Y8.5782
G01 X62.9705 Y8.4806
G01 X62.9150 Y8.3880
G01 X62.8507 Y8.3013
G01 X62.7782 Y8.2213
G01 X62.6982 Y8.1488
G01 X62.6115 Y8.0844
G01 X62.5189 Y8.0289
G01 X62.4213 Y7.9828
G01 X62.3196 Y7.9464
G01 X62.2149 Y7.9202
G01 X62.1081 Y7.9043
G01 X62.0003 Y7.8990
G01 X61.8924 Y7.9043
G01 X61.7856 Y7.9202
G01 X61.6809 Y7.9464
G01 X61.5792 Y7.9828
G01 X61.4816 Y8.0289
G01 X61.3890 Y8.0844
G01 X61.3023 Y8.1488
G01 X61.2223 Y8.2213
G01 X61.1498 Y8.3013
G01 X61.0855 Y8.3880
G01 X61.0300 Y8.4806
G01 X60.9838 Y8.5782
G01 X60.9474 Y8.6798
G01 X60.9212 Y8.7846
G01 X60.9054 Y8.8914
G01 X60.9001 Y8.9992
G01 X60.9054 Y9.1071
G01 X60.9212 Y9.2139
G01 X60.9474 Y9.3186
G01 X60.9838 Y9.4202
G01 X61.0300 Y9.5179
G01 X61.0855 Y9.6105
G01 X61.1498 Y9.6972
G01 X61.2223 Y9.7772
G01 X61.3023 Y9.8497
G01 X61.3890 Y9.9140
G01 X61.4816 Y9.9695
G01 X61.5792 Y10.0157
G01 X61.6809 Y10.0520
G01 X61.7856 Y10.0783
G01 X61.8924 Y10.0941
G01 X62.0003 Y10.0994
G01 X62.1081 Y10.0941
G01 X62.2149 Y10.0783
G01 X62.3196 Y10.0520
G01 X62.4213 Y10.0157
G01 X62.5189 Y9.9695
G01 X62.6115 Y9.9140
G01 X62.6982 Y9.8497
G01 X62.7782 Y9.7772
G01 X62.8507 Y9.6972
G01 X62.9150 Y9.6105
G01 X62.9705 Y9.5179
G01 X63.0167 Y9.4202
G01 X63.0531 Y9.3186
G01 X63.0793 Y9.2139
G01 X63.0952 Y9.1071
G01 X63.1005 Y8.9992
G00 X63.1005 Y8.9992
G01 F400.00
G01 Z-1.8000
G01 F300.00
G01 X63.0952 Y8.8914
G01 X63.0793 Y8.7846
G01 X63.0531 Y8.6798
G01 X63.0167 Y8.5782
G01 X62.9705 Y8.4806
G01 X62.9150 Y8.3880
G01 X62.8507 Y8.3013
G01 X62.7782 Y8.2213
G01 X62.6982 Y8.1488
G01 X62.6115 Y8.0844
G01 X62.5189 Y8.0289
G01 X62.4213 Y7.9828
G01 X62.3196 Y7.9464
G01 X62.2149 Y7.9202
G01 X62.1081 Y7.9043
G01 X62.0003 Y7.8990
G01 X61.8924 Y7.9043
G01 X61.7856 Y7.9202
G01 X61.6809 Y7.9464
G01 X61.5792 Y7.9828
G01 X61.4816 Y8.0289
G01 X61.3890 Y8.0844
G01 X61.3023 Y8.1488
G01 X61.2223 Y8.2213
G01 X61.1498 Y8.3013
G01 X61.0855 Y8.3880
G01 X61.0300 Y8.4806
G01 X60.9838 Y8.5782
G01 X60.9474 Y8.6798
G01 X60.9212 Y8.7846
G01 X60.9054 Y8.8914
G01 X60.9001 Y8.9992
G01 X60.9054 Y9.1071
G01 X60.9212 Y9.2139
G01 X60.9474 Y9.3186
G01 X60.9838 Y9.4202
G01 X61.0300 Y9.5179
G01 X61.0855 Y9.6105
G01 X61.1498 Y9.6972
G01 X61.2223 Y9.7772
G01 X61.3023 Y9.8497
G01 X61.3890 Y9.9140
G01 X61.4816 Y9.9695
G01 X61.5792 Y10.0157
G01 X61.6809 Y10.0520
G01 X61.7856 Y10.0783
G01 X61.8924 Y10.0941
G01 X62.0003 Y10.0994
G01 X62.1081 Y10.0941
G01 X62.2149 Y10.0783
G01 X62.3196 Y10.0520
G01 X62.4213 Y10.0157
G01 X62.5189 Y9.9695
G01 X62.6115 Y9.9140
G01 X62.6982 Y9.8497
G01 X62.7782 Y9.7772
G01 X62.8507 Y9.6972
G01 X62.9150 Y9.6105
G01 X62.9705 Y9.5179
G01 X63.0167 Y9.4202
G01 X63.0531 Y9.3186
G01 X63.0793 Y9.2139
G01 X63.0952 Y9.1071
G01 X63.1005 Y8.9992
G00 Z2.0000
M05
G00 Z2.0000
G00 Z15.00
G00 X0.0 Y0.0

M05
M09