(G-CODE GENERATED BY FLATCAM v8.991 - www.flatcam.org - Version Date: 2019/12/27)

(Name: 04 - 1mm Endmill Cutout Board)
(Type: G-code from Geometry)
(Units: MM)

(Created on Tuesday, 10 March 2020 at 13:06)

(TOOL DIAMETER: 1.0 mm)
(Feedrate: 350.0 mm/min)
(Feedrate_Z: 800.0 mm/min)
(Feedrate rapids 1500.0 mm/min)

(Z_Cut: -1.8 mm)
(DepthPerCut: 0.9 mm <=>2 passes)
(Z_Move: 2.0 mm)
(Z Toolchange: 15.0 mm)
(X,Y Toolchange: 0.0000, 0.0000 mm)
(Z Start: None mm)
(Z End: 15.0 mm)
(Steps per circle: 64)
(Preprocessor Geometry: default)

(X range:   -0.5250 ...   65.5250  mm)
(Y range:   -0.5250 ...   20.0250  mm)

(Spindle Speed: 24000 RPM)
G21
G90
G94

M08


G01 F350.00
G00 Z2.0000

M03 S24000
G00 X5.4750 Y3.9750
G01 F800.00
G01 Z-0.9000
G01 F350.00
G01 X5.4750 Y0.5000
G01 X5.4756 Y0.4742
G01 X5.4780 Y0.4252
G01 X5.4801 Y0.3983
G01 X5.4831 Y0.3740
G01 X5.4903 Y0.3254
G01 X5.4950 Y0.2988
G01 X5.5003 Y0.2749
G01 X5.5123 Y0.2273
G01 X5.5188 Y0.2036
G01 X5.5272 Y0.1780
G01 X5.5437 Y0.1318
G01 X5.5535 Y0.1066
G01 X5.5635 Y0.0842
G01 X5.5844 Y0.0398
G01 X5.5955 Y0.0179
G01 X5.6087 Y-0.0056
G01 X5.6339 Y-0.0477
G01 X5.6484 Y-0.0705
G01 X5.6626 Y-0.0905
G01 X5.6918 Y-0.1299
G01 X5.7085 Y-0.1512
G01 X5.7245 Y-0.1698
G01 X5.7574 Y-0.2061
G01 X5.7744 Y-0.2239
G01 X5.7939 Y-0.2426
G01 X5.8302 Y-0.2755
G01 X5.8507 Y-0.2931
G01 X5.8701 Y-0.3082
G01 X5.9095 Y-0.3374
G01 X5.9295 Y-0.3516
G01 X5.9523 Y-0.3661
G01 X5.9944 Y-0.3913
G01 X6.0179 Y-0.4045
G01 X6.0398 Y-0.4156
G01 X6.0842 Y-0.4365
G01 X6.1066 Y-0.4465
G01 X6.1318 Y-0.4563
G01 X6.1780 Y-0.4728
G01 X6.2036 Y-0.4812
G01 X6.2273 Y-0.4877
G01 X6.2749 Y-0.4997
G01 X6.3012 Y-0.5055
G01 X6.3254 Y-0.5097
G01 X6.3740 Y-0.5169
G01 X6.4008 Y-0.5202
G01 X6.4252 Y-0.5220
G01 X6.4742 Y-0.5244
G01 X6.5000 Y-0.5250
G01 X58.5000 Y-0.5250
G01 X58.5258 Y-0.5244
G01 X58.5748 Y-0.5220
G01 X58.6017 Y-0.5199
G01 X58.6260 Y-0.5169
G01 X58.6746 Y-0.5097
G01 X58.7012 Y-0.5050
G01 X58.7251 Y-0.4997
G01 X58.7727 Y-0.4877
G01 X58.7987 Y-0.4805
G01 X58.8220 Y-0.4728
G01 X58.8682 Y-0.4563
G01 X58.8934 Y-0.4465
G01 X58.9158 Y-0.4365
G01 X58.9602 Y-0.4156
G01 X58.9843 Y-0.4034
G01 X59.0056 Y-0.3913
G01 X59.0477 Y-0.3661
G01 X59.0684 Y-0.3529
G01 X59.0905 Y-0.3374
G01 X59.1299 Y-0.3082
G01 X59.1512 Y-0.2915
G01 X59.1698 Y-0.2755
G01 X59.2061 Y-0.2426
G01 X59.2256 Y-0.2239
G01 X59.2426 Y-0.2061
G01 X59.2755 Y-0.1698
G01 X59.2915 Y-0.1512
G01 X59.3082 Y-0.1299
G01 X59.3374 Y-0.0905
G01 X59.3529 Y-0.0684
G01 X59.3661 Y-0.0477
G01 X59.3913 Y-0.0056
G01 X59.4045 Y0.0179
G01 X59.4156 Y0.0398
G01 X59.4365 Y0.0842
G01 X59.4465 Y0.1066
G01 X59.4563 Y0.1318
G01 X59.4728 Y0.1780
G01 X59.4812 Y0.2036
G01 X59.4877 Y0.2273
G01 X59.4997 Y0.2749
G01 X59.5055 Y0.3012
G01 X59.5097 Y0.3254
G01 X59.5169 Y0.3740
G01 X59.5202 Y0.4008
G01 X59.5220 Y0.4252
G01 X59.5244 Y0.4742
G01 X59.5250 Y0.5000
G01 X59.5250 Y3.9750
G01 X63.0123 Y3.9751
G01 X63.2218 Y3.9853
G01 X63.2487 Y3.9873
G01 X63.2731 Y3.9903
G01 X63.4672 Y4.0191
G01 X63.4938 Y4.0238
G01 X63.5177 Y4.0292
G01 X63.7081 Y4.0768
G01 X63.7341 Y4.0841
G01 X63.7574 Y4.0918
G01 X63.9422 Y4.1579
G01 X63.9651 Y4.1668
G01 X63.9898 Y4.1776
G01 X64.1673 Y4.2616
G01 X64.1914 Y4.2737
G01 X64.2127 Y4.2858
G01 X64.3811 Y4.3867
G01 X64.4038 Y4.4012
G01 X64.4239 Y4.4154
G01 X64.5815 Y4.5323
G01 X64.6028 Y4.5489
G01 X64.6214 Y4.5650
G01 X64.7668 Y4.6968
G01 X64.7863 Y4.7154
G01 X64.8032 Y4.7332
G01 X64.9350 Y4.8786
G01 X64.9526 Y4.8991
G01 X64.9677 Y4.9185
G01 X65.0846 Y5.0761
G01 X65.1001 Y5.0982
G01 X65.1133 Y5.1189
G01 X65.2142 Y5.2873
G01 X65.2274 Y5.3108
G01 X65.2384 Y5.3327
G01 X65.3224 Y5.5102
G01 X65.3332 Y5.5349
G01 X65.3421 Y5.5578
G01 X65.4082 Y5.7426
G01 X65.4166 Y5.7682
G01 X65.4232 Y5.7919
G01 X65.4708 Y5.9823
G01 X65.4767 Y6.0086
G01 X65.4809 Y6.0328
G01 X65.5097 Y6.2269
G01 X65.5129 Y6.2537
G01 X65.5147 Y6.2782
G01 X65.5244 Y6.4742
G01 X65.5250 Y6.5000
G01 X65.5250 Y17.5000
G01 X65.5244 Y17.5258
G01 X65.5147 Y17.7218
G01 X65.5127 Y17.7487
G01 X65.5097 Y17.7731
G01 X65.4809 Y17.9672
G01 X65.4762 Y17.9938
G01 X65.4708 Y18.0177
G01 X65.4232 Y18.2081
G01 X65.4159 Y18.2341
G01 X65.4082 Y18.2574
G01 X65.3421 Y18.4422
G01 X65.3323 Y18.4674
G01 X65.3224 Y18.4898
G01 X65.2384 Y18.6673
G01 X65.2274 Y18.6892
G01 X65.2142 Y18.7127
G01 X65.1133 Y18.8811
G01 X65.0988 Y18.9038
G01 X65.0846 Y18.9239
G01 X64.9677 Y19.0815
G01 X64.9511 Y19.1028
G01 X64.9350 Y19.1214
G01 X64.8032 Y19.2668
G01 X64.7846 Y19.2863
G01 X64.7668 Y19.3032
G01 X64.6214 Y19.4350
G01 X64.6009 Y19.4526
G01 X64.5815 Y19.4677
G01 X64.4239 Y19.5846
G01 X64.4038 Y19.5988
G01 X64.3811 Y19.6133
G01 X64.2127 Y19.7142
G01 X64.1892 Y19.7274
G01 X64.1673 Y19.7384
G01 X63.9898 Y19.8224
G01 X63.9651 Y19.8332
G01 X63.9422 Y19.8421
G01 X63.7574 Y19.9082
G01 X63.7318 Y19.9166
G01 X63.7081 Y19.9232
G01 X63.5177 Y19.9708
G01 X63.4914 Y19.9767
G01 X63.4672 Y19.9809
G01 X63.2731 Y20.0097
G01 X63.2487 Y20.0127
G01 X63.2218 Y20.0147
G01 X63.0135 Y20.0248
G01 X2.0000 Y20.0250
G01 X1.9742 Y20.0244
G01 X1.7782 Y20.0147
G01 X1.7513 Y20.0127
G01 X1.7269 Y20.0097
G01 X1.5328 Y19.9809
G01 X1.5062 Y19.9762
G01 X1.4823 Y19.9708
G01 X1.2919 Y19.9232
G01 X1.2659 Y19.9159
G01 X1.2426 Y19.9082
G01 X1.0578 Y19.8421
G01 X1.0326 Y19.8323
G01 X1.0102 Y19.8224
G01 X0.8327 Y19.7384
G01 X0.8086 Y19.7263
G01 X0.7873 Y19.7142
G01 X0.6189 Y19.6133
G01 X0.5982 Y19.6001
G01 X0.5761 Y19.5846
G01 X0.4185 Y19.4677
G01 X0.3972 Y19.4511
G01 X0.3786 Y19.4350
G01 X0.2332 Y19.3032
G01 X0.2137 Y19.2846
G01 X0.1968 Y19.2668
G01 X0.0650 Y19.1214
G01 X0.0489 Y19.1028
G01 X0.0323 Y19.0815
G01 X-0.0846 Y18.9239
G01 X-0.1001 Y18.9018
G01 X-0.1133 Y18.8811
G01 X-0.2142 Y18.7127
G01 X-0.2274 Y18.6892
G01 X-0.2384 Y18.6673
G01 X-0.3224 Y18.4898
G01 X-0.3323 Y18.4674
G01 X-0.3421 Y18.4422
G01 X-0.4082 Y18.2574
G01 X-0.4166 Y18.2318
G01 X-0.4232 Y18.2081
G01 X-0.4708 Y18.0177
G01 X-0.4767 Y17.9914
G01 X-0.4809 Y17.9672
G01 X-0.5097 Y17.7731
G01 X-0.5127 Y17.7487
G01 X-0.5147 Y17.7218
G01 X-0.5244 Y17.5258
G01 X-0.5250 Y17.5000
G01 X-0.5250 Y6.5000
G01 X-0.5244 Y6.4742
G01 X-0.5147 Y6.2782
G01 X-0.5127 Y6.2513
G01 X-0.5097 Y6.2269
G01 X-0.4809 Y6.0328
G01 X-0.4762 Y6.0062
G01 X-0.4708 Y5.9823
G01 X-0.4232 Y5.7919
G01 X-0.4159 Y5.7659
G01 X-0.4082 Y5.7426
G01 X-0.3421 Y5.5578
G01 X-0.3323 Y5.5326
G01 X-0.3224 Y5.5102
G01 X-0.2384 Y5.3327
G01 X-0.2263 Y5.3086
G01 X-0.2142 Y5.2873
G01 X-0.1133 Y5.1189
G01 X-0.0988 Y5.0962
G01 X-0.0846 Y5.0761
G01 X0.0323 Y4.9185
G01 X0.0489 Y4.8972
G01 X0.0650 Y4.8786
G01 X0.1968 Y4.7332
G01 X0.2137 Y4.7154
G01 X0.2332 Y4.6968
G01 X0.3786 Y4.5650
G01 X0.3991 Y4.5474
G01 X0.4185 Y4.5323
G01 X0.5761 Y4.4154
G01 X0.5982 Y4.3999
G01 X0.6189 Y4.3867
G01 X0.7873 Y4.2858
G01 X0.8108 Y4.2726
G01 X0.8327 Y4.2616
G01 X1.0102 Y4.1776
G01 X1.0349 Y4.1668
G01 X1.0578 Y4.1579
G01 X1.2426 Y4.0918
G01 X1.2659 Y4.0841
G01 X1.2919 Y4.0768
G01 X1.4823 Y4.0292
G01 X1.5086 Y4.0233
G01 X1.5328 Y4.0191
G01 X1.7269 Y3.9903
G01 X1.7537 Y3.9871
G01 X1.7782 Y3.9853
G01 X1.9865 Y3.9752
G01 X5.4750 Y3.9750
G00 X5.4750 Y3.9750
G01 F800.00
G01 Z-1.8000
G01 F350.00
G01 X5.4750 Y0.5000
G01 X5.4756 Y0.4742
G01 X5.4780 Y0.4252
G01 X5.4801 Y0.3983
G01 X5.4831 Y0.3740
G01 X5.4903 Y0.3254
G01 X5.4950 Y0.2988
G01 X5.5003 Y0.2749
G01 X5.5123 Y0.2273
G01 X5.5188 Y0.2036
G01 X5.5272 Y0.1780
G01 X5.5437 Y0.1318
G01 X5.5535 Y0.1066
G01 X5.5635 Y0.0842
G01 X5.5844 Y0.0398
G01 X5.5955 Y0.0179
G01 X5.6087 Y-0.0056
G01 X5.6339 Y-0.0477
G01 X5.6484 Y-0.0705
G01 X5.6626 Y-0.0905
G01 X5.6918 Y-0.1299
G01 X5.7085 Y-0.1512
G01 X5.7245 Y-0.1698
G01 X5.7574 Y-0.2061
G01 X5.7744 Y-0.2239
G01 X5.7939 Y-0.2426
G01 X5.8302 Y-0.2755
G01 X5.8507 Y-0.2931
G01 X5.8701 Y-0.3082
G01 X5.9095 Y-0.3374
G01 X5.9295 Y-0.3516
G01 X5.9523 Y-0.3661
G01 X5.9944 Y-0.3913
G01 X6.0179 Y-0.4045
G01 X6.0398 Y-0.4156
G01 X6.0842 Y-0.4365
G01 X6.1066 Y-0.4465
G01 X6.1318 Y-0.4563
G01 X6.1780 Y-0.4728
G01 X6.2036 Y-0.4812
G01 X6.2273 Y-0.4877
G01 X6.2749 Y-0.4997
G01 X6.3012 Y-0.5055
G01 X6.3254 Y-0.5097
G01 X6.3740 Y-0.5169
G01 X6.4008 Y-0.5202
G01 X6.4252 Y-0.5220
G01 X6.4742 Y-0.5244
G01 X6.5000 Y-0.5250
G01 X58.5000 Y-0.5250
G01 X58.5258 Y-0.5244
G01 X58.5748 Y-0.5220
G01 X58.6017 Y-0.5199
G01 X58.6260 Y-0.5169
G01 X58.6746 Y-0.5097
G01 X58.7012 Y-0.5050
G01 X58.7251 Y-0.4997
G01 X58.7727 Y-0.4877
G01 X58.7987 Y-0.4805
G01 X58.8220 Y-0.4728
G01 X58.8682 Y-0.4563
G01 X58.8934 Y-0.4465
G01 X58.9158 Y-0.4365
G01 X58.9602 Y-0.4156
G01 X58.9843 Y-0.4034
G01 X59.0056 Y-0.3913
G01 X59.0477 Y-0.3661
G01 X59.0684 Y-0.3529
G01 X59.0905 Y-0.3374
G01 X59.1299 Y-0.3082
G01 X59.1512 Y-0.2915
G01 X59.1698 Y-0.2755
G01 X59.2061 Y-0.2426
G01 X59.2256 Y-0.2239
G01 X59.2426 Y-0.2061
G01 X59.2755 Y-0.1698
G01 X59.2915 Y-0.1512
G01 X59.3082 Y-0.1299
G01 X59.3374 Y-0.0905
G01 X59.3529 Y-0.0684
G01 X59.3661 Y-0.0477
G01 X59.3913 Y-0.0056
G01 X59.4045 Y0.0179
G01 X59.4156 Y0.0398
G01 X59.4365 Y0.0842
G01 X59.4465 Y0.1066
G01 X59.4563 Y0.1318
G01 X59.4728 Y0.1780
G01 X59.4812 Y0.2036
G01 X59.4877 Y0.2273
G01 X59.4997 Y0.2749
G01 X59.5055 Y0.3012
G01 X59.5097 Y0.3254
G01 X59.5169 Y0.3740
G01 X59.5202 Y0.4008
G01 X59.5220 Y0.4252
G01 X59.5244 Y0.4742
G01 X59.5250 Y0.5000
G01 X59.5250 Y3.9750
G01 X63.0123 Y3.9751
G01 X63.2218 Y3.9853
G01 X63.2487 Y3.9873
G01 X63.2731 Y3.9903
G01 X63.4672 Y4.0191
G01 X63.4938 Y4.0238
G01 X63.5177 Y4.0292
G01 X63.7081 Y4.0768
G01 X63.7341 Y4.0841
G01 X63.7574 Y4.0918
G01 X63.9422 Y4.1579
G01 X63.9651 Y4.1668
G01 X63.9898 Y4.1776
G01 X64.1673 Y4.2616
G01 X64.1914 Y4.2737
G01 X64.2127 Y4.2858
G01 X64.3811 Y4.3867
G01 X64.4038 Y4.4012
G01 X64.4239 Y4.4154
G01 X64.5815 Y4.5323
G01 X64.6028 Y4.5489
G01 X64.6214 Y4.5650
G01 X64.7668 Y4.6968
G01 X64.7863 Y4.7154
G01 X64.8032 Y4.7332
G01 X64.9350 Y4.8786
G01 X64.9526 Y4.8991
G01 X64.9677 Y4.9185
G01 X65.0846 Y5.0761
G01 X65.1001 Y5.0982
G01 X65.1133 Y5.1189
G01 X65.2142 Y5.2873
G01 X65.2274 Y5.3108
G01 X65.2384 Y5.3327
G01 X65.3224 Y5.5102
G01 X65.3332 Y5.5349
G01 X65.3421 Y5.5578
G01 X65.4082 Y5.7426
G01 X65.4166 Y5.7682
G01 X65.4232 Y5.7919
G01 X65.4708 Y5.9823
G01 X65.4767 Y6.0086
G01 X65.4809 Y6.0328
G01 X65.5097 Y6.2269
G01 X65.5129 Y6.2537
G01 X65.5147 Y6.2782
G01 X65.5244 Y6.4742
G01 X65.5250 Y6.5000
G01 X65.5250 Y17.5000
G01 X65.5244 Y17.5258
G01 X65.5147 Y17.7218
G01 X65.5127 Y17.7487
G01 X65.5097 Y17.7731
G01 X65.4809 Y17.9672
G01 X65.4762 Y17.9938
G01 X65.4708 Y18.0177
G01 X65.4232 Y18.2081
G01 X65.4159 Y18.2341
G01 X65.4082 Y18.2574
G01 X65.3421 Y18.4422
G01 X65.3323 Y18.4674
G01 X65.3224 Y18.4898
G01 X65.2384 Y18.6673
G01 X65.2274 Y18.6892
G01 X65.2142 Y18.7127
G01 X65.1133 Y18.8811
G01 X65.0988 Y18.9038
G01 X65.0846 Y18.9239
G01 X64.9677 Y19.0815
G01 X64.9511 Y19.1028
G01 X64.9350 Y19.1214
G01 X64.8032 Y19.2668
G01 X64.7846 Y19.2863
G01 X64.7668 Y19.3032
G01 X64.6214 Y19.4350
G01 X64.6009 Y19.4526
G01 X64.5815 Y19.4677
G01 X64.4239 Y19.5846
G01 X64.4038 Y19.5988
G01 X64.3811 Y19.6133
G01 X64.2127 Y19.7142
G01 X64.1892 Y19.7274
G01 X64.1673 Y19.7384
G01 X63.9898 Y19.8224
G01 X63.9651 Y19.8332
G01 X63.9422 Y19.8421
G01 X63.7574 Y19.9082
G01 X63.7318 Y19.9166
G01 X63.7081 Y19.9232
G01 X63.5177 Y19.9708
G01 X63.4914 Y19.9767
G01 X63.4672 Y19.9809
G01 X63.2731 Y20.0097
G01 X63.2487 Y20.0127
G01 X63.2218 Y20.0147
G01 X63.0135 Y20.0248
G01 X2.0000 Y20.0250
G01 X1.9742 Y20.0244
G01 X1.7782 Y20.0147
G01 X1.7513 Y20.0127
G01 X1.7269 Y20.0097
G01 X1.5328 Y19.9809
G01 X1.5062 Y19.9762
G01 X1.4823 Y19.9708
G01 X1.2919 Y19.9232
G01 X1.2659 Y19.9159
G01 X1.2426 Y19.9082
G01 X1.0578 Y19.8421
G01 X1.0326 Y19.8323
G01 X1.0102 Y19.8224
G01 X0.8327 Y19.7384
G01 X0.8086 Y19.7263
G01 X0.7873 Y19.7142
G01 X0.6189 Y19.6133
G01 X0.5982 Y19.6001
G01 X0.5761 Y19.5846
G01 X0.4185 Y19.4677
G01 X0.3972 Y19.4511
G01 X0.3786 Y19.4350
G01 X0.2332 Y19.3032
G01 X0.2137 Y19.2846
G01 X0.1968 Y19.2668
G01 X0.0650 Y19.1214
G01 X0.0489 Y19.1028
G01 X0.0323 Y19.0815
G01 X-0.0846 Y18.9239
G01 X-0.1001 Y18.9018
G01 X-0.1133 Y18.8811
G01 X-0.2142 Y18.7127
G01 X-0.2274 Y18.6892
G01 X-0.2384 Y18.6673
G01 X-0.3224 Y18.4898
G01 X-0.3323 Y18.4674
G01 X-0.3421 Y18.4422
G01 X-0.4082 Y18.2574
G01 X-0.4166 Y18.2318
G01 X-0.4232 Y18.2081
G01 X-0.4708 Y18.0177
G01 X-0.4767 Y17.9914
G01 X-0.4809 Y17.9672
G01 X-0.5097 Y17.7731
G01 X-0.5127 Y17.7487
G01 X-0.5147 Y17.7218
G01 X-0.5244 Y17.5258
G01 X-0.5250 Y17.5000
G01 X-0.5250 Y6.5000
G01 X-0.5244 Y6.4742
G01 X-0.5147 Y6.2782
G01 X-0.5127 Y6.2513
G01 X-0.5097 Y6.2269
G01 X-0.4809 Y6.0328
G01 X-0.4762 Y6.0062
G01 X-0.4708 Y5.9823
G01 X-0.4232 Y5.7919
G01 X-0.4159 Y5.7659
G01 X-0.4082 Y5.7426
G01 X-0.3421 Y5.5578
G01 X-0.3323 Y5.5326
G01 X-0.3224 Y5.5102
G01 X-0.2384 Y5.3327
G01 X-0.2263 Y5.3086
G01 X-0.2142 Y5.2873
G01 X-0.1133 Y5.1189
G01 X-0.0988 Y5.0962
G01 X-0.0846 Y5.0761
G01 X0.0323 Y4.9185
G01 X0.0489 Y4.8972
G01 X0.0650 Y4.8786
G01 X0.1968 Y4.7332
G01 X0.2137 Y4.7154
G01 X0.2332 Y4.6968
G01 X0.3786 Y4.5650
G01 X0.3991 Y4.5474
G01 X0.4185 Y4.5323
G01 X0.5761 Y4.4154
G01 X0.5982 Y4.3999
G01 X0.6189 Y4.3867
G01 X0.7873 Y4.2858
G01 X0.8108 Y4.2726
G01 X0.8327 Y4.2616
G01 X1.0102 Y4.1776
G01 X1.0349 Y4.1668
G01 X1.0578 Y4.1579
G01 X1.2426 Y4.0918
G01 X1.2659 Y4.0841
G01 X1.2919 Y4.0768
G01 X1.4823 Y4.0292
G01 X1.5086 Y4.0233
G01 X1.5328 Y4.0191
G01 X1.7269 Y3.9903
G01 X1.7537 Y3.9871
G01 X1.7782 Y3.9853
G01 X1.9865 Y3.9752
G01 X5.4750 Y3.9750
G00 Z2.0000
M05
G00 Z2.0000
G00 Z15.00
G00 X0.0 Y0.0

M05
M09