(G-CODE GENERATED BY FLATCAM v8.991 - www.flatcam.org - Version Date: 2019/12/27)

(Name: 01 - 0-5mm Endmill Isolate)
(Type: G-code from Geometry)
(Units: MM)

(Created on Monday, 16 March 2020 at 11:51)

(TOOL DIAMETER: 0.5 mm)
(Feedrate: 400.0 mm/min)
(Feedrate_Z: 800.0 mm/min)
(Feedrate rapids 1500.0 mm/min)

(Z_Cut: -0.03 mm)
(Z_Move: 2.0 mm)
(Z Toolchange: 15.0 mm)
(X,Y Toolchange: 0.0000, 0.0000 mm)
(Z Start: None mm)
(Z End: 15.0 mm)
(Steps per circle: 64)
(Preprocessor Geometry: default)

(X range:   -0.2151 ...   65.2151  mm)
(Y range:    0.2849 ...   21.2151  mm)

(Spindle Speed: 24000 RPM)
G21
G90
G94

M08


G01 F400.00
G00 Z2.0000

M03 S24000
G00 X1.2102 Y8.4722
G01 F800.00
G01 Z-0.0300
G01 F400.00
G01 X1.2440 Y8.4152
G01 X1.3499 Y8.3445
G01 X1.9144 Y8.0697
G01 X2.5069 Y7.9142
G01 X3.1184 Y7.8773
G01 X3.7253 Y7.9604
G01 X4.3044 Y8.1603
G01 X4.7642 Y8.4290
G01 X4.7898 Y8.4722
G01 X4.7323 Y8.4295
G01 X4.7119 Y8.4159
G01 X4.4720 Y8.2721
G01 X4.4504 Y8.2605
G01 X4.1975 Y8.1409
G01 X4.1749 Y8.1316
G01 X3.9115 Y8.0373
G01 X3.8881 Y8.0302
G01 X3.6168 Y7.9623
G01 X3.5927 Y7.9575
G01 X3.3160 Y7.9164
G01 X3.2916 Y7.9140
G01 X3.0123 Y7.9003
G01 X2.9877 Y7.9003
G01 X2.7084 Y7.9140
G01 X2.6840 Y7.9164
G01 X2.4073 Y7.9575
G01 X2.3832 Y7.9623
G01 X2.1119 Y8.0302
G01 X2.0885 Y8.0373
G01 X1.8251 Y8.1316
G01 X1.8025 Y8.1409
G01 X1.5496 Y8.2605
G01 X1.5280 Y8.2721
G01 X1.2881 Y8.4159
G01 X1.2677 Y8.4295
G01 X1.2102 Y8.4722
G00 Z2.0000
G00 X0.4797 Y9.2001
G01 F800.00
G01 Z-0.0300
G01 F400.00
G01 X0.4613 Y9.2075
G01 X0.4376 Y9.2158
G01 X0.4136 Y9.2228
G01 X0.3892 Y9.2287
G01 X0.3645 Y9.2333
G01 X0.3397 Y9.2366
G01 X0.3147 Y9.2387
G01 X0.2896 Y9.2396
G01 X0.2645 Y9.2392
G01 X0.2395 Y9.2376
G01 X0.2146 Y9.2346
G01 X0.1899 Y9.2305
G01 X0.1654 Y9.2251
G01 X0.1412 Y9.2185
G01 X0.1174 Y9.2107
G01 X0.0940 Y9.2017
G01 X0.0710 Y9.1915
G01 X0.0487 Y9.1802
G01 X0.0269 Y9.1678
G01 X0.0057 Y9.1544
G01 X-0.0147 Y9.1398
G01 X-0.0344 Y9.1243
G01 X-0.0533 Y9.1078
G01 X-0.0713 Y9.0904
G01 X-0.0885 Y9.0721
G01 X-0.1046 Y9.0529
G01 X-0.1199 Y9.0330
G01 X-0.1341 Y9.0123
G01 X-0.1472 Y8.9910
G01 X-0.1593 Y8.9690
G01 X-0.1702 Y8.9464
G01 X-0.1800 Y8.9233
G01 X-0.1886 Y8.8998
G01 X-0.1961 Y8.8759
G01 X-0.2023 Y8.8516
G01 X-0.2073 Y8.8270
G01 X-0.2110 Y8.8022
G01 X-0.2136 Y8.7772
G01 X-0.2151 Y8.7397
G01 X-0.2151 Y6.5384
G01 X-0.2136 Y6.5018
G01 X-0.2127 Y6.4896
G01 X-0.1859 Y6.2159
G01 X-0.1808 Y6.1796
G01 X-0.1761 Y6.1557
G01 X-0.1669 Y6.1202
G01 X-0.0986 Y5.8939
G01 X-0.0866 Y5.8593
G01 X-0.0773 Y5.8367
G01 X-0.0614 Y5.8036
G01 X0.0496 Y5.5949
G01 X0.0681 Y5.5633
G01 X0.0816 Y5.5429
G01 X0.1036 Y5.5136
G01 X0.2530 Y5.3304
G01 X0.2773 Y5.3030
G01 X0.2945 Y5.2857
G01 X0.3218 Y5.2612
G01 X0.5039 Y5.1105
G01 X0.5331 Y5.0883
G01 X0.5533 Y5.0746
G01 X0.5848 Y5.0559
G01 X0.7928 Y4.9435
G01 X0.8257 Y4.9274
G01 X0.8482 Y4.9179
G01 X0.8827 Y4.9057
G01 X1.1086 Y4.8357
G01 X1.1440 Y4.8263
G01 X1.1679 Y4.8214
G01 X1.2042 Y4.8161
G01 X1.4754 Y4.7876
G01 X1.4884 Y4.7866
G01 X1.5276 Y4.7849
G01 X5.5140 Y4.7849
G01 X5.5350 Y4.7831
G01 X5.6060 Y4.7757
G01 X5.6535 Y4.7659
G01 X5.7017 Y4.7567
G01 X5.7546 Y4.7403
G01 X5.7993 Y4.7215
G01 X5.8448 Y4.7031
G01 X5.8936 Y4.6767
G01 X5.9338 Y4.6496
G01 X5.9748 Y4.6227
G01 X6.0175 Y4.5874
G01 X6.0517 Y4.5530
G01 X6.0867 Y4.5187
G01 X6.1218 Y4.4757
G01 X6.1486 Y4.4354
G01 X6.1763 Y4.3948
G01 X6.2023 Y4.3459
G01 X6.2208 Y4.3011
G01 X6.2401 Y4.2559
G01 X6.2561 Y4.2029
G01 X6.2655 Y4.1554
G01 X6.2757 Y4.1073
G01 X6.2849 Y4.0140
G01 X6.2849 Y0.7850
G01 X6.2864 Y0.7482
G01 X6.2888 Y0.7238
G01 X6.2924 Y0.6995
G01 X6.2972 Y0.6755
G01 X6.3031 Y0.6516
G01 X6.3103 Y0.6282
G01 X6.3185 Y0.6051
G01 X6.3279 Y0.5824
G01 X6.3384 Y0.5602
G01 X6.3500 Y0.5386
G01 X6.3626 Y0.5175
G01 X6.3762 Y0.4971
G01 X6.3908 Y0.4774
G01 X6.4064 Y0.4584
G01 X6.4229 Y0.4402
G01 X6.4402 Y0.4229
G01 X6.4584 Y0.4064
G01 X6.4774 Y0.3908
G01 X6.4971 Y0.3762
G01 X6.5175 Y0.3626
G01 X6.5386 Y0.3500
G01 X6.5602 Y0.3384
G01 X6.5824 Y0.3279
G01 X6.6051 Y0.3185
G01 X6.6282 Y0.3103
G01 X6.6516 Y0.3031
G01 X6.6755 Y0.2972
G01 X6.6995 Y0.2924
G01 X6.7238 Y0.2888
G01 X6.7482 Y0.2864
G01 X6.7850 Y0.2849
G01 X11.7562 Y0.2849
G01 X11.7930 Y0.2864
G01 X11.8174 Y0.2888
G01 X11.8417 Y0.2924
G01 X11.8658 Y0.2972
G01 X11.8896 Y0.3031
G01 X11.9130 Y0.3103
G01 X11.9362 Y0.3185
G01 X11.9588 Y0.3279
G01 X11.9810 Y0.3384
G01 X12.0027 Y0.3500
G01 X12.0237 Y0.3626
G01 X12.0441 Y0.3762
G01 X12.0638 Y0.3908
G01 X12.0828 Y0.4064
G01 X12.1010 Y0.4229
G01 X12.1183 Y0.4402
G01 X12.1348 Y0.4584
G01 X12.1504 Y0.4774
G01 X12.1650 Y0.4971
G01 X12.1786 Y0.5175
G01 X12.1912 Y0.5386
G01 X12.2028 Y0.5602
G01 X12.2133 Y0.5824
G01 X12.2227 Y0.6051
G01 X12.2310 Y0.6282
G01 X12.2381 Y0.6516
G01 X12.2440 Y0.6755
G01 X12.2488 Y0.6995
G01 X12.2524 Y0.7238
G01 X12.2548 Y0.7482
G01 X12.2560 Y0.7727
G01 X12.2560 Y0.7973
G01 X12.2548 Y0.8218
G01 X12.2524 Y0.8462
G01 X12.2488 Y0.8705
G01 X12.2440 Y0.8945
G01 X12.2348 Y0.9302
G01 X12.1901 Y1.0777
G01 X12.1754 Y1.2266
G01 X12.1776 Y1.2518
G01 X12.1791 Y1.2885
G01 X12.1791 Y2.0553
G01 X12.1776 Y2.0921
G01 X12.1752 Y2.1165
G01 X12.1716 Y2.1408
G01 X12.1668 Y2.1648
G01 X12.1608 Y2.1886
G01 X12.1537 Y2.2121
G01 X12.1454 Y2.2352
G01 X12.1360 Y2.2579
G01 X12.1255 Y2.2801
G01 X12.1140 Y2.3017
G01 X12.1013 Y2.3228
G01 X12.0877 Y2.3432
G01 X12.0655 Y2.3726
G01 X11.9699 Y2.4891
G01 X11.8622 Y2.6906
G01 X11.7959 Y2.9093
G01 X11.7791 Y3.0797
G01 X11.7791 Y4.9959
G01 X11.7805 Y5.0237
G01 X11.7805 Y5.0482
G01 X11.7793 Y5.0727
G01 X11.7769 Y5.0971
G01 X11.7733 Y5.1214
G01 X11.7685 Y5.1455
G01 X11.7625 Y5.1693
G01 X11.7554 Y5.1927
G01 X11.7472 Y5.2159
G01 X11.7378 Y5.2385
G01 X11.7273 Y5.2607
G01 X11.7157 Y5.2824
G01 X11.7031 Y5.3034
G01 X11.6895 Y5.3238
G01 X11.6748 Y5.3435
G01 X11.6593 Y5.3625
G01 X11.6428 Y5.3807
G01 X11.6254 Y5.3980
G01 X11.6073 Y5.4145
G01 X11.5883 Y5.4301
G01 X11.5686 Y5.4447
G01 X11.5482 Y5.4583
G01 X11.5271 Y5.4709
G01 X11.5055 Y5.4825
G01 X11.4833 Y5.4930
G01 X11.4606 Y5.5024
G01 X11.4375 Y5.5107
G01 X11.4140 Y5.5178
G01 X11.3902 Y5.5237
G01 X11.3662 Y5.5285
G01 X11.3419 Y5.5321
G01 X11.3175 Y5.5345
G01 X11.2930 Y5.5357
G01 X11.2684 Y5.5357
G01 X11.2439 Y5.5345
G01 X11.2195 Y5.5321
G01 X11.1952 Y5.5285
G01 X11.1711 Y5.5237
G01 X11.1473 Y5.5178
G01 X11.1239 Y5.5107
G01 X11.1007 Y5.5024
G01 X11.0781 Y5.4930
G01 X11.0559 Y5.4825
G01 X11.0343 Y5.4709
G01 X11.0132 Y5.4583
G01 X10.9928 Y5.4447
G01 X10.9731 Y5.4301
G01 X10.9541 Y5.4145
G01 X10.9270 Y5.3896
G01 X10.4353 Y4.8978
G01 X10.4104 Y4.8707
G01 X10.3948 Y4.8518
G01 X10.3802 Y4.8321
G01 X10.3665 Y4.8117
G01 X10.3539 Y4.7906
G01 X10.3424 Y4.7690
G01 X10.3319 Y4.7468
G01 X10.3225 Y4.7241
G01 X10.3142 Y4.7010
G01 X10.3071 Y4.6775
G01 X10.3011 Y4.6537
G01 X10.2963 Y4.6296
G01 X10.2927 Y4.6054
G01 X10.2903 Y4.5810
G01 X10.2891 Y4.5564
G01 X10.2888 Y4.5442
G01 X10.2888 Y3.0797
G01 X10.2720 Y2.9093
G01 X10.2057 Y2.6906
G01 X10.0980 Y2.4891
G01 X9.9531 Y2.3125
G01 X9.7765 Y2.1676
G01 X9.5750 Y2.0599
G01 X9.3563 Y1.9936
G01 X9.1289 Y1.9712
G01 X8.9016 Y1.9936
G01 X8.6829 Y2.0599
G01 X8.4814 Y2.1676
G01 X8.3048 Y2.3125
G01 X8.1599 Y2.4891
G01 X8.0522 Y2.6906
G01 X7.9859 Y2.9093
G01 X7.9691 Y3.0797
G01 X7.9691 Y4.9936
G01 X7.9859 Y5.1640
G01 X8.0522 Y5.3827
G01 X8.1599 Y5.5842
G01 X8.3048 Y5.7608
G01 X8.4814 Y5.9057
G01 X8.6829 Y6.0134
G01 X8.9016 Y6.0797
G01 X9.1289 Y6.1021
G01 X9.3563 Y6.0797
G01 X9.4807 Y6.0420
G01 X9.5163 Y6.0328
G01 X9.5404 Y6.0280
G01 X9.5646 Y6.0244
G01 X9.5891 Y6.0220
G01 X9.6136 Y6.0208
G01 X9.6381 Y6.0208
G01 X9.6626 Y6.0220
G01 X9.6870 Y6.0244
G01 X9.7113 Y6.0280
G01 X9.7354 Y6.0328
G01 X9.7592 Y6.0388
G01 X9.7827 Y6.0459
G01 X9.8058 Y6.0541
G01 X9.8284 Y6.0635
G01 X9.8506 Y6.0740
G01 X9.8723 Y6.0856
G01 X9.8933 Y6.0982
G01 X9.9137 Y6.1118
G01 X9.9334 Y6.1265
G01 X9.9524 Y6.1420
G01 X9.9795 Y6.1670
G01 X11.0142 Y7.2017
G01 X11.0391 Y7.2287
G01 X11.0547 Y7.2477
G01 X11.0693 Y7.2673
G01 X11.0829 Y7.2877
G01 X11.0955 Y7.3087
G01 X11.1070 Y7.3303
G01 X11.1175 Y7.3524
G01 X11.1269 Y7.3750
G01 X11.1352 Y7.3981
G01 X11.1423 Y7.4215
G01 X11.1483 Y7.4453
G01 X11.1531 Y7.4693
G01 X11.1567 Y7.4935
G01 X11.1592 Y7.5179
G01 X11.1604 Y7.5424
G01 X11.1604 Y7.5668
G01 X11.1593 Y7.5913
G01 X11.1569 Y7.6157
G01 X11.1534 Y7.6399
G01 X11.1486 Y7.6640
G01 X11.1427 Y7.6877
G01 X11.1357 Y7.7112
G01 X11.1275 Y7.7343
G01 X11.1182 Y7.7569
G01 X11.1077 Y7.7791
G01 X11.0962 Y7.8007
G01 X11.0837 Y7.8217
G01 X11.0702 Y7.8421
G01 X11.0556 Y7.8619
G01 X11.0401 Y7.8808
G01 X11.0237 Y7.8990
G01 X11.0065 Y7.9164
G01 X10.9884 Y7.9329
G01 X10.9695 Y7.9485
G01 X10.9499 Y7.9632
G01 X10.9296 Y7.9768
G01 X10.9213 Y7.9818
G01 X10.9213 Y8.0656
G01 X11.4068 Y8.0656
G01 X11.4313 Y8.0668
G01 X11.4556 Y8.0704
G01 X11.4794 Y8.0764
G01 X11.5025 Y8.0846
G01 X11.5246 Y8.0951
G01 X11.5457 Y8.1077
G01 X11.5654 Y8.1223
G01 X11.5836 Y8.1388
G01 X11.6001 Y8.1570
G01 X11.6147 Y8.1767
G01 X11.6273 Y8.1978
G01 X11.6378 Y8.2199
G01 X11.6460 Y8.2430
G01 X11.6520 Y8.2668
G01 X11.6556 Y8.2911
G01 X11.6568 Y8.3156
G01 X11.6568 Y8.8744
G01 X11.6556 Y8.8989
G01 X11.6520 Y8.9232
G01 X11.6460 Y8.9470
G01 X11.6378 Y8.9701
G01 X11.6273 Y8.9922
G01 X11.6147 Y9.0133
G01 X11.6001 Y9.0330
G01 X11.5836 Y9.0512
G01 X11.5654 Y9.0677
G01 X11.5457 Y9.0823
G01 X11.5246 Y9.0949
G01 X11.5025 Y9.1054
G01 X11.4794 Y9.1136
G01 X11.4556 Y9.1196
G01 X11.4313 Y9.1232
G01 X11.4068 Y9.1244
G01 X9.4256 Y9.1244
G01 X9.4011 Y9.1232
G01 X9.3768 Y9.1196
G01 X9.3530 Y9.1136
G01 X9.3299 Y9.1054
G01 X9.3188 Y9.1001
G01 X9.2367 Y9.1001
G01 X9.2417 Y9.1205
G01 X9.2465 Y9.1445
G01 X9.2501 Y9.1688
G01 X9.2525 Y9.1932
G01 X9.2537 Y9.2177
G01 X9.2537 Y9.2423
G01 X9.2525 Y9.2668
G01 X9.2501 Y9.2912
G01 X9.2465 Y9.3155
G01 X9.2417 Y9.3395
G01 X9.2358 Y9.3634
G01 X9.2287 Y9.3868
G01 X9.2204 Y9.4099
G01 X9.2110 Y9.4326
G01 X9.2005 Y9.4548
G01 X9.1843 Y9.4857
G01 X9.1695 Y9.5347
G01 X9.1620 Y9.6102
G01 X9.1620 Y10.1198
G01 X9.1695 Y10.1953
G01 X9.1843 Y10.2443
G01 X9.2005 Y10.2752
G01 X9.2110 Y10.2974
G01 X9.2204 Y10.3201
G01 X9.2287 Y10.3432
G01 X9.2358 Y10.3666
G01 X9.2417 Y10.3905
G01 X9.2465 Y10.4145
G01 X9.2501 Y10.4388
G01 X9.2525 Y10.4632
G01 X9.2537 Y10.4877
G01 X9.2537 Y10.5123
G01 X9.2525 Y10.5368
G01 X9.2501 Y10.5612
G01 X9.2465 Y10.5855
G01 X9.2417 Y10.6095
G01 X9.2358 Y10.6334
G01 X9.2287 Y10.6568
G01 X9.2204 Y10.6799
G01 X9.2110 Y10.7026
G01 X9.2005 Y10.7248
G01 X9.1843 Y10.7557
G01 X9.1695 Y10.8047
G01 X9.1620 Y10.8802
G01 X9.1620 Y11.3898
G01 X9.1695 Y11.4653
G01 X9.1843 Y11.5143
G01 X9.2005 Y11.5452
G01 X9.2110 Y11.5674
G01 X9.2204 Y11.5901
G01 X9.2287 Y11.6132
G01 X9.2358 Y11.6366
G01 X9.2417 Y11.6605
G01 X9.2465 Y11.6845
G01 X9.2501 Y11.7088
G01 X9.2525 Y11.7332
G01 X9.2537 Y11.7577
G01 X9.2537 Y11.7823
G01 X9.2525 Y11.8068
G01 X9.2501 Y11.8312
G01 X9.2465 Y11.8555
G01 X9.2417 Y11.8795
G01 X9.2358 Y11.9034
G01 X9.2287 Y11.9268
G01 X9.2204 Y11.9499
G01 X9.2110 Y11.9726
G01 X9.2005 Y11.9948
G01 X9.1843 Y12.0257
G01 X9.1695 Y12.0747
G01 X9.1620 Y12.1502
G01 X9.1620 Y12.6598
G01 X9.1695 Y12.7353
G01 X9.1843 Y12.7843
G01 X9.2085 Y12.8295
G01 X9.2410 Y12.8690
G01 X9.2805 Y12.9015
G01 X9.3257 Y12.9257
G01 X9.3747 Y12.9405
G01 X9.4502 Y12.9480
G01 X9.8895 Y12.9480
G01 X9.9263 Y12.9495
G01 X9.9507 Y12.9519
G01 X9.9750 Y12.9555
G01 X9.9990 Y12.9603
G01 X10.0229 Y12.9662
G01 X10.0463 Y12.9733
G01 X10.0694 Y12.9816
G01 X10.0921 Y12.9910
G01 X10.1143 Y13.0015
G01 X10.1359 Y13.0131
G01 X10.1570 Y13.0257
G01 X10.1774 Y13.0393
G01 X10.1971 Y13.0539
G01 X10.2161 Y13.0695
G01 X10.2431 Y13.0944
G01 X10.7936 Y13.6449
G01 X10.8186 Y13.6720
G01 X10.8342 Y13.6910
G01 X10.8488 Y13.7107
G01 X10.8624 Y13.7311
G01 X10.8750 Y13.7521
G01 X10.8866 Y13.7738
G01 X10.8971 Y13.7960
G01 X10.9065 Y13.8186
G01 X10.9147 Y13.8417
G01 X10.9219 Y13.8652
G01 X10.9278 Y13.8890
G01 X10.9326 Y13.9131
G01 X10.9362 Y13.9374
G01 X10.9386 Y13.9618
G01 X10.9401 Y13.9986
G01 X10.9401 Y16.0831
G01 X10.9386 Y16.1199
G01 X10.9362 Y16.1443
G01 X10.9326 Y16.1686
G01 X10.9278 Y16.1927
G01 X10.9219 Y16.2165
G01 X10.9147 Y16.2399
G01 X10.9065 Y16.2631
G01 X10.8971 Y16.2857
G01 X10.8866 Y16.3079
G01 X10.8750 Y16.3295
G01 X10.8624 Y16.3506
G01 X10.8488 Y16.3710
G01 X10.8342 Y16.3907
G01 X10.8186 Y16.4097
G01 X10.7936 Y16.4368
G01 X10.6879 Y16.5425
G01 X10.5664 Y16.7243
G01 X10.4828 Y16.9263
G01 X10.4401 Y17.1407
G01 X10.4401 Y17.3593
G01 X10.4828 Y17.5737
G01 X10.5664 Y17.7757
G01 X10.6879 Y17.9575
G01 X10.8425 Y18.1121
G01 X11.0243 Y18.2336
G01 X11.2263 Y18.3172
G01 X11.4407 Y18.3599
G01 X11.6593 Y18.3599
G01 X11.8737 Y18.3172
G01 X12.0757 Y18.2336
G01 X12.2575 Y18.1121
G01 X12.4140 Y17.9556
G01 X12.4258 Y17.9396
G01 X12.4414 Y17.9207
G01 X12.4579 Y17.9025
G01 X12.4752 Y17.8851
G01 X12.4934 Y17.8686
G01 X12.5124 Y17.8531
G01 X12.5321 Y17.8385
G01 X12.5525 Y17.8248
G01 X12.5736 Y17.8122
G01 X12.5952 Y17.8006
G01 X12.6174 Y17.7902
G01 X12.6401 Y17.7808
G01 X12.6632 Y17.7725
G01 X12.6866 Y17.7654
G01 X12.7105 Y17.7594
G01 X12.7345 Y17.7546
G01 X12.7588 Y17.7510
G01 X12.7832 Y17.7486
G01 X12.8077 Y17.7474
G01 X12.8323 Y17.7474
G01 X12.8568 Y17.7486
G01 X12.8812 Y17.7510
G01 X12.9055 Y17.7546
G01 X12.9295 Y17.7594
G01 X12.9534 Y17.7654
G01 X12.9768 Y17.7725
G01 X12.9999 Y17.7808
G01 X13.0226 Y17.7902
G01 X13.0448 Y17.8006
G01 X13.0664 Y17.8122
G01 X13.0875 Y17.8248
G01 X13.1079 Y17.8385
G01 X13.1276 Y17.8531
G01 X13.1466 Y17.8686
G01 X13.1648 Y17.8851
G01 X13.1821 Y17.9025
G01 X13.1986 Y17.9207
G01 X13.2142 Y17.9396
G01 X13.2260 Y17.9556
G01 X13.3825 Y18.1121
G01 X13.5643 Y18.2336
G01 X13.7663 Y18.3172
G01 X13.9807 Y18.3599
G01 X14.1993 Y18.3599
G01 X14.4137 Y18.3172
G01 X14.6157 Y18.2336
G01 X14.7975 Y18.1121
G01 X14.9540 Y17.9556
G01 X14.9658 Y17.9396
G01 X14.9814 Y17.9207
G01 X14.9979 Y17.9025
G01 X15.0152 Y17.8851
G01 X15.0334 Y17.8686
G01 X15.0524 Y17.8531
G01 X15.0721 Y17.8385
G01 X15.0925 Y17.8248
G01 X15.1136 Y17.8122
G01 X15.1352 Y17.8006
G01 X15.1574 Y17.7902
G01 X15.1801 Y17.7808
G01 X15.2032 Y17.7725
G01 X15.2266 Y17.7654
G01 X15.2505 Y17.7594
G01 X15.2745 Y17.7546
G01 X15.2988 Y17.7510
G01 X15.3232 Y17.7486
G01 X15.3477 Y17.7474
G01 X15.3723 Y17.7474
G01 X15.3968 Y17.7486
G01 X15.4212 Y17.7510
G01 X15.4455 Y17.7546
G01 X15.4695 Y17.7594
G01 X15.4934 Y17.7654
G01 X15.5168 Y17.7725
G01 X15.5399 Y17.7808
G01 X15.5626 Y17.7902
G01 X15.5848 Y17.8006
G01 X15.6064 Y17.8122
G01 X15.6275 Y17.8248
G01 X15.6479 Y17.8385
G01 X15.6676 Y17.8531
G01 X15.6866 Y17.8686
G01 X15.7048 Y17.8851
G01 X15.7221 Y17.9025
G01 X15.7386 Y17.9207
G01 X15.7542 Y17.9396
G01 X15.7660 Y17.9556
G01 X15.9225 Y18.1121
G01 X16.1043 Y18.2336
G01 X16.3063 Y18.3172
G01 X16.5207 Y18.3599
G01 X16.7393 Y18.3599
G01 X16.9537 Y18.3172
G01 X17.1557 Y18.2336
G01 X17.3375 Y18.1121
G01 X17.4922 Y17.9574
G01 X17.5135 Y17.9282
G01 X17.5294 Y17.9089
G01 X17.5463 Y17.8905
G01 X17.5640 Y17.8728
G01 X17.5827 Y17.8561
G01 X17.6021 Y17.8404
G01 X17.6223 Y17.8256
G01 X17.6432 Y17.8119
G01 X17.6647 Y17.7992
G01 X17.6869 Y17.7876
G01 X17.7096 Y17.7771
G01 X17.7329 Y17.7678
G01 X17.7565 Y17.7597
G01 X17.7805 Y17.7528
G01 X17.8049 Y17.7470
G01 X17.8295 Y17.7425
G01 X17.8543 Y17.7392
G01 X17.8792 Y17.7372
G01 X17.9042 Y17.7364
G01 X17.9292 Y17.7369
G01 X17.9542 Y17.7386
G01 X17.9790 Y17.7416
G01 X18.0037 Y17.7458
G01 X18.0281 Y17.7513
G01 X18.0522 Y17.7579
G01 X18.0760 Y17.7658
G01 X18.0993 Y17.7748
G01 X18.1222 Y17.7850
G01 X18.1445 Y17.7963
G01 X18.1662 Y17.8087
G01 X18.1873 Y17.8222
G01 X18.2076 Y17.8367
G01 X18.2272 Y17.8523
G01 X18.2460 Y17.8687
G01 X18.2640 Y17.8862
G01 X18.2811 Y17.9044
G01 X18.2972 Y17.9236
G01 X18.3051 Y17.9333
G01 X18.3591 Y18.0043
G01 X18.4197 Y18.0578
G01 X18.4197 Y18.0532
G01 X18.4011 Y18.0363
G01 X18.3837 Y18.0189
G01 X18.3277 Y17.9571
G01 X18.3121 Y17.9382
G01 X18.2624 Y17.8712
G01 X18.2488 Y17.8508
G01 X18.2059 Y17.7792
G01 X18.1944 Y17.7576
G01 X18.1587 Y17.6822
G01 X18.1493 Y17.6595
G01 X18.1212 Y17.5810
G01 X18.1141 Y17.5575
G01 X18.0938 Y17.4766
G01 X18.0890 Y17.4525
G01 X18.0768 Y17.3700
G01 X18.0744 Y17.3456
G01 X18.0703 Y17.2623
G01 X18.0703 Y17.2377
G01 X18.0744 Y17.1544
G01 X18.0768 Y17.1300
G01 X18.0890 Y17.0475
G01 X18.0938 Y17.0234
G01 X18.1141 Y16.9425
G01 X18.1212 Y16.9190
G01 X18.1493 Y16.8405
G01 X18.1587 Y16.8178
G01 X18.1944 Y16.7424
G01 X18.2059 Y16.7208
G01 X18.2488 Y16.6492
G01 X18.2624 Y16.6288
G01 X18.3121 Y16.5618
G01 X18.3277 Y16.5429
G01 X18.3837 Y16.4811
G01 X18.4011 Y16.4637
G01 X18.4197 Y16.4468
G01 X18.4197 Y16.4422
G01 X18.3591 Y16.4957
G01 X18.3051 Y16.5667
G01 X18.2972 Y16.5764
G01 X18.2811 Y16.5956
G01 X18.2640 Y16.6138
G01 X18.2460 Y16.6313
G01 X18.2272 Y16.6477
G01 X18.2076 Y16.6633
G01 X18.1873 Y16.6778
G01 X18.1662 Y16.6913
G01 X18.1445 Y16.7037
G01 X18.1222 Y16.7150
G01 X18.0993 Y16.7252
G01 X18.0760 Y16.7342
G01 X18.0522 Y16.7421
G01 X18.0281 Y16.7487
G01 X18.0037 Y16.7542
G01 X17.9790 Y16.7584
G01 X17.9542 Y16.7614
G01 X17.9292 Y16.7631
G01 X17.9042 Y16.7636
G01 X17.8792 Y16.7628
G01 X17.8543 Y16.7608
G01 X17.8295 Y16.7575
G01 X17.8049 Y16.7530
G01 X17.7805 Y16.7472
G01 X17.7565 Y16.7403
G01 X17.7329 Y16.7322
G01 X17.7096 Y16.7229
G01 X17.6869 Y16.7124
G01 X17.6647 Y16.7008
G01 X17.6432 Y16.6881
G01 X17.6223 Y16.6744
G01 X17.6021 Y16.6596
G01 X17.5827 Y16.6439
G01 X17.5640 Y16.6272
G01 X17.5463 Y16.6095
G01 X17.5294 Y16.5911
G01 X17.5135 Y16.5717
G01 X17.4986 Y16.5517
G01 X17.4742 Y16.5156
G01 X17.4550 Y16.4842
G01 X17.4434 Y16.4626
G01 X17.4329 Y16.4404
G01 X17.4235 Y16.4177
G01 X17.4153 Y16.3946
G01 X17.4081 Y16.3711
G01 X17.4022 Y16.3473
G01 X17.3974 Y16.3233
G01 X17.3938 Y16.2990
G01 X17.3914 Y16.2746
G01 X17.3899 Y16.2378
G01 X17.3899 Y14.2169
G01 X17.3914 Y14.1801
G01 X17.3938 Y14.1557
G01 X17.3974 Y14.1314
G01 X17.4022 Y14.1074
G01 X17.4081 Y14.0836
G01 X17.4153 Y14.0601
G01 X17.4235 Y14.0370
G01 X17.4329 Y14.0143
G01 X17.4434 Y13.9921
G01 X17.4550 Y13.9705
G01 X17.4676 Y13.9494
G01 X17.4812 Y13.9290
G01 X17.4958 Y13.9093
G01 X17.5114 Y13.8903
G01 X17.5279 Y13.8722
G01 X17.5364 Y13.8633
G01 X17.8896 Y13.5100
G01 X17.9167 Y13.4851
G01 X17.9356 Y13.4695
G01 X17.9553 Y13.4549
G01 X17.9757 Y13.4413
G01 X17.9968 Y13.4287
G01 X18.0184 Y13.4171
G01 X18.0406 Y13.4066
G01 X18.0633 Y13.3972
G01 X18.0864 Y13.3889
G01 X18.1099 Y13.3818
G01 X18.1337 Y13.3759
G01 X18.1578 Y13.3711
G01 X18.1820 Y13.3675
G01 X18.2064 Y13.3651
G01 X18.2138 Y13.3647
G01 X18.3497 Y13.3513
G01 X18.4456 Y13.3222
G01 X18.5340 Y13.2750
G01 X18.5612 Y13.2531
G01 X18.5809 Y13.2384
G01 X18.6013 Y13.2248
G01 X18.6223 Y13.2122
G01 X18.6440 Y13.2006
G01 X18.6662 Y13.1901
G01 X18.6888 Y13.1807
G01 X18.7119 Y13.1725
G01 X18.7354 Y13.1653
G01 X18.7592 Y13.1594
G01 X18.7833 Y13.1546
G01 X18.8076 Y13.1510
G01 X18.8320 Y13.1486
G01 X18.8565 Y13.1474
G01 X18.8810 Y13.1474
G01 X18.9056 Y13.1486
G01 X18.9300 Y13.1510
G01 X18.9543 Y13.1546
G01 X18.9783 Y13.1594
G01 X19.0021 Y13.1653
G01 X19.0256 Y13.1725
G01 X19.0487 Y13.1807
G01 X19.0714 Y13.1901
G01 X19.0936 Y13.2006
G01 X19.1152 Y13.2122
G01 X19.1363 Y13.2248
G01 X19.1567 Y13.2384
G01 X19.1764 Y13.2531
G01 X19.1861 Y13.2606
G01 X19.2549 Y13.3171
G01 X19.3001 Y13.3413
G01 X19.3491 Y13.3561
G01 X19.4222 Y13.3633
G01 X19.4699 Y13.3629
G01 X19.4699 Y13.3163
G01 X19.4474 Y13.3070
G01 X19.4253 Y13.2965
G01 X19.4036 Y13.2849
G01 X19.3826 Y13.2723
G01 X19.3622 Y13.2587
G01 X19.3425 Y13.2441
G01 X19.3235 Y13.2285
G01 X19.3053 Y13.2120
G01 X19.2880 Y13.1947
G01 X19.2715 Y13.1765
G01 X19.2559 Y13.1575
G01 X19.2413 Y13.1378
G01 X19.2277 Y13.1174
G01 X19.2151 Y13.0964
G01 X19.2035 Y13.0747
G01 X19.1930 Y13.0526
G01 X19.1836 Y13.0299
G01 X19.1754 Y13.0068
G01 X19.1683 Y12.9833
G01 X19.1623 Y12.9595
G01 X19.1575 Y12.9355
G01 X19.1539 Y12.9112
G01 X19.1515 Y12.8868
G01 X19.1500 Y12.8500
G01 X19.1500 Y11.9500
G01 X19.1515 Y11.9132
G01 X19.1539 Y11.8888
G01 X19.1575 Y11.8645
G01 X19.1623 Y11.8405
G01 X19.1683 Y11.8167
G01 X19.1754 Y11.7932
G01 X19.1836 Y11.7701
G01 X19.1930 Y11.7474
G01 X19.2035 Y11.7253
G01 X19.2151 Y11.7036
G01 X19.2277 Y11.6826
G01 X19.2413 Y11.6622
G01 X19.2559 Y11.6425
G01 X19.2715 Y11.6235
G01 X19.2880 Y11.6053
G01 X19.3053 Y11.5880
G01 X19.3235 Y11.5715
G01 X19.3425 Y11.5559
G01 X19.3622 Y11.5413
G01 X19.3826 Y11.5277
G01 X19.4036 Y11.5151
G01 X19.4253 Y11.5035
G01 X19.4474 Y11.4930
G01 X19.4701 Y11.4836
G01 X19.4932 Y11.4754
G01 X19.5167 Y11.4683
G01 X19.5405 Y11.4623
G01 X19.5645 Y11.4575
G01 X19.5888 Y11.4539
G01 X19.6132 Y11.4515
G01 X19.6500 Y11.4500
G01 X19.7733 Y11.4500
G01 X19.7579 Y11.4386
G01 X19.7390 Y11.4231
G01 X19.7208 Y11.4066
G01 X19.7034 Y11.3892
G01 X19.6869 Y11.3710
G01 X19.6714 Y11.3521
G01 X19.6568 Y11.3324
G01 X19.6431 Y11.3120
G01 X19.6305 Y11.2909
G01 X19.6189 Y11.2693
G01 X19.6085 Y11.2471
G01 X19.5991 Y11.2244
G01 X19.5908 Y11.2013
G01 X19.5837 Y11.1778
G01 X19.5777 Y11.1540
G01 X19.5729 Y11.1299
G01 X19.5693 Y11.1057
G01 X19.5669 Y11.0812
G01 X19.5657 Y11.0567
G01 X19.5657 Y11.0322
G01 X19.5678 Y10.9954
G01 X19.5869 Y10.8016
G01 X19.5847 Y10.7765
G01 X19.5832 Y10.7397
G01 X19.5832 Y2.4866
G01 X19.5847 Y2.4499
G01 X19.5871 Y2.4254
G01 X19.5907 Y2.4012
G01 X19.5955 Y2.3771
G01 X19.6015 Y2.3533
G01 X19.6086 Y2.3298
G01 X19.6169 Y2.3067
G01 X19.6263 Y2.2840
G01 X19.6368 Y2.2618
G01 X19.6483 Y2.2402
G01 X19.6610 Y2.2192
G01 X19.6746 Y2.1988
G01 X19.6892 Y2.1790
G01 X19.7048 Y2.1601
G01 X19.7213 Y2.1419
G01 X19.7386 Y2.1245
G01 X19.7568 Y2.1081
G01 X19.7758 Y2.0925
G01 X19.7955 Y2.0779
G01 X19.8159 Y2.0642
G01 X19.8369 Y2.0516
G01 X19.8586 Y2.0401
G01 X19.8807 Y2.0296
G01 X19.9034 Y2.0202
G01 X19.9265 Y2.0119
G01 X19.9500 Y2.0048
G01 X19.9738 Y1.9988
G01 X19.9979 Y1.9940
G01 X20.0222 Y1.9904
G01 X20.0466 Y1.9880
G01 X20.0711 Y1.9868
G01 X20.0834 Y1.9865
G01 X20.6341 Y1.9865
G01 X20.6709 Y1.9880
G01 X20.6953 Y1.9904
G01 X20.7196 Y1.9940
G01 X20.7437 Y1.9988
G01 X20.7675 Y2.0048
G01 X20.7910 Y2.0119
G01 X20.8141 Y2.0202
G01 X20.8367 Y2.0296
G01 X20.8589 Y2.0401
G01 X20.8806 Y2.0516
G01 X20.9016 Y2.0642
G01 X20.9220 Y2.0779
G01 X20.9417 Y2.0925
G01 X20.9607 Y2.1081
G01 X20.9789 Y2.1245
G01 X20.9962 Y2.1419
G01 X21.0127 Y2.1601
G01 X21.0283 Y2.1790
G01 X21.0429 Y2.1988
G01 X21.0565 Y2.2192
G01 X21.0691 Y2.2402
G01 X21.0807 Y2.2618
G01 X21.0912 Y2.2840
G01 X21.1006 Y2.3067
G01 X21.1089 Y2.3298
G01 X21.1160 Y2.3533
G01 X21.1220 Y2.3771
G01 X21.1267 Y2.4012
G01 X21.1303 Y2.4254
G01 X21.1327 Y2.4499
G01 X21.1340 Y2.4744
G01 X21.1340 Y2.4989
G01 X21.1327 Y2.5234
G01 X21.1303 Y2.5478
G01 X21.1267 Y2.5721
G01 X21.1220 Y2.5962
G01 X21.1160 Y2.6200
G01 X21.1089 Y2.6435
G01 X21.1006 Y2.6666
G01 X21.0964 Y2.6767
G01 X21.0259 Y2.9093
G01 X21.0091 Y3.0797
G01 X21.0091 Y4.9936
G01 X21.0259 Y5.1640
G01 X21.0922 Y5.3827
G01 X21.1999 Y5.5842
G01 X21.3448 Y5.7608
G01 X21.5214 Y5.9057
G01 X21.7229 Y6.0134
G01 X21.9416 Y6.0797
G01 X22.1689 Y6.1021
G01 X22.3963 Y6.0797
G01 X22.4932 Y6.0504
G01 X22.5050 Y6.0471
G01 X22.5288 Y6.0411
G01 X22.5529 Y6.0363
G01 X22.5772 Y6.0327
G01 X22.6016 Y6.0303
G01 X22.6261 Y6.0291
G01 X22.6506 Y6.0291
G01 X22.6752 Y6.0303
G01 X22.6996 Y6.0327
G01 X22.7239 Y6.0363
G01 X22.7479 Y6.0411
G01 X22.7717 Y6.0471
G01 X22.7952 Y6.0542
G01 X22.8183 Y6.0625
G01 X22.8410 Y6.0719
G01 X22.8632 Y6.0824
G01 X22.8848 Y6.0939
G01 X22.9059 Y6.1065
G01 X22.9263 Y6.1202
G01 X22.9460 Y6.1348
G01 X22.9649 Y6.1504
G01 X22.9831 Y6.1668
G01 X22.9920 Y6.1753
G01 X24.0186 Y7.2019
G01 X24.0435 Y7.2289
G01 X24.0590 Y7.2478
G01 X24.0736 Y7.2675
G01 X24.0872 Y7.2879
G01 X24.0999 Y7.3089
G01 X24.1114 Y7.3305
G01 X24.1219 Y7.3526
G01 X24.1313 Y7.3752
G01 X24.1396 Y7.3983
G01 X24.1467 Y7.4217
G01 X24.1527 Y7.4455
G01 X24.1575 Y7.4695
G01 X24.1611 Y7.4937
G01 X24.1635 Y7.5181
G01 X24.1648 Y7.5425
G01 X24.1648 Y7.5670
G01 X24.1636 Y7.5915
G01 X24.1613 Y7.6158
G01 X24.1577 Y7.6401
G01 X24.1530 Y7.6641
G01 X24.1471 Y7.6879
G01 X24.1400 Y7.7113
G01 X24.1318 Y7.7344
G01 X24.1225 Y7.7571
G01 X24.1121 Y7.7792
G01 X24.1006 Y7.8009
G01 X24.0881 Y7.8219
G01 X24.0745 Y7.8423
G01 X24.0600 Y7.8620
G01 X24.0445 Y7.8810
G01 X24.0281 Y7.8992
G01 X24.0109 Y7.9166
G01 X23.9928 Y7.9331
G01 X23.9739 Y7.9487
G01 X23.9613 Y7.9580
G01 X23.9613 Y8.0656
G01 X24.4468 Y8.0656
G01 X24.4713 Y8.0668
G01 X24.4956 Y8.0704
G01 X24.5194 Y8.0764
G01 X24.5425 Y8.0846
G01 X24.5646 Y8.0951
G01 X24.5857 Y8.1077
G01 X24.6054 Y8.1223
G01 X24.6236 Y8.1388
G01 X24.6401 Y8.1570
G01 X24.6547 Y8.1767
G01 X24.6673 Y8.1978
G01 X24.6778 Y8.2199
G01 X24.6860 Y8.2430
G01 X24.6920 Y8.2668
G01 X24.6956 Y8.2911
G01 X24.6968 Y8.3156
G01 X24.6968 Y8.8744
G01 X24.6956 Y8.8989
G01 X24.6920 Y8.9232
G01 X24.6860 Y8.9470
G01 X24.6778 Y8.9701
G01 X24.6673 Y8.9922
G01 X24.6547 Y9.0133
G01 X24.6401 Y9.0330
G01 X24.6236 Y9.0512
G01 X24.6054 Y9.0677
G01 X24.5857 Y9.0823
G01 X24.5646 Y9.0949
G01 X24.5425 Y9.1054
G01 X24.5194 Y9.1136
G01 X24.4956 Y9.1196
G01 X24.4713 Y9.1232
G01 X24.4468 Y9.1244
G01 X22.4656 Y9.1244
G01 X22.4411 Y9.1232
G01 X22.4168 Y9.1196
G01 X22.3930 Y9.1136
G01 X22.3699 Y9.1054
G01 X22.3588 Y9.1001
G01 X22.2767 Y9.1001
G01 X22.2817 Y9.1205
G01 X22.2865 Y9.1445
G01 X22.2901 Y9.1688
G01 X22.2925 Y9.1932
G01 X22.2937 Y9.2177
G01 X22.2937 Y9.2423
G01 X22.2925 Y9.2668
G01 X22.2901 Y9.2912
G01 X22.2865 Y9.3155
G01 X22.2817 Y9.3395
G01 X22.2758 Y9.3634
G01 X22.2687 Y9.3868
G01 X22.2604 Y9.4099
G01 X22.2510 Y9.4326
G01 X22.2405 Y9.4548
G01 X22.2243 Y9.4857
G01 X22.2095 Y9.5347
G01 X22.2020 Y9.6102
G01 X22.2020 Y10.1198
G01 X22.2095 Y10.1953
G01 X22.2243 Y10.2443
G01 X22.2405 Y10.2752
G01 X22.2510 Y10.2974
G01 X22.2604 Y10.3201
G01 X22.2687 Y10.3432
G01 X22.2758 Y10.3666
G01 X22.2817 Y10.3905
G01 X22.2865 Y10.4145
G01 X22.2901 Y10.4388
G01 X22.2925 Y10.4632
G01 X22.2937 Y10.4877
G01 X22.2937 Y10.5123
G01 X22.2925 Y10.5368
G01 X22.2901 Y10.5612
G01 X22.2865 Y10.5855
G01 X22.2817 Y10.6095
G01 X22.2758 Y10.6334
G01 X22.2687 Y10.6568
G01 X22.2604 Y10.6799
G01 X22.2510 Y10.7026
G01 X22.2405 Y10.7248
G01 X22.2243 Y10.7557
G01 X22.2095 Y10.8047
G01 X22.2020 Y10.8802
G01 X22.2020 Y11.3898
G01 X22.2095 Y11.4653
G01 X22.2243 Y11.5143
G01 X22.2405 Y11.5452
G01 X22.2510 Y11.5674
G01 X22.2604 Y11.5901
G01 X22.2687 Y11.6132
G01 X22.2758 Y11.6366
G01 X22.2817 Y11.6605
G01 X22.2865 Y11.6845
G01 X22.2901 Y11.7088
G01 X22.2925 Y11.7332
G01 X22.2937 Y11.7577
G01 X22.2937 Y11.7823
G01 X22.2925 Y11.8068
G01 X22.2901 Y11.8312
G01 X22.2865 Y11.8555
G01 X22.2817 Y11.8795
G01 X22.2758 Y11.9034
G01 X22.2687 Y11.9268
G01 X22.2604 Y11.9499
G01 X22.2510 Y11.9726
G01 X22.2405 Y11.9948
G01 X22.2243 Y12.0257
G01 X22.2095 Y12.0747
G01 X22.2020 Y12.1502
G01 X22.2020 Y12.5895
G01 X22.2017 Y12.6018
G01 X22.2005 Y12.6263
G01 X22.1981 Y12.6507
G01 X22.1945 Y12.6750
G01 X22.1897 Y12.6990
G01 X22.1838 Y12.7229
G01 X22.1767 Y12.7463
G01 X22.1684 Y12.7694
G01 X22.1590 Y12.7921
G01 X22.1485 Y12.8143
G01 X22.1369 Y12.8359
G01 X22.1243 Y12.8570
G01 X22.1107 Y12.8774
G01 X22.0961 Y12.8971
G01 X22.0805 Y12.9161
G01 X22.0556 Y12.9431
G01 X21.6664 Y13.3323
G01 X21.6394 Y13.3571
G01 X21.6205 Y13.3727
G01 X21.6009 Y13.3873
G01 X21.5806 Y13.4009
G01 X21.5596 Y13.4134
G01 X21.5380 Y13.4250
G01 X21.5159 Y13.4355
G01 X21.4933 Y13.4449
G01 X21.4703 Y13.4531
G01 X21.4469 Y13.4603
G01 X21.4232 Y13.4663
G01 X21.3992 Y13.4711
G01 X21.3750 Y13.4747
G01 X21.3507 Y13.4772
G01 X21.3262 Y13.4784
G01 X21.3018 Y13.4785
G01 X21.2773 Y13.4773
G01 X21.2530 Y13.4750
G01 X21.2288 Y13.4715
G01 X21.2048 Y13.4668
G01 X21.1810 Y13.4609
G01 X21.1576 Y13.4539
G01 X21.1345 Y13.4457
G01 X21.1119 Y13.4365
G01 X21.0897 Y13.4261
G01 X21.0681 Y13.4146
G01 X21.0471 Y13.4021
G01 X21.0267 Y13.3886
G01 X21.0070 Y13.3742
G01 X20.9880 Y13.3587
G01 X20.9698 Y13.3424
G01 X20.9524 Y13.3252
G01 X20.9359 Y13.3071
G01 X20.9203 Y13.2883
G01 X20.9056 Y13.2687
G01 X20.8919 Y13.2485
G01 X20.8792 Y13.2275
G01 X20.8675 Y13.2060
G01 X20.8569 Y13.1840
G01 X20.8474 Y13.1614
G01 X20.8390 Y13.1384
G01 X20.8318 Y13.1151
G01 X20.8257 Y13.0914
G01 X20.8208 Y13.0674
G01 X20.8170 Y13.0433
G01 X20.8144 Y13.0189
G01 X20.8131 Y12.9945
G01 X20.8127 Y12.9823
G01 X20.8121 Y12.9051
G01 X20.7967 Y12.9051
G01 X20.7925 Y12.9355
G01 X20.7877 Y12.9595
G01 X20.7817 Y12.9833
G01 X20.7746 Y13.0068
G01 X20.7664 Y13.0299
G01 X20.7570 Y13.0526
G01 X20.7465 Y13.0747
G01 X20.7349 Y13.0964
G01 X20.7223 Y13.1174
G01 X20.7087 Y13.1378
G01 X20.6941 Y13.1575
G01 X20.6785 Y13.1765
G01 X20.6620 Y13.1947
G01 X20.6447 Y13.2120
G01 X20.6265 Y13.2285
G01 X20.6075 Y13.2441
G01 X20.5878 Y13.2587
G01 X20.5674 Y13.2723
G01 X20.5464 Y13.2849
G01 X20.5247 Y13.2965
G01 X20.5026 Y13.3070
G01 X20.4801 Y13.3163
G01 X20.4801 Y13.3629
G01 X20.5278 Y13.3633
G01 X20.5909 Y13.3571
G01 X20.6277 Y13.3550
G01 X20.6522 Y13.3550
G01 X20.6767 Y13.3562
G01 X20.7012 Y13.3586
G01 X20.7254 Y13.3622
G01 X20.7495 Y13.3670
G01 X20.7733 Y13.3730
G01 X20.7968 Y13.3801
G01 X20.8199 Y13.3883
G01 X20.8426 Y13.3977
G01 X20.8648 Y13.4082
G01 X20.8864 Y13.4198
G01 X20.9074 Y13.4324
G01 X20.9278 Y13.4460
G01 X20.9476 Y13.4607
G01 X20.9665 Y13.4762
G01 X20.9847 Y13.4927
G01 X21.0021 Y13.5101
G01 X21.0185 Y13.5283
G01 X21.0341 Y13.5472
G01 X21.0487 Y13.5669
G01 X21.0624 Y13.5873
G01 X21.0750 Y13.6084
G01 X21.0865 Y13.6300
G01 X21.0970 Y13.6522
G01 X21.1064 Y13.6749
G01 X21.1147 Y13.6980
G01 X21.1218 Y13.7215
G01 X21.1278 Y13.7453
G01 X21.1326 Y13.7693
G01 X21.1362 Y13.7936
G01 X21.1386 Y13.8180
G01 X21.1398 Y13.8425
G01 X21.1398 Y13.8671
G01 X21.1386 Y13.8916
G01 X21.1362 Y13.9160
G01 X21.1326 Y13.9403
G01 X21.1278 Y13.9644
G01 X21.1186 Y14.0000
G01 X21.1090 Y14.0316
G01 X21.0972 Y14.1512
G01 X21.0986 Y14.1689
G01 X21.1001 Y14.2057
G01 X21.1001 Y16.0831
G01 X21.0986 Y16.1199
G01 X21.0962 Y16.1443
G01 X21.0926 Y16.1686
G01 X21.0878 Y16.1927
G01 X21.0819 Y16.2165
G01 X21.0747 Y16.2399
G01 X21.0665 Y16.2631
G01 X21.0571 Y16.2857
G01 X21.0466 Y16.3079
G01 X21.0350 Y16.3295
G01 X21.0224 Y16.3506
G01 X21.0088 Y16.3710
G01 X20.9942 Y16.3907
G01 X20.9786 Y16.4097
G01 X20.9536 Y16.4368
G01 X20.8478 Y16.5426
G01 X20.8265 Y16.5718
G01 X20.8106 Y16.5911
G01 X20.7937 Y16.6095
G01 X20.7760 Y16.6272
G01 X20.7573 Y16.6439
G01 X20.7379 Y16.6596
G01 X20.7177 Y16.6744
G01 X20.6968 Y16.6881
G01 X20.6753 Y16.7008
G01 X20.6531 Y16.7124
G01 X20.6304 Y16.7229
G01 X20.6071 Y16.7322
G01 X20.5835 Y16.7403
G01 X20.5595 Y16.7472
G01 X20.5351 Y16.7530
G01 X20.5105 Y16.7575
G01 X20.4857 Y16.7608
G01 X20.4608 Y16.7628
G01 X20.4358 Y16.7636
G01 X20.4108 Y16.7631
G01 X20.3858 Y16.7614
G01 X20.3610 Y16.7584
G01 X20.3363 Y16.7542
G01 X20.3119 Y16.7487
G01 X20.2878 Y16.7421
G01 X20.2640 Y16.7342
G01 X20.2407 Y16.7252
G01 X20.2178 Y16.7150
G01 X20.1955 Y16.7037
G01 X20.1738 Y16.6913
G01 X20.1527 Y16.6778
G01 X20.1324 Y16.6633
G01 X20.1128 Y16.6477
G01 X20.0940 Y16.6313
G01 X20.0760 Y16.6138
G01 X20.0589 Y16.5956
G01 X20.0428 Y16.5764
G01 X20.0349 Y16.5667
G01 X19.9809 Y16.4957
G01 X19.9203 Y16.4422
G01 X19.9203 Y16.4468
G01 X19.9389 Y16.4637
G01 X19.9563 Y16.4811
G01 X20.0123 Y16.5429
G01 X20.0279 Y16.5618
G01 X20.0776 Y16.6288
G01 X20.0912 Y16.6492
G01 X20.1341 Y16.7208
G01 X20.1456 Y16.7424
G01 X20.1813 Y16.8178
G01 X20.1907 Y16.8405
G01 X20.2188 Y16.9190
G01 X20.2259 Y16.9425
G01 X20.2462 Y17.0234
G01 X20.2510 Y17.0475
G01 X20.2632 Y17.1300
G01 X20.2656 Y17.1544
G01 X20.2697 Y17.2377
G01 X20.2697 Y17.2623
G01 X20.2656 Y17.3456
G01 X20.2632 Y17.3700
G01 X20.2510 Y17.4525
G01 X20.2462 Y17.4766
G01 X20.2259 Y17.5575
G01 X20.2188 Y17.5810
G01 X20.1907 Y17.6595
G01 X20.1813 Y17.6822
G01 X20.1456 Y17.7576
G01 X20.1341 Y17.7792
G01 X20.0912 Y17.8508
G01 X20.0776 Y17.8712
G01 X20.0279 Y17.9382
G01 X20.0123 Y17.9571
G01 X19.9563 Y18.0189
G01 X19.9389 Y18.0363
G01 X19.9203 Y18.0532
G01 X19.9203 Y18.0578
G01 X19.9809 Y18.0043
G01 X20.0349 Y17.9333
G01 X20.0428 Y17.9236
G01 X20.0589 Y17.9044
G01 X20.0760 Y17.8862
G01 X20.0940 Y17.8687
G01 X20.1128 Y17.8523
G01 X20.1324 Y17.8367
G01 X20.1527 Y17.8222
G01 X20.1738 Y17.8087
G01 X20.1955 Y17.7963
G01 X20.2178 Y17.7850
G01 X20.2407 Y17.7748
G01 X20.2640 Y17.7658
G01 X20.2878 Y17.7579
G01 X20.3119 Y17.7513
G01 X20.3363 Y17.7458
G01 X20.3610 Y17.7416
G01 X20.3858 Y17.7386
G01 X20.4108 Y17.7369
G01 X20.4358 Y17.7364
G01 X20.4608 Y17.7372
G01 X20.4857 Y17.7392
G01 X20.5105 Y17.7425
G01 X20.5351 Y17.7470
G01 X20.5595 Y17.7528
G01 X20.5835 Y17.7597
G01 X20.6071 Y17.7678
G01 X20.6304 Y17.7771
G01 X20.6531 Y17.7876
G01 X20.6753 Y17.7992
G01 X20.6968 Y17.8119
G01 X20.7177 Y17.8256
G01 X20.7379 Y17.8404
G01 X20.7573 Y17.8561
G01 X20.7760 Y17.8728
G01 X20.7937 Y17.8905
G01 X20.8106 Y17.9089
G01 X20.8265 Y17.9282
G01 X20.8478 Y17.9574
G01 X21.0025 Y18.1121
G01 X21.1843 Y18.2336
G01 X21.3863 Y18.3172
G01 X21.6007 Y18.3599
G01 X21.8193 Y18.3599
G01 X22.0337 Y18.3172
G01 X22.2357 Y18.2336
G01 X22.4283 Y18.1049
G01 X22.4392 Y18.0960
G01 X22.4589 Y18.0813
G01 X22.4793 Y18.0677
G01 X22.5003 Y18.0551
G01 X22.5220 Y18.0435
G01 X22.5442 Y18.0330
G01 X22.5668 Y18.0236
G01 X22.5899 Y18.0154
G01 X22.6134 Y18.0083
G01 X22.6372 Y18.0023
G01 X22.6613 Y17.9975
G01 X22.6856 Y17.9939
G01 X22.7100 Y17.9915
G01 X22.7345 Y17.9903
G01 X22.7590 Y17.9903
G01 X22.7835 Y17.9915
G01 X22.8080 Y17.9939
G01 X22.8322 Y17.9975
G01 X22.8563 Y18.0023
G01 X22.8801 Y18.0083
G01 X22.9036 Y18.0154
G01 X22.9267 Y18.0236
G01 X22.9494 Y18.0330
G01 X22.9716 Y18.0435
G01 X22.9932 Y18.0551
G01 X23.0143 Y18.0677
G01 X23.0346 Y18.0813
G01 X23.0544 Y18.0960
G01 X23.0733 Y18.1115
G01 X23.0915 Y18.1280
G01 X23.1089 Y18.1454
G01 X23.1253 Y18.1635
G01 X23.1409 Y18.1825
G01 X23.1555 Y18.2022
G01 X23.1692 Y18.2226
G01 X23.1819 Y18.2439
G01 X23.2154 Y18.2846
G01 X23.2549 Y18.3171
G01 X23.3001 Y18.3413
G01 X23.3491 Y18.3561
G01 X23.4246 Y18.3636
G01 X25.0754 Y18.3636
G01 X25.1509 Y18.3561
G01 X25.1999 Y18.3413
G01 X25.2451 Y18.3171
G01 X25.2846 Y18.2846
G01 X25.3171 Y18.2451
G01 X25.3413 Y18.1999
G01 X25.3561 Y18.1509
G01 X25.3636 Y18.0754
G01 X25.3636 Y16.4246
G01 X25.3561 Y16.3491
G01 X25.3413 Y16.3001
G01 X25.3171 Y16.2549
G01 X25.2623 Y16.1881
G01 X25.2548 Y16.1785
G01 X25.2401 Y16.1587
G01 X25.2265 Y16.1383
G01 X25.2139 Y16.1173
G01 X25.2023 Y16.0957
G01 X25.1918 Y16.0735
G01 X25.1824 Y16.0508
G01 X25.1742 Y16.0277
G01 X25.1671 Y16.0042
G01 X25.1611 Y15.9804
G01 X25.1563 Y15.9563
G01 X25.1527 Y15.9321
G01 X25.1503 Y15.9076
G01 X25.1491 Y15.8831
G01 X25.1491 Y15.8586
G01 X25.1503 Y15.8341
G01 X25.1527 Y15.8097
G01 X25.1563 Y15.7854
G01 X25.1611 Y15.7613
G01 X25.1671 Y15.7375
G01 X25.1742 Y15.7140
G01 X25.1824 Y15.6909
G01 X25.1918 Y15.6683
G01 X25.2023 Y15.6461
G01 X25.2139 Y15.6244
G01 X25.2265 Y15.6034
G01 X25.2401 Y15.5830
G01 X25.2548 Y15.5633
G01 X25.2703 Y15.5443
G01 X25.2953 Y15.5172
G01 X25.6995 Y15.1130
G01 X25.7266 Y15.0881
G01 X25.7401 Y15.0765
G01 X25.8163 Y14.9837
G01 X25.8730 Y14.8777
G01 X25.9079 Y14.7628
G01 X25.9196 Y14.6432
G01 X25.9182 Y14.6255
G01 X25.9167 Y14.5887
G01 X25.9167 Y12.9812
G01 X25.9182 Y12.9444
G01 X25.9206 Y12.9200
G01 X25.9242 Y12.8957
G01 X25.9290 Y12.8716
G01 X25.9349 Y12.8478
G01 X25.9421 Y12.8243
G01 X25.9503 Y12.8012
G01 X25.9597 Y12.7786
G01 X25.9702 Y12.7564
G01 X25.9818 Y12.7347
G01 X25.9944 Y12.7137
G01 X26.0080 Y12.6933
G01 X26.0226 Y12.6736
G01 X26.0382 Y12.6546
G01 X26.0632 Y12.6275
G01 X26.2834 Y12.4073
G01 X26.3105 Y12.3823
G01 X26.3295 Y12.3668
G01 X26.3492 Y12.3521
G01 X26.3696 Y12.3385
G01 X26.3906 Y12.3259
G01 X26.4123 Y12.3143
G01 X26.4345 Y12.3038
G01 X26.4571 Y12.2944
G01 X26.4802 Y12.2862
G01 X26.5037 Y12.2791
G01 X26.5275 Y12.2731
G01 X26.5516 Y12.2683
G01 X26.5759 Y12.2647
G01 X26.6003 Y12.2623
G01 X26.6248 Y12.2611
G01 X26.6493 Y12.2611
G01 X26.6738 Y12.2623
G01 X26.6983 Y12.2647
G01 X26.7225 Y12.2683
G01 X26.7466 Y12.2731
G01 X26.7704 Y12.2791
G01 X26.7939 Y12.2862
G01 X26.8170 Y12.2944
G01 X26.8397 Y12.3038
G01 X26.8619 Y12.3143
G01 X26.8835 Y12.3259
G01 X26.9045 Y12.3385
G01 X26.9249 Y12.3521
G01 X26.9447 Y12.3668
G01 X26.9636 Y12.3823
G01 X26.9818 Y12.3988
G01 X26.9992 Y12.4162
G01 X27.0156 Y12.4343
G01 X27.0312 Y12.4533
G01 X27.0458 Y12.4730
G01 X27.0595 Y12.4934
G01 X27.0721 Y12.5145
G01 X27.0836 Y12.5361
G01 X27.0941 Y12.5583
G01 X27.1035 Y12.5810
G01 X27.1118 Y12.6041
G01 X27.1189 Y12.6276
G01 X27.1249 Y12.6514
G01 X27.1297 Y12.6754
G01 X27.1333 Y12.6997
G01 X27.1371 Y12.7353
G01 X27.1519 Y12.7843
G01 X27.1761 Y12.8295
G01 X27.2086 Y12.8690
G01 X27.2481 Y12.9015
G01 X27.2933 Y12.9257
G01 X27.3423 Y12.9405
G01 X27.4178 Y12.9480
G01 X28.1708 Y12.9480
G01 X28.2076 Y12.9495
G01 X28.2320 Y12.9519
G01 X28.2474 Y12.9541
G01 X28.3563 Y12.9649
G01 X29.8497 Y12.9649
G01 X29.8865 Y12.9664
G01 X29.9109 Y12.9688
G01 X29.9352 Y12.9724
G01 X29.9592 Y12.9772
G01 X29.9830 Y12.9831
G01 X30.0065 Y12.9903
G01 X30.0296 Y12.9985
G01 X30.0523 Y13.0079
G01 X30.0745 Y13.0184
G01 X30.0961 Y13.0300
G01 X30.1172 Y13.0426
G01 X30.1376 Y13.0562
G01 X30.1573 Y13.0708
G01 X30.1763 Y13.0864
G01 X30.1944 Y13.1029
G01 X30.2118 Y13.1202
G01 X30.2283 Y13.1384
G01 X30.2363 Y13.1477
G01 X30.2886 Y13.2114
G01 X30.3660 Y13.2750
G01 X30.4544 Y13.3222
G01 X30.5503 Y13.3513
G01 X30.6746 Y13.3636
G01 X31.2754 Y13.3636
G01 X31.3997 Y13.3513
G01 X31.4956 Y13.3222
G01 X31.5840 Y13.2750
G01 X31.6112 Y13.2531
G01 X31.6309 Y13.2384
G01 X31.6513 Y13.2248
G01 X31.6723 Y13.2122
G01 X31.6940 Y13.2006
G01 X31.7162 Y13.1901
G01 X31.7388 Y13.1807
G01 X31.7619 Y13.1725
G01 X31.7854 Y13.1653
G01 X31.8092 Y13.1594
G01 X31.8333 Y13.1546
G01 X31.8576 Y13.1510
G01 X31.8820 Y13.1486
G01 X31.9065 Y13.1474
G01 X31.9310 Y13.1474
G01 X31.9556 Y13.1486
G01 X31.9800 Y13.1510
G01 X32.0043 Y13.1546
G01 X32.0283 Y13.1594
G01 X32.0521 Y13.1653
G01 X32.0756 Y13.1725
G01 X32.0987 Y13.1807
G01 X32.1214 Y13.1901
G01 X32.1436 Y13.2006
G01 X32.1652 Y13.2122
G01 X32.1863 Y13.2248
G01 X32.2067 Y13.2384
G01 X32.2264 Y13.2531
G01 X32.2361 Y13.2606
G01 X32.3049 Y13.3171
G01 X32.3501 Y13.3413
G01 X32.3991 Y13.3561
G01 X32.4722 Y13.3633
G01 X32.5199 Y13.3629
G01 X32.5199 Y13.3163
G01 X32.4974 Y13.3070
G01 X32.4753 Y13.2965
G01 X32.4536 Y13.2849
G01 X32.4326 Y13.2723
G01 X32.4122 Y13.2587
G01 X32.3925 Y13.2441
G01 X32.3735 Y13.2285
G01 X32.3553 Y13.2120
G01 X32.3380 Y13.1947
G01 X32.3215 Y13.1765
G01 X32.3059 Y13.1575
G01 X32.2913 Y13.1378
G01 X32.2777 Y13.1174
G01 X32.2651 Y13.0964
G01 X32.2535 Y13.0747
G01 X32.2430 Y13.0526
G01 X32.2336 Y13.0299
G01 X32.2254 Y13.0068
G01 X32.2183 Y12.9833
G01 X32.2123 Y12.9595
G01 X32.2075 Y12.9355
G01 X32.2039 Y12.9112
G01 X32.2015 Y12.8868
G01 X32.2000 Y12.8500
G01 X32.2000 Y11.9500
G01 X32.2015 Y11.9132
G01 X32.2039 Y11.8888
G01 X32.2075 Y11.8645
G01 X32.2123 Y11.8405
G01 X32.2183 Y11.8167
G01 X32.2254 Y11.7932
G01 X32.2336 Y11.7701
G01 X32.2430 Y11.7474
G01 X32.2535 Y11.7253
G01 X32.2651 Y11.7036
G01 X32.2777 Y11.6826
G01 X32.2913 Y11.6622
G01 X32.3059 Y11.6425
G01 X32.3215 Y11.6235
G01 X32.3380 Y11.6053
G01 X32.3553 Y11.5880
G01 X32.3735 Y11.5715
G01 X32.3925 Y11.5559
G01 X32.4122 Y11.5413
G01 X32.4326 Y11.5277
G01 X32.4536 Y11.5151
G01 X32.4753 Y11.5035
G01 X32.4974 Y11.4930
G01 X32.5201 Y11.4836
G01 X32.5432 Y11.4754
G01 X32.5667 Y11.4683
G01 X32.5905 Y11.4623
G01 X32.6145 Y11.4575
G01 X32.6388 Y11.4539
G01 X32.6632 Y11.4515
G01 X32.7000 Y11.4500
G01 X33.0683 Y11.4500
G01 X33.0605 Y11.4480
G01 X33.0370 Y11.4409
G01 X33.0139 Y11.4326
G01 X32.9912 Y11.4233
G01 X32.9690 Y11.4128
G01 X32.9474 Y11.4012
G01 X32.9263 Y11.3886
G01 X32.9059 Y11.3750
G01 X32.8862 Y11.3603
G01 X32.8673 Y11.3448
G01 X32.8491 Y11.3283
G01 X32.8317 Y11.3109
G01 X32.8152 Y11.2927
G01 X32.7997 Y11.2738
G01 X32.7850 Y11.2541
G01 X32.7714 Y11.2337
G01 X32.7588 Y11.2126
G01 X32.7472 Y11.1910
G01 X32.7367 Y11.1688
G01 X32.7274 Y11.1461
G01 X32.7191 Y11.1230
G01 X32.7120 Y11.0995
G01 X32.7060 Y11.0757
G01 X32.7012 Y11.0517
G01 X32.6976 Y11.0274
G01 X32.6952 Y11.0030
G01 X32.6940 Y10.9784
G01 X32.6940 Y10.9539
G01 X32.6961 Y10.9172
G01 X32.7152 Y10.7234
G01 X32.7130 Y10.6982
G01 X32.7115 Y10.6615
G01 X32.7115 Y2.4866
G01 X32.7130 Y2.4499
G01 X32.7154 Y2.4254
G01 X32.7190 Y2.4012
G01 X32.7238 Y2.3771
G01 X32.7298 Y2.3533
G01 X32.7369 Y2.3298
G01 X32.7452 Y2.3067
G01 X32.7546 Y2.2840
G01 X32.7651 Y2.2618
G01 X32.7766 Y2.2402
G01 X32.7892 Y2.2192
G01 X32.8029 Y2.1988
G01 X32.8175 Y2.1790
G01 X32.8331 Y2.1601
G01 X32.8495 Y2.1419
G01 X32.8669 Y2.1245
G01 X32.8851 Y2.1081
G01 X32.9040 Y2.0925
G01 X32.9238 Y2.0779
G01 X32.9442 Y2.0642
G01 X32.9652 Y2.0516
G01 X32.9868 Y2.0401
G01 X33.0090 Y2.0296
G01 X33.0317 Y2.0202
G01 X33.0548 Y2.0119
G01 X33.0783 Y2.0048
G01 X33.1021 Y1.9988
G01 X33.1262 Y1.9940
G01 X33.1504 Y1.9904
G01 X33.1749 Y1.9880
G01 X33.1994 Y1.9868
G01 X33.2116 Y1.9865
G01 X33.6741 Y1.9865
G01 X33.7109 Y1.9880
G01 X33.7353 Y1.9904
G01 X33.7596 Y1.9940
G01 X33.7837 Y1.9988
G01 X33.8075 Y2.0048
G01 X33.8310 Y2.0119
G01 X33.8541 Y2.0202
G01 X33.8767 Y2.0296
G01 X33.8989 Y2.0401
G01 X33.9206 Y2.0516
G01 X33.9416 Y2.0642
G01 X33.9620 Y2.0779
G01 X33.9817 Y2.0925
G01 X34.0007 Y2.1081
G01 X34.0189 Y2.1245
G01 X34.0362 Y2.1419
G01 X34.0527 Y2.1601
G01 X34.0683 Y2.1790
G01 X34.0829 Y2.1988
G01 X34.0965 Y2.2192
G01 X34.1091 Y2.2402
G01 X34.1207 Y2.2618
G01 X34.1312 Y2.2840
G01 X34.1406 Y2.3067
G01 X34.1489 Y2.3298
G01 X34.1560 Y2.3533
G01 X34.1620 Y2.3771
G01 X34.1667 Y2.4012
G01 X34.1703 Y2.4254
G01 X34.1727 Y2.4499
G01 X34.1740 Y2.4744
G01 X34.1740 Y2.4989
G01 X34.1727 Y2.5234
G01 X34.1703 Y2.5478
G01 X34.1667 Y2.5721
G01 X34.1620 Y2.5962
G01 X34.1560 Y2.6200
G01 X34.1489 Y2.6435
G01 X34.1406 Y2.6666
G01 X34.1364 Y2.6767
G01 X34.0659 Y2.9093
G01 X34.0491 Y3.0797
G01 X34.0491 Y4.9936
G01 X34.0659 Y5.1640
G01 X34.1322 Y5.3827
G01 X34.2399 Y5.5842
G01 X34.3848 Y5.7608
G01 X34.5614 Y5.9057
G01 X34.7629 Y6.0134
G01 X34.9816 Y6.0797
G01 X35.2089 Y6.1021
G01 X35.4363 Y6.0797
G01 X35.5568 Y6.0432
G01 X35.5925 Y6.0340
G01 X35.6165 Y6.0292
G01 X35.6408 Y6.0256
G01 X35.6652 Y6.0232
G01 X35.6897 Y6.0220
G01 X35.7143 Y6.0220
G01 X35.7388 Y6.0232
G01 X35.7632 Y6.0256
G01 X35.7875 Y6.0292
G01 X35.8115 Y6.0340
G01 X35.8354 Y6.0399
G01 X35.8588 Y6.0470
G01 X35.8819 Y6.0553
G01 X35.9046 Y6.0647
G01 X35.9268 Y6.0752
G01 X35.9484 Y6.0868
G01 X35.9695 Y6.0994
G01 X35.9899 Y6.1130
G01 X36.0096 Y6.1276
G01 X36.0286 Y6.1432
G01 X36.0556 Y6.1681
G01 X37.0893 Y7.2018
G01 X37.1142 Y7.2288
G01 X37.1297 Y7.2477
G01 X37.1443 Y7.2674
G01 X37.1579 Y7.2877
G01 X37.1705 Y7.3087
G01 X37.1821 Y7.3303
G01 X37.1926 Y7.3525
G01 X37.2019 Y7.3751
G01 X37.2102 Y7.3981
G01 X37.2173 Y7.4216
G01 X37.2233 Y7.4453
G01 X37.2281 Y7.4693
G01 X37.2318 Y7.4936
G01 X37.2342 Y7.5179
G01 X37.2354 Y7.5424
G01 X37.2355 Y7.5669
G01 X37.2343 Y7.5913
G01 X37.2319 Y7.6157
G01 X37.2284 Y7.6400
G01 X37.2237 Y7.6640
G01 X37.2178 Y7.6878
G01 X37.2107 Y7.7112
G01 X37.2025 Y7.7343
G01 X37.1932 Y7.7569
G01 X37.1828 Y7.7791
G01 X37.1713 Y7.8007
G01 X37.1587 Y7.8218
G01 X37.1452 Y7.8422
G01 X37.1306 Y7.8619
G01 X37.1152 Y7.8809
G01 X37.0988 Y7.8991
G01 X37.0815 Y7.9164
G01 X37.0634 Y7.9329
G01 X37.0445 Y7.9485
G01 X37.0249 Y7.9632
G01 X37.0013 Y7.9788
G01 X37.0013 Y8.0656
G01 X37.4868 Y8.0656
G01 X37.5113 Y8.0668
G01 X37.5356 Y8.0704
G01 X37.5594 Y8.0764
G01 X37.5825 Y8.0846
G01 X37.6046 Y8.0951
G01 X37.6257 Y8.1077
G01 X37.6454 Y8.1223
G01 X37.6636 Y8.1388
G01 X37.6801 Y8.1570
G01 X37.6947 Y8.1767
G01 X37.7073 Y8.1978
G01 X37.7178 Y8.2199
G01 X37.7260 Y8.2430
G01 X37.7320 Y8.2668
G01 X37.7356 Y8.2911
G01 X37.7368 Y8.3156
G01 X37.7368 Y8.8744
G01 X37.7356 Y8.8989
G01 X37.7320 Y8.9232
G01 X37.7260 Y8.9470
G01 X37.7178 Y8.9701
G01 X37.7073 Y8.9922
G01 X37.6947 Y9.0133
G01 X37.6801 Y9.0330
G01 X37.6636 Y9.0512
G01 X37.6454 Y9.0677
G01 X37.6257 Y9.0823
G01 X37.6046 Y9.0949
G01 X37.5825 Y9.1054
G01 X37.5594 Y9.1136
G01 X37.5356 Y9.1196
G01 X37.5113 Y9.1232
G01 X37.4868 Y9.1244
G01 X35.5056 Y9.1244
G01 X35.4811 Y9.1232
G01 X35.4568 Y9.1196
G01 X35.4330 Y9.1136
G01 X35.4099 Y9.1054
G01 X35.3988 Y9.1001
G01 X35.3167 Y9.1001
G01 X35.3217 Y9.1205
G01 X35.3265 Y9.1445
G01 X35.3301 Y9.1688
G01 X35.3325 Y9.1932
G01 X35.3337 Y9.2177
G01 X35.3337 Y9.2423
G01 X35.3325 Y9.2668
G01 X35.3301 Y9.2912
G01 X35.3265 Y9.3155
G01 X35.3217 Y9.3395
G01 X35.3158 Y9.3634
G01 X35.3087 Y9.3868
G01 X35.3004 Y9.4099
G01 X35.2910 Y9.4326
G01 X35.2805 Y9.4548
G01 X35.2643 Y9.4857
G01 X35.2495 Y9.5347
G01 X35.2420 Y9.6102
G01 X35.2420 Y10.1198
G01 X35.2495 Y10.1953
G01 X35.2643 Y10.2443
G01 X35.2805 Y10.2752
G01 X35.2910 Y10.2974
G01 X35.3004 Y10.3201
G01 X35.3087 Y10.3432
G01 X35.3158 Y10.3666
G01 X35.3217 Y10.3905
G01 X35.3265 Y10.4145
G01 X35.3301 Y10.4388
G01 X35.3325 Y10.4632
G01 X35.3337 Y10.4877
G01 X35.3337 Y10.5123
G01 X35.3325 Y10.5368
G01 X35.3301 Y10.5612
G01 X35.3265 Y10.5855
G01 X35.3217 Y10.6095
G01 X35.3158 Y10.6334
G01 X35.3087 Y10.6568
G01 X35.3004 Y10.6799
G01 X35.2910 Y10.7026
G01 X35.2805 Y10.7248
G01 X35.2643 Y10.7557
G01 X35.2495 Y10.8047
G01 X35.2420 Y10.8802
G01 X35.2420 Y11.3898
G01 X35.2495 Y11.4653
G01 X35.2643 Y11.5143
G01 X35.2805 Y11.5452
G01 X35.2910 Y11.5674
G01 X35.3004 Y11.5901
G01 X35.3087 Y11.6132
G01 X35.3158 Y11.6366
G01 X35.3217 Y11.6605
G01 X35.3265 Y11.6845
G01 X35.3301 Y11.7088
G01 X35.3325 Y11.7332
G01 X35.3337 Y11.7577
G01 X35.3337 Y11.7823
G01 X35.3325 Y11.8068
G01 X35.3301 Y11.8312
G01 X35.3265 Y11.8555
G01 X35.3217 Y11.8795
G01 X35.3158 Y11.9034
G01 X35.3087 Y11.9268
G01 X35.3004 Y11.9499
G01 X35.2910 Y11.9726
G01 X35.2805 Y11.9948
G01 X35.2643 Y12.0257
G01 X35.2495 Y12.0747
G01 X35.2420 Y12.1502
G01 X35.2420 Y12.6598
G01 X35.2495 Y12.7353
G01 X35.2643 Y12.7843
G01 X35.2885 Y12.8295
G01 X35.3210 Y12.8690
G01 X35.3605 Y12.9015
G01 X35.4057 Y12.9257
G01 X35.4589 Y12.9418
G01 X35.4717 Y12.9437
G01 X35.4957 Y12.9485
G01 X35.5196 Y12.9545
G01 X35.5430 Y12.9616
G01 X35.5661 Y12.9698
G01 X35.5888 Y12.9792
G01 X35.6110 Y12.9897
G01 X35.6326 Y13.0013
G01 X35.6537 Y13.0139
G01 X35.6741 Y13.0275
G01 X35.6938 Y13.0422
G01 X35.7128 Y13.0577
G01 X35.7310 Y13.0742
G01 X35.7483 Y13.0916
G01 X35.7648 Y13.1097
G01 X35.7804 Y13.1287
G01 X35.7950 Y13.1484
G01 X35.8086 Y13.1688
G01 X35.8212 Y13.1899
G01 X35.8328 Y13.2115
G01 X35.8433 Y13.2337
G01 X35.8527 Y13.2564
G01 X35.8609 Y13.2795
G01 X35.8681 Y13.3030
G01 X35.8740 Y13.3268
G01 X35.8788 Y13.3508
G01 X35.8824 Y13.3751
G01 X35.8848 Y13.3995
G01 X35.8863 Y13.4363
G01 X35.8863 Y14.8038
G01 X35.8848 Y14.8405
G01 X35.8834 Y14.8583
G01 X35.8952 Y14.9778
G01 X35.9300 Y15.0928
G01 X35.9867 Y15.1987
G01 X36.0629 Y15.2916
G01 X36.0764 Y15.3031
G01 X36.1035 Y15.3281
G01 X38.4181 Y17.6427
G01 X38.4431 Y17.6698
G01 X38.4546 Y17.6833
G01 X38.5475 Y17.7595
G01 X38.6534 Y17.8162
G01 X38.7390 Y17.8422
G01 X38.7507 Y17.8460
G01 X38.7738 Y17.8543
G01 X38.7965 Y17.8637
G01 X38.8187 Y17.8742
G01 X38.8403 Y17.8857
G01 X38.8613 Y17.8983
G01 X38.8817 Y17.9120
G01 X38.9015 Y17.9266
G01 X38.9204 Y17.9422
G01 X38.9386 Y17.9586
G01 X38.9475 Y17.9671
G01 X39.0925 Y18.1121
G01 X39.2743 Y18.2336
G01 X39.4763 Y18.3172
G01 X39.6907 Y18.3599
G01 X39.9093 Y18.3599
G01 X40.1237 Y18.3172
G01 X40.3257 Y18.2336
G01 X40.5075 Y18.1121
G01 X40.6640 Y17.9556
G01 X40.6758 Y17.9396
G01 X40.6914 Y17.9207
G01 X40.7079 Y17.9025
G01 X40.7252 Y17.8851
G01 X40.7434 Y17.8686
G01 X40.7624 Y17.8531
G01 X40.7821 Y17.8385
G01 X40.8025 Y17.8248
G01 X40.8236 Y17.8122
G01 X40.8452 Y17.8006
G01 X40.8674 Y17.7902
G01 X40.8901 Y17.7808
G01 X40.9132 Y17.7725
G01 X40.9366 Y17.7654
G01 X40.9605 Y17.7594
G01 X40.9845 Y17.7546
G01 X41.0088 Y17.7510
G01 X41.0332 Y17.7486
G01 X41.0577 Y17.7474
G01 X41.0823 Y17.7474
G01 X41.1068 Y17.7486
G01 X41.1312 Y17.7510
G01 X41.1555 Y17.7546
G01 X41.1795 Y17.7594
G01 X41.2034 Y17.7654
G01 X41.2268 Y17.7725
G01 X41.2499 Y17.7808
G01 X41.2726 Y17.7902
G01 X41.2948 Y17.8006
G01 X41.3164 Y17.8122
G01 X41.3375 Y17.8248
G01 X41.3579 Y17.8385
G01 X41.3776 Y17.8531
G01 X41.3966 Y17.8686
G01 X41.4148 Y17.8851
G01 X41.4321 Y17.9025
G01 X41.4486 Y17.9207
G01 X41.4642 Y17.9396
G01 X41.4760 Y17.9556
G01 X41.6325 Y18.1121
G01 X41.8143 Y18.2336
G01 X42.0163 Y18.3172
G01 X42.2307 Y18.3599
G01 X42.4493 Y18.3599
G01 X42.6637 Y18.3172
G01 X42.8657 Y18.2336
G01 X43.0475 Y18.1121
G01 X43.2022 Y17.9574
G01 X43.2235 Y17.9282
G01 X43.2394 Y17.9089
G01 X43.2563 Y17.8905
G01 X43.2740 Y17.8728
G01 X43.2927 Y17.8561
G01 X43.3121 Y17.8404
G01 X43.3323 Y17.8256
G01 X43.3532 Y17.8119
G01 X43.3747 Y17.7992
G01 X43.3969 Y17.7876
G01 X43.4196 Y17.7771
G01 X43.4429 Y17.7678
G01 X43.4665 Y17.7597
G01 X43.4905 Y17.7528
G01 X43.5149 Y17.7470
G01 X43.5395 Y17.7425
G01 X43.5643 Y17.7392
G01 X43.5892 Y17.7372
G01 X43.6142 Y17.7364
G01 X43.6392 Y17.7369
G01 X43.6642 Y17.7386
G01 X43.6890 Y17.7416
G01 X43.7137 Y17.7458
G01 X43.7381 Y17.7513
G01 X43.7622 Y17.7579
G01 X43.7860 Y17.7658
G01 X43.8093 Y17.7748
G01 X43.8322 Y17.7850
G01 X43.8545 Y17.7963
G01 X43.8762 Y17.8087
G01 X43.8973 Y17.8222
G01 X43.9176 Y17.8367
G01 X43.9372 Y17.8523
G01 X43.9560 Y17.8687
G01 X43.9740 Y17.8862
G01 X43.9911 Y17.9044
G01 X44.0072 Y17.9236
G01 X44.0151 Y17.9333
G01 X44.0691 Y18.0043
G01 X44.1297 Y18.0578
G01 X44.1297 Y18.0532
G01 X44.1111 Y18.0363
G01 X44.0937 Y18.0189
G01 X44.0377 Y17.9571
G01 X44.0221 Y17.9382
G01 X43.9724 Y17.8712
G01 X43.9588 Y17.8508
G01 X43.9159 Y17.7792
G01 X43.9044 Y17.7576
G01 X43.8687 Y17.6822
G01 X43.8593 Y17.6595
G01 X43.8312 Y17.5810
G01 X43.8241 Y17.5575
G01 X43.8038 Y17.4766
G01 X43.7990 Y17.4525
G01 X43.7868 Y17.3700
G01 X43.7844 Y17.3456
G01 X43.7803 Y17.2623
G01 X43.7803 Y17.2377
G01 X43.7844 Y17.1544
G01 X43.7868 Y17.1300
G01 X43.7990 Y17.0475
G01 X43.8038 Y17.0234
G01 X43.8241 Y16.9425
G01 X43.8312 Y16.9190
G01 X43.8593 Y16.8405
G01 X43.8687 Y16.8178
G01 X43.9044 Y16.7424
G01 X43.9159 Y16.7208
G01 X43.9588 Y16.6492
G01 X43.9724 Y16.6288
G01 X44.0221 Y16.5618
G01 X44.0377 Y16.5429
G01 X44.0937 Y16.4811
G01 X44.1111 Y16.4637
G01 X44.1297 Y16.4468
G01 X44.1297 Y16.4422
G01 X44.0691 Y16.4957
G01 X44.0151 Y16.5667
G01 X44.0072 Y16.5764
G01 X43.9911 Y16.5956
G01 X43.9740 Y16.6138
G01 X43.9560 Y16.6313
G01 X43.9372 Y16.6477
G01 X43.9176 Y16.6633
G01 X43.8973 Y16.6778
G01 X43.8762 Y16.6913
G01 X43.8545 Y16.7037
G01 X43.8322 Y16.7150
G01 X43.8093 Y16.7252
G01 X43.7860 Y16.7342
G01 X43.7622 Y16.7421
G01 X43.7381 Y16.7487
G01 X43.7137 Y16.7542
G01 X43.6890 Y16.7584
G01 X43.6642 Y16.7614
G01 X43.6392 Y16.7631
G01 X43.6142 Y16.7636
G01 X43.5892 Y16.7628
G01 X43.5643 Y16.7608
G01 X43.5395 Y16.7575
G01 X43.5149 Y16.7530
G01 X43.4905 Y16.7472
G01 X43.4665 Y16.7403
G01 X43.4429 Y16.7322
G01 X43.4196 Y16.7229
G01 X43.3969 Y16.7124
G01 X43.3747 Y16.7008
G01 X43.3532 Y16.6881
G01 X43.3323 Y16.6744
G01 X43.3121 Y16.6596
G01 X43.2927 Y16.6439
G01 X43.2740 Y16.6272
G01 X43.2563 Y16.6095
G01 X43.2394 Y16.5911
G01 X43.2235 Y16.5718
G01 X43.2022 Y16.5426
G01 X43.0475 Y16.3879
G01 X42.8657 Y16.2664
G01 X42.6637 Y16.1828
G01 X42.5149 Y16.1532
G01 X42.5029 Y16.1505
G01 X42.4791 Y16.1445
G01 X42.4556 Y16.1374
G01 X42.4325 Y16.1291
G01 X42.4098 Y16.1197
G01 X42.3876 Y16.1092
G01 X42.3660 Y16.0977
G01 X42.3449 Y16.0850
G01 X42.3245 Y16.0714
G01 X42.3048 Y16.0568
G01 X42.2859 Y16.0412
G01 X42.2588 Y16.0163
G01 X40.2564 Y14.0139
G01 X40.2314 Y13.9868
G01 X40.2158 Y13.9678
G01 X40.2012 Y13.9481
G01 X40.1876 Y13.9277
G01 X40.1750 Y13.9067
G01 X40.1634 Y13.8850
G01 X40.1529 Y13.8628
G01 X40.1435 Y13.8402
G01 X40.1353 Y13.8171
G01 X40.1281 Y13.7936
G01 X40.1222 Y13.7698
G01 X40.1174 Y13.7457
G01 X40.1138 Y13.7214
G01 X40.1114 Y13.6970
G01 X40.1099 Y13.6602
G01 X40.1099 Y13.4481
G01 X40.1102 Y13.4358
G01 X40.1114 Y13.4113
G01 X40.1138 Y13.3869
G01 X40.1174 Y13.3626
G01 X40.1222 Y13.3385
G01 X40.1281 Y13.3147
G01 X40.1353 Y13.2912
G01 X40.1435 Y13.2681
G01 X40.1529 Y13.2455
G01 X40.1634 Y13.2233
G01 X40.1750 Y13.2016
G01 X40.1876 Y13.1806
G01 X40.2012 Y13.1602
G01 X40.2158 Y13.1405
G01 X40.2314 Y13.1215
G01 X40.2479 Y13.1033
G01 X40.2652 Y13.0860
G01 X40.2834 Y13.0695
G01 X40.3024 Y13.0539
G01 X40.3221 Y13.0393
G01 X40.3425 Y13.0257
G01 X40.3636 Y13.0131
G01 X40.3852 Y13.0015
G01 X40.4074 Y12.9910
G01 X40.4301 Y12.9816
G01 X40.4532 Y12.9733
G01 X40.4766 Y12.9662
G01 X40.5005 Y12.9603
G01 X40.5245 Y12.9555
G01 X40.5488 Y12.9519
G01 X40.5732 Y12.9495
G01 X40.5977 Y12.9483
G01 X40.6100 Y12.9480
G01 X41.2108 Y12.9480
G01 X41.2476 Y12.9495
G01 X41.2720 Y12.9519
G01 X41.2874 Y12.9541
G01 X41.3963 Y12.9649
G01 X42.8747 Y12.9649
G01 X42.9115 Y12.9664
G01 X42.9359 Y12.9688
G01 X42.9602 Y12.9724
G01 X42.9842 Y12.9772
G01 X43.0080 Y12.9831
G01 X43.0315 Y12.9903
G01 X43.0546 Y12.9985
G01 X43.0773 Y13.0079
G01 X43.0995 Y13.0184
G01 X43.1211 Y13.0300
G01 X43.1422 Y13.0426
G01 X43.1626 Y13.0562
G01 X43.1823 Y13.0708
G01 X43.2013 Y13.0864
G01 X43.2194 Y13.1029
G01 X43.2368 Y13.1202
G01 X43.2613 Y13.1477
G01 X43.3136 Y13.2114
G01 X43.3910 Y13.2750
G01 X43.4794 Y13.3222
G01 X43.5753 Y13.3513
G01 X43.6996 Y13.3636
G01 X44.3004 Y13.3636
G01 X44.4247 Y13.3513
G01 X44.5206 Y13.3222
G01 X44.6090 Y13.2750
G01 X44.6362 Y13.2531
G01 X44.6559 Y13.2384
G01 X44.6763 Y13.2248
G01 X44.6973 Y13.2122
G01 X44.7190 Y13.2006
G01 X44.7412 Y13.1901
G01 X44.7638 Y13.1807
G01 X44.7869 Y13.1725
G01 X44.8104 Y13.1653
G01 X44.8342 Y13.1594
G01 X44.8583 Y13.1546
G01 X44.8826 Y13.1510
G01 X44.9070 Y13.1486
G01 X44.9315 Y13.1474
G01 X44.9560 Y13.1474
G01 X44.9806 Y13.1486
G01 X45.0050 Y13.1510
G01 X45.0293 Y13.1546
G01 X45.0533 Y13.1594
G01 X45.0771 Y13.1653
G01 X45.1006 Y13.1725
G01 X45.1237 Y13.1807
G01 X45.1464 Y13.1901
G01 X45.1686 Y13.2006
G01 X45.1902 Y13.2122
G01 X45.2113 Y13.2248
G01 X45.2317 Y13.2384
G01 X45.2514 Y13.2531
G01 X45.2611 Y13.2606
G01 X45.3299 Y13.3171
G01 X45.3751 Y13.3413
G01 X45.4241 Y13.3561
G01 X45.4972 Y13.3633
G01 X45.5449 Y13.3629
G01 X45.5449 Y13.3163
G01 X45.5224 Y13.3070
G01 X45.5003 Y13.2965
G01 X45.4786 Y13.2849
G01 X45.4576 Y13.2723
G01 X45.4372 Y13.2587
G01 X45.4175 Y13.2441
G01 X45.3985 Y13.2285
G01 X45.3803 Y13.2120
G01 X45.3630 Y13.1947
G01 X45.3465 Y13.1765
G01 X45.3309 Y13.1575
G01 X45.3163 Y13.1378
G01 X45.3027 Y13.1174
G01 X45.2901 Y13.0964
G01 X45.2785 Y13.0747
G01 X45.2680 Y13.0526
G01 X45.2586 Y13.0299
G01 X45.2504 Y13.0068
G01 X45.2433 Y12.9833
G01 X45.2373 Y12.9595
G01 X45.2325 Y12.9355
G01 X45.2289 Y12.9112
G01 X45.2265 Y12.8868
G01 X45.2250 Y12.8500
G01 X45.2250 Y11.9500
G01 X45.2265 Y11.9132
G01 X45.2289 Y11.8888
G01 X45.2325 Y11.8645
G01 X45.2373 Y11.8405
G01 X45.2433 Y11.8167
G01 X45.2504 Y11.7932
G01 X45.2586 Y11.7701
G01 X45.2680 Y11.7474
G01 X45.2785 Y11.7253
G01 X45.2901 Y11.7036
G01 X45.3027 Y11.6826
G01 X45.3163 Y11.6622
G01 X45.3309 Y11.6425
G01 X45.3465 Y11.6235
G01 X45.3630 Y11.6053
G01 X45.3803 Y11.5880
G01 X45.3985 Y11.5715
G01 X45.4175 Y11.5559
G01 X45.4372 Y11.5413
G01 X45.4576 Y11.5277
G01 X45.4786 Y11.5151
G01 X45.5003 Y11.5035
G01 X45.5224 Y11.4930
G01 X45.5451 Y11.4836
G01 X45.5682 Y11.4754
G01 X45.5917 Y11.4683
G01 X45.6155 Y11.4623
G01 X45.6395 Y11.4575
G01 X45.6638 Y11.4539
G01 X45.6882 Y11.4515
G01 X45.7127 Y11.4503
G01 X45.7250 Y11.4500
G01 X45.9116 Y11.4500
G01 X45.8980 Y11.4419
G01 X45.8776 Y11.4282
G01 X45.8579 Y11.4136
G01 X45.8390 Y11.3981
G01 X45.8208 Y11.3816
G01 X45.8034 Y11.3642
G01 X45.7869 Y11.3460
G01 X45.7714 Y11.3271
G01 X45.7568 Y11.3074
G01 X45.7431 Y11.2870
G01 X45.7305 Y11.2659
G01 X45.7189 Y11.2443
G01 X45.7085 Y11.2221
G01 X45.6991 Y11.1994
G01 X45.6908 Y11.1763
G01 X45.6837 Y11.1528
G01 X45.6777 Y11.1290
G01 X45.6729 Y11.1049
G01 X45.6693 Y11.0807
G01 X45.6669 Y11.0562
G01 X45.6657 Y11.0317
G01 X45.6657 Y11.0072
G01 X45.6678 Y10.9704
G01 X45.6869 Y10.7766
G01 X45.6847 Y10.7515
G01 X45.6832 Y10.7147
G01 X45.6832 Y2.4866
G01 X45.6847 Y2.4499
G01 X45.6871 Y2.4254
G01 X45.6907 Y2.4012
G01 X45.6955 Y2.3771
G01 X45.7015 Y2.3533
G01 X45.7086 Y2.3298
G01 X45.7169 Y2.3067
G01 X45.7263 Y2.2840
G01 X45.7368 Y2.2618
G01 X45.7483 Y2.2402
G01 X45.7610 Y2.2192
G01 X45.7746 Y2.1988
G01 X45.7892 Y2.1790
G01 X45.8048 Y2.1601
G01 X45.8213 Y2.1419
G01 X45.8386 Y2.1245
G01 X45.8568 Y2.1081
G01 X45.8758 Y2.0925
G01 X45.8955 Y2.0779
G01 X45.9159 Y2.0642
G01 X45.9369 Y2.0516
G01 X45.9586 Y2.0401
G01 X45.9807 Y2.0296
G01 X46.0034 Y2.0202
G01 X46.0265 Y2.0119
G01 X46.0500 Y2.0048
G01 X46.0738 Y1.9988
G01 X46.0979 Y1.9940
G01 X46.1222 Y1.9904
G01 X46.1466 Y1.9880
G01 X46.1711 Y1.9868
G01 X46.1834 Y1.9865
G01 X46.7141 Y1.9865
G01 X46.7509 Y1.9880
G01 X46.7753 Y1.9904
G01 X46.7996 Y1.9940
G01 X46.8237 Y1.9988
G01 X46.8475 Y2.0048
G01 X46.8710 Y2.0119
G01 X46.8941 Y2.0202
G01 X46.9167 Y2.0296
G01 X46.9389 Y2.0401
G01 X46.9606 Y2.0516
G01 X46.9816 Y2.0642
G01 X47.0020 Y2.0779
G01 X47.0217 Y2.0925
G01 X47.0407 Y2.1081
G01 X47.0589 Y2.1245
G01 X47.0762 Y2.1419
G01 X47.0927 Y2.1601
G01 X47.1083 Y2.1790
G01 X47.1229 Y2.1988
G01 X47.1365 Y2.2192
G01 X47.1491 Y2.2402
G01 X47.1607 Y2.2618
G01 X47.1712 Y2.2840
G01 X47.1806 Y2.3067
G01 X47.1889 Y2.3298
G01 X47.1960 Y2.3533
G01 X47.2020 Y2.3771
G01 X47.2067 Y2.4012
G01 X47.2103 Y2.4254
G01 X47.2127 Y2.4499
G01 X47.2140 Y2.4744
G01 X47.2140 Y2.4989
G01 X47.2127 Y2.5234
G01 X47.2103 Y2.5478
G01 X47.2067 Y2.5721
G01 X47.2020 Y2.5962
G01 X47.1960 Y2.6200
G01 X47.1889 Y2.6435
G01 X47.1806 Y2.6666
G01 X47.1764 Y2.6767
G01 X47.1059 Y2.9093
G01 X47.0891 Y3.0797
G01 X47.0891 Y4.9936
G01 X47.1059 Y5.1640
G01 X47.1722 Y5.3827
G01 X47.2799 Y5.5842
G01 X47.4248 Y5.7608
G01 X47.6014 Y5.9057
G01 X47.8029 Y6.0134
G01 X48.0216 Y6.0797
G01 X48.2489 Y6.1021
G01 X48.4763 Y6.0797
G01 X48.6045 Y6.0409
G01 X48.6401 Y6.0316
G01 X48.6642 Y6.0268
G01 X48.6885 Y6.0232
G01 X48.7129 Y6.0208
G01 X48.7374 Y6.0196
G01 X48.7619 Y6.0196
G01 X48.7865 Y6.0208
G01 X48.8109 Y6.0232
G01 X48.8352 Y6.0268
G01 X48.8592 Y6.0316
G01 X48.8830 Y6.0376
G01 X48.9065 Y6.0447
G01 X48.9296 Y6.0530
G01 X48.9523 Y6.0624
G01 X48.9745 Y6.0729
G01 X48.9961 Y6.0844
G01 X49.0172 Y6.0970
G01 X49.0376 Y6.1107
G01 X49.0573 Y6.1253
G01 X49.0762 Y6.1409
G01 X49.1033 Y6.1658
G01 X50.1392 Y7.2017
G01 X50.1641 Y7.2287
G01 X50.1796 Y7.2477
G01 X50.1942 Y7.2673
G01 X50.2079 Y7.2877
G01 X50.2205 Y7.3087
G01 X50.2320 Y7.3303
G01 X50.2425 Y7.3524
G01 X50.2519 Y7.3750
G01 X50.2602 Y7.3981
G01 X50.2673 Y7.4215
G01 X50.2733 Y7.4453
G01 X50.2781 Y7.4693
G01 X50.2817 Y7.4935
G01 X50.2841 Y7.5179
G01 X50.2854 Y7.5423
G01 X50.2854 Y7.5668
G01 X50.2843 Y7.5913
G01 X50.2819 Y7.6157
G01 X50.2783 Y7.6399
G01 X50.2736 Y7.6639
G01 X50.2677 Y7.6877
G01 X50.2607 Y7.7112
G01 X50.2524 Y7.7342
G01 X50.2431 Y7.7569
G01 X50.2327 Y7.7791
G01 X50.2212 Y7.8007
G01 X50.2087 Y7.8217
G01 X50.1951 Y7.8421
G01 X50.1806 Y7.8618
G01 X50.1651 Y7.8808
G01 X50.1487 Y7.8990
G01 X50.1315 Y7.9164
G01 X50.1134 Y7.9329
G01 X50.0945 Y7.9485
G01 X50.0749 Y7.9631
G01 X50.0545 Y7.9768
G01 X50.0413 Y7.9848
G01 X50.0413 Y8.0656
G01 X50.5268 Y8.0656
G01 X50.5513 Y8.0668
G01 X50.5756 Y8.0704
G01 X50.5994 Y8.0764
G01 X50.6225 Y8.0846
G01 X50.6446 Y8.0951
G01 X50.6657 Y8.1077
G01 X50.6854 Y8.1223
G01 X50.7036 Y8.1388
G01 X50.7201 Y8.1570
G01 X50.7347 Y8.1767
G01 X50.7473 Y8.1978
G01 X50.7578 Y8.2199
G01 X50.7660 Y8.2430
G01 X50.7720 Y8.2668
G01 X50.7756 Y8.2911
G01 X50.7768 Y8.3156
G01 X50.7768 Y8.8744
G01 X50.7756 Y8.8989
G01 X50.7720 Y8.9232
G01 X50.7660 Y8.9470
G01 X50.7578 Y8.9701
G01 X50.7473 Y8.9922
G01 X50.7347 Y9.0133
G01 X50.7201 Y9.0330
G01 X50.7036 Y9.0512
G01 X50.6854 Y9.0677
G01 X50.6657 Y9.0823
G01 X50.6446 Y9.0949
G01 X50.6225 Y9.1054
G01 X50.5994 Y9.1136
G01 X50.5756 Y9.1196
G01 X50.5513 Y9.1232
G01 X50.5268 Y9.1244
G01 X48.5456 Y9.1244
G01 X48.5211 Y9.1232
G01 X48.4968 Y9.1196
G01 X48.4730 Y9.1136
G01 X48.4499 Y9.1054
G01 X48.4388 Y9.1001
G01 X48.3567 Y9.1001
G01 X48.3617 Y9.1205
G01 X48.3665 Y9.1445
G01 X48.3701 Y9.1688
G01 X48.3725 Y9.1932
G01 X48.3737 Y9.2177
G01 X48.3737 Y9.2423
G01 X48.3725 Y9.2668
G01 X48.3701 Y9.2912
G01 X48.3665 Y9.3155
G01 X48.3617 Y9.3395
G01 X48.3558 Y9.3634
G01 X48.3487 Y9.3868
G01 X48.3404 Y9.4099
G01 X48.3310 Y9.4326
G01 X48.3205 Y9.4548
G01 X48.3043 Y9.4857
G01 X48.2895 Y9.5347
G01 X48.2820 Y9.6102
G01 X48.2820 Y10.1198
G01 X48.2895 Y10.1953
G01 X48.3043 Y10.2443
G01 X48.3205 Y10.2752
G01 X48.3310 Y10.2974
G01 X48.3404 Y10.3201
G01 X48.3487 Y10.3432
G01 X48.3558 Y10.3666
G01 X48.3617 Y10.3905
G01 X48.3665 Y10.4145
G01 X48.3701 Y10.4388
G01 X48.3725 Y10.4632
G01 X48.3737 Y10.4877
G01 X48.3737 Y10.5123
G01 X48.3725 Y10.5368
G01 X48.3701 Y10.5612
G01 X48.3665 Y10.5855
G01 X48.3617 Y10.6095
G01 X48.3558 Y10.6334
G01 X48.3487 Y10.6568
G01 X48.3404 Y10.6799
G01 X48.3310 Y10.7026
G01 X48.3205 Y10.7248
G01 X48.3043 Y10.7557
G01 X48.2895 Y10.8047
G01 X48.2820 Y10.8802
G01 X48.2820 Y11.3898
G01 X48.2895 Y11.4653
G01 X48.3043 Y11.5143
G01 X48.3205 Y11.5452
G01 X48.3310 Y11.5674
G01 X48.3404 Y11.5901
G01 X48.3487 Y11.6132
G01 X48.3558 Y11.6366
G01 X48.3617 Y11.6605
G01 X48.3665 Y11.6845
G01 X48.3701 Y11.7088
G01 X48.3725 Y11.7332
G01 X48.3737 Y11.7577
G01 X48.3737 Y11.7823
G01 X48.3725 Y11.8068
G01 X48.3701 Y11.8312
G01 X48.3665 Y11.8555
G01 X48.3617 Y11.8795
G01 X48.3558 Y11.9034
G01 X48.3487 Y11.9268
G01 X48.3404 Y11.9499
G01 X48.3310 Y11.9726
G01 X48.3205 Y11.9948
G01 X48.3043 Y12.0257
G01 X48.2895 Y12.0747
G01 X48.2820 Y12.1502
G01 X48.2820 Y12.6598
G01 X48.2895 Y12.7353
G01 X48.3043 Y12.7843
G01 X48.3285 Y12.8295
G01 X48.3610 Y12.8690
G01 X48.4005 Y12.9015
G01 X48.4457 Y12.9257
G01 X48.4989 Y12.9418
G01 X48.5117 Y12.9437
G01 X48.5357 Y12.9485
G01 X48.5596 Y12.9545
G01 X48.5830 Y12.9616
G01 X48.6061 Y12.9698
G01 X48.6288 Y12.9792
G01 X48.6510 Y12.9897
G01 X48.6726 Y13.0013
G01 X48.6937 Y13.0139
G01 X48.7141 Y13.0275
G01 X48.7338 Y13.0422
G01 X48.7528 Y13.0577
G01 X48.7710 Y13.0742
G01 X48.7883 Y13.0916
G01 X48.8048 Y13.1097
G01 X48.8204 Y13.1287
G01 X48.8350 Y13.1484
G01 X48.8486 Y13.1688
G01 X48.8612 Y13.1899
G01 X48.8728 Y13.2115
G01 X48.8833 Y13.2337
G01 X48.8927 Y13.2564
G01 X48.9009 Y13.2795
G01 X48.9081 Y13.3030
G01 X48.9140 Y13.3268
G01 X48.9188 Y13.3508
G01 X48.9224 Y13.3751
G01 X48.9248 Y13.3995
G01 X48.9263 Y13.4363
G01 X48.9263 Y16.0010
G01 X48.9248 Y16.0384
G01 X48.9223 Y16.0632
G01 X48.9186 Y16.0878
G01 X48.9136 Y16.1123
G01 X48.9075 Y16.1364
G01 X48.9001 Y16.1602
G01 X48.8916 Y16.1837
G01 X48.8819 Y16.2066
G01 X48.8711 Y16.2291
G01 X48.8592 Y16.2510
G01 X48.8462 Y16.2723
G01 X48.8321 Y16.2929
G01 X48.8171 Y16.3128
G01 X48.8010 Y16.3319
G01 X48.7841 Y16.3501
G01 X48.7662 Y16.3675
G01 X48.7475 Y16.3840
G01 X48.7280 Y16.3996
G01 X48.7078 Y16.4141
G01 X48.6868 Y16.4276
G01 X48.6652 Y16.4401
G01 X48.6431 Y16.4515
G01 X48.6203 Y16.4617
G01 X48.5971 Y16.4708
G01 X48.5735 Y16.4788
G01 X48.5495 Y16.4855
G01 X48.5252 Y16.4911
G01 X48.5006 Y16.4954
G01 X48.4759 Y16.4985
G01 X48.4510 Y16.5003
G01 X48.4261 Y16.5010
G01 X48.4012 Y16.5003
G01 X48.3763 Y16.4985
G01 X48.3516 Y16.4954
G01 X48.3270 Y16.4910
G01 X48.3027 Y16.4855
G01 X48.2787 Y16.4787
G01 X48.2551 Y16.4708
G01 X48.2319 Y16.4616
G01 X48.2091 Y16.4514
G01 X48.1870 Y16.4400
G01 X48.1703 Y16.4304
G01 X48.1703 Y16.4468
G01 X48.1889 Y16.4637
G01 X48.2063 Y16.4811
G01 X48.2623 Y16.5429
G01 X48.2779 Y16.5618
G01 X48.3276 Y16.6288
G01 X48.3412 Y16.6492
G01 X48.3841 Y16.7208
G01 X48.3956 Y16.7424
G01 X48.4313 Y16.8178
G01 X48.4407 Y16.8405
G01 X48.4688 Y16.9190
G01 X48.4759 Y16.9425
G01 X48.4962 Y17.0234
G01 X48.5010 Y17.0475
G01 X48.5132 Y17.1300
G01 X48.5156 Y17.1544
G01 X48.5197 Y17.2377
G01 X48.5197 Y17.2623
G01 X48.5156 Y17.3456
G01 X48.5132 Y17.3700
G01 X48.5010 Y17.4525
G01 X48.4962 Y17.4766
G01 X48.4759 Y17.5575
G01 X48.4688 Y17.5810
G01 X48.4407 Y17.6595
G01 X48.4313 Y17.6822
G01 X48.3956 Y17.7576
G01 X48.3841 Y17.7792
G01 X48.3412 Y17.8508
G01 X48.3276 Y17.8712
G01 X48.2779 Y17.9382
G01 X48.2623 Y17.9571
G01 X48.2063 Y18.0189
G01 X48.1889 Y18.0363
G01 X48.1703 Y18.0532
G01 X48.1703 Y18.0578
G01 X48.2309 Y18.0043
G01 X48.2849 Y17.9333
G01 X48.2928 Y17.9236
G01 X48.3089 Y17.9044
G01 X48.3260 Y17.8862
G01 X48.3440 Y17.8687
G01 X48.3628 Y17.8523
G01 X48.3824 Y17.8367
G01 X48.4027 Y17.8222
G01 X48.4238 Y17.8087
G01 X48.4455 Y17.7963
G01 X48.4678 Y17.7850
G01 X48.4907 Y17.7748
G01 X48.5140 Y17.7658
G01 X48.5378 Y17.7579
G01 X48.5619 Y17.7513
G01 X48.5863 Y17.7458
G01 X48.6110 Y17.7416
G01 X48.6358 Y17.7386
G01 X48.6608 Y17.7369
G01 X48.6858 Y17.7364
G01 X48.7108 Y17.7372
G01 X48.7357 Y17.7392
G01 X48.7605 Y17.7425
G01 X48.7851 Y17.7470
G01 X48.8095 Y17.7528
G01 X48.8335 Y17.7597
G01 X48.8571 Y17.7678
G01 X48.8804 Y17.7771
G01 X48.9031 Y17.7876
G01 X48.9253 Y17.7992
G01 X48.9468 Y17.8119
G01 X48.9677 Y17.8256
G01 X48.9879 Y17.8404
G01 X49.0073 Y17.8561
G01 X49.0260 Y17.8728
G01 X49.0437 Y17.8905
G01 X49.0606 Y17.9089
G01 X49.0765 Y17.9282
G01 X49.0978 Y17.9574
G01 X49.2525 Y18.1121
G01 X49.4343 Y18.2336
G01 X49.6363 Y18.3172
G01 X49.8507 Y18.3599
G01 X50.0693 Y18.3599
G01 X50.2837 Y18.3172
G01 X50.4857 Y18.2336
G01 X50.6783 Y18.1049
G01 X50.6892 Y18.0960
G01 X50.7089 Y18.0813
G01 X50.7293 Y18.0677
G01 X50.7503 Y18.0551
G01 X50.7720 Y18.0435
G01 X50.7942 Y18.0330
G01 X50.8168 Y18.0236
G01 X50.8399 Y18.0154
G01 X50.8634 Y18.0083
G01 X50.8872 Y18.0023
G01 X50.9113 Y17.9975
G01 X50.9356 Y17.9939
G01 X50.9600 Y17.9915
G01 X50.9845 Y17.9903
G01 X51.0090 Y17.9903
G01 X51.0335 Y17.9915
G01 X51.0580 Y17.9939
G01 X51.0822 Y17.9975
G01 X51.1063 Y18.0023
G01 X51.1301 Y18.0083
G01 X51.1536 Y18.0154
G01 X51.1767 Y18.0236
G01 X51.1994 Y18.0330
G01 X51.2216 Y18.0435
G01 X51.2432 Y18.0551
G01 X51.2643 Y18.0677
G01 X51.2846 Y18.0813
G01 X51.3044 Y18.0960
G01 X51.3233 Y18.1115
G01 X51.3415 Y18.1280
G01 X51.3589 Y18.1454
G01 X51.3753 Y18.1635
G01 X51.3909 Y18.1825
G01 X51.4055 Y18.2022
G01 X51.4192 Y18.2226
G01 X51.4319 Y18.2439
G01 X51.4654 Y18.2846
G01 X51.5049 Y18.3171
G01 X51.5501 Y18.3413
G01 X51.5991 Y18.3561
G01 X51.6746 Y18.3636
G01 X53.3254 Y18.3636
G01 X53.4009 Y18.3561
G01 X53.4499 Y18.3413
G01 X53.4951 Y18.3171
G01 X53.5346 Y18.2846
G01 X53.5671 Y18.2451
G01 X53.5913 Y18.1999
G01 X53.6061 Y18.1509
G01 X53.6136 Y18.0754
G01 X53.6136 Y16.4246
G01 X53.6061 Y16.3491
G01 X53.5913 Y16.3001
G01 X53.5671 Y16.2549
G01 X53.5346 Y16.2154
G01 X53.4951 Y16.1829
G01 X53.4472 Y16.1573
G01 X53.4301 Y16.1511
G01 X53.4074 Y16.1418
G01 X53.3852 Y16.1313
G01 X53.3636 Y16.1197
G01 X53.3425 Y16.1071
G01 X53.3221 Y16.0934
G01 X53.3024 Y16.0788
G01 X53.2834 Y16.0633
G01 X53.2652 Y16.0468
G01 X53.2479 Y16.0294
G01 X53.2314 Y16.0112
G01 X53.2158 Y15.9923
G01 X53.2012 Y15.9726
G01 X53.1876 Y15.9522
G01 X53.1750 Y15.9311
G01 X53.1634 Y15.9095
G01 X53.1529 Y15.8873
G01 X53.1435 Y15.8646
G01 X53.1353 Y15.8415
G01 X53.1281 Y15.8180
G01 X53.1222 Y15.7942
G01 X53.1174 Y15.7702
G01 X53.1138 Y15.7459
G01 X53.1114 Y15.7215
G01 X53.1099 Y15.6847
G01 X53.1099 Y15.6455
G01 X53.1099 Y13.4481
G01 X53.1114 Y13.4113
G01 X53.1138 Y13.3869
G01 X53.1174 Y13.3626
G01 X53.1222 Y13.3385
G01 X53.1281 Y13.3147
G01 X53.1353 Y13.2912
G01 X53.1435 Y13.2681
G01 X53.1529 Y13.2455
G01 X53.1634 Y13.2233
G01 X53.1750 Y13.2016
G01 X53.1876 Y13.1806
G01 X53.2012 Y13.1602
G01 X53.2158 Y13.1405
G01 X53.2314 Y13.1215
G01 X53.2479 Y13.1033
G01 X53.2652 Y13.0860
G01 X53.2834 Y13.0695
G01 X53.3024 Y13.0539
G01 X53.3221 Y13.0393
G01 X53.3425 Y13.0257
G01 X53.3636 Y13.0131
G01 X53.3852 Y13.0015
G01 X53.4074 Y12.9910
G01 X53.4301 Y12.9816
G01 X53.4532 Y12.9733
G01 X53.4766 Y12.9662
G01 X53.5005 Y12.9603
G01 X53.5245 Y12.9555
G01 X53.5488 Y12.9519
G01 X53.5732 Y12.9495
G01 X53.5977 Y12.9483
G01 X53.6100 Y12.9480
G01 X54.2508 Y12.9480
G01 X54.2876 Y12.9495
G01 X54.3120 Y12.9519
G01 X54.3274 Y12.9541
G01 X54.4363 Y12.9649
G01 X55.8324 Y12.9649
G01 X55.8692 Y12.9664
G01 X55.8936 Y12.9688
G01 X55.9179 Y12.9724
G01 X55.9419 Y12.9772
G01 X55.9657 Y12.9831
G01 X55.9892 Y12.9903
G01 X56.0123 Y12.9985
G01 X56.0350 Y13.0079
G01 X56.0572 Y13.0184
G01 X56.0788 Y13.0300
G01 X56.0999 Y13.0426
G01 X56.1203 Y13.0562
G01 X56.1400 Y13.0708
G01 X56.1590 Y13.0864
G01 X56.1772 Y13.1029
G01 X56.1945 Y13.1202
G01 X56.2110 Y13.1384
G01 X56.2265 Y13.1574
G01 X56.2412 Y13.1771
G01 X56.2548 Y13.1975
G01 X56.2674 Y13.2186
G01 X56.2790 Y13.2402
G01 X56.2895 Y13.2624
G01 X56.2989 Y13.2851
G01 X56.3071 Y13.3082
G01 X56.3143 Y13.3316
G01 X56.3202 Y13.3555
G01 X56.3250 Y13.3795
G01 X56.3286 Y13.4038
G01 X56.3310 Y13.4282
G01 X56.3322 Y13.4527
G01 X56.3322 Y13.4773
G01 X56.3310 Y13.5018
G01 X56.3286 Y13.5262
G01 X56.3250 Y13.5505
G01 X56.3202 Y13.5745
G01 X56.3143 Y13.5984
G01 X56.3071 Y13.6218
G01 X56.2989 Y13.6449
G01 X56.2895 Y13.6676
G01 X56.2790 Y13.6898
G01 X56.2735 Y13.7008
G01 X56.2337 Y13.7751
G01 X56.2189 Y13.8241
G01 X56.2117 Y13.8972
G01 X56.2121 Y13.9449
G01 X56.2587 Y13.9449
G01 X56.2680 Y13.9224
G01 X56.2785 Y13.9003
G01 X56.2901 Y13.8786
G01 X56.3027 Y13.8576
G01 X56.3163 Y13.8372
G01 X56.3309 Y13.8175
G01 X56.3465 Y13.7985
G01 X56.3630 Y13.7803
G01 X56.3803 Y13.7630
G01 X56.3985 Y13.7465
G01 X56.4175 Y13.7309
G01 X56.4372 Y13.7163
G01 X56.4576 Y13.7027
G01 X56.4786 Y13.6901
G01 X56.5003 Y13.6785
G01 X56.5224 Y13.6680
G01 X56.5451 Y13.6586
G01 X56.5682 Y13.6504
G01 X56.5917 Y13.6433
G01 X56.6155 Y13.6373
G01 X56.6395 Y13.6325
G01 X56.6638 Y13.6289
G01 X56.6882 Y13.6265
G01 X56.7250 Y13.6250
G01 X57.6250 Y13.6250
G01 X57.6618 Y13.6265
G01 X57.6862 Y13.6289
G01 X57.7105 Y13.6325
G01 X57.7345 Y13.6373
G01 X57.7583 Y13.6433
G01 X57.7818 Y13.6504
G01 X57.8049 Y13.6586
G01 X57.8276 Y13.6680
G01 X57.8497 Y13.6785
G01 X57.8714 Y13.6901
G01 X57.8924 Y13.7027
G01 X57.9128 Y13.7163
G01 X57.9325 Y13.7309
G01 X57.9515 Y13.7465
G01 X57.9697 Y13.7630
G01 X57.9870 Y13.7803
G01 X58.0035 Y13.7985
G01 X58.0191 Y13.8175
G01 X58.0337 Y13.8372
G01 X58.0473 Y13.8576
G01 X58.0599 Y13.8786
G01 X58.0715 Y13.9003
G01 X58.0820 Y13.9224
G01 X58.0913 Y13.9449
G01 X58.1379 Y13.9449
G01 X58.1383 Y13.8972
G01 X58.1311 Y13.8241
G01 X58.1163 Y13.7751
G01 X58.0921 Y13.7299
G01 X58.0356 Y13.6611
G01 X58.0281 Y13.6514
G01 X58.0134 Y13.6317
G01 X57.9998 Y13.6113
G01 X57.9872 Y13.5902
G01 X57.9756 Y13.5686
G01 X57.9651 Y13.5464
G01 X57.9557 Y13.5237
G01 X57.9475 Y13.5006
G01 X57.9403 Y13.4771
G01 X57.9344 Y13.4533
G01 X57.9296 Y13.4293
G01 X57.9260 Y13.4050
G01 X57.9236 Y13.3806
G01 X57.9224 Y13.3560
G01 X57.9224 Y13.3315
G01 X57.9236 Y13.3070
G01 X57.9260 Y13.2826
G01 X57.9296 Y13.2583
G01 X57.9344 Y13.2342
G01 X57.9403 Y13.2104
G01 X57.9475 Y13.1869
G01 X57.9557 Y13.1638
G01 X57.9651 Y13.1412
G01 X57.9756 Y13.1190
G01 X57.9872 Y13.0973
G01 X57.9998 Y13.0763
G01 X58.0134 Y13.0559
G01 X58.0281 Y13.0362
G01 X58.0500 Y13.0090
G01 X58.0972 Y12.9206
G01 X58.1263 Y12.8247
G01 X58.1386 Y12.7004
G01 X58.1386 Y12.3428
G01 X58.1401 Y12.3055
G01 X58.1426 Y12.2807
G01 X58.1463 Y12.2561
G01 X58.1512 Y12.2317
G01 X58.1573 Y12.2076
G01 X58.1647 Y12.1838
G01 X58.1732 Y12.1604
G01 X58.1828 Y12.1375
G01 X58.1936 Y12.1150
G01 X58.2055 Y12.0932
G01 X58.2184 Y12.0719
G01 X58.2324 Y12.0514
G01 X58.2475 Y12.0315
G01 X58.2634 Y12.0124
G01 X58.2803 Y11.9941
G01 X58.2981 Y11.9767
G01 X58.3168 Y11.9602
G01 X58.3362 Y11.9447
G01 X58.3564 Y11.9301
G01 X58.3773 Y11.9166
G01 X58.3988 Y11.9041
G01 X58.4210 Y11.8927
G01 X58.4436 Y11.8825
G01 X58.4668 Y11.8733
G01 X58.4904 Y11.8653
G01 X58.5143 Y11.8586
G01 X58.5386 Y11.8530
G01 X58.5631 Y11.8486
G01 X58.5878 Y11.8454
G01 X58.6126 Y11.8435
G01 X58.6375 Y11.8428
G01 X58.6623 Y11.8434
G01 X58.6872 Y11.8452
G01 X58.7119 Y11.8482
G01 X58.7364 Y11.8525
G01 X58.7607 Y11.8580
G01 X58.7847 Y11.8646
G01 X58.8083 Y11.8725
G01 X58.8315 Y11.8815
G01 X58.8542 Y11.8917
G01 X58.8764 Y11.9030
G01 X58.8980 Y11.9153
G01 X58.9189 Y11.9288
G01 X58.9392 Y11.9432
G01 X58.9587 Y11.9587
G01 X58.9774 Y11.9751
G01 X58.9953 Y11.9924
G01 X59.0123 Y12.0106
G01 X59.0284 Y12.0296
G01 X59.0435 Y12.0494
G01 X59.0576 Y12.0699
G01 X59.0706 Y12.0911
G01 X59.0884 Y12.1239
G01 X59.3445 Y12.6501
G01 X59.4152 Y12.7560
G01 X59.4722 Y12.7898
G01 X59.4295 Y12.7323
G01 X59.4159 Y12.7119
G01 X59.2721 Y12.4720
G01 X59.2605 Y12.4504
G01 X59.1409 Y12.1975
G01 X59.1316 Y12.1749
G01 X59.0373 Y11.9115
G01 X59.0302 Y11.8881
G01 X58.9623 Y11.6168
G01 X58.9575 Y11.5927
G01 X58.9164 Y11.3160
G01 X58.9140 Y11.2916
G01 X58.9003 Y11.0123
G01 X58.9003 Y10.9877
G01 X58.9140 Y10.7084
G01 X58.9164 Y10.6840
G01 X58.9575 Y10.4073
G01 X58.9623 Y10.3832
G01 X59.0302 Y10.1119
G01 X59.0373 Y10.0885
G01 X59.1316 Y9.8251
G01 X59.1409 Y9.8025
G01 X59.2605 Y9.5496
G01 X59.2721 Y9.5280
G01 X59.4159 Y9.2881
G01 X59.4295 Y9.2677
G01 X59.4722 Y9.2102
G01 X59.4097 Y9.2473
G01 X59.3891 Y9.2688
G01 X59.3715 Y9.2854
G01 X59.3530 Y9.3010
G01 X59.3338 Y9.3157
G01 X59.3139 Y9.3295
G01 X59.2934 Y9.3423
G01 X59.2723 Y9.3542
G01 X59.2507 Y9.3649
G01 X59.2285 Y9.3746
G01 X59.2059 Y9.3833
G01 X59.1829 Y9.3908
G01 X59.1596 Y9.3972
G01 X59.1360 Y9.4024
G01 X59.1121 Y9.4066
G01 X59.0881 Y9.4095
G01 X59.0640 Y9.4113
G01 X59.0398 Y9.4119
G01 X59.0156 Y9.4114
G01 X58.9915 Y9.4097
G01 X58.9675 Y9.4068
G01 X58.9436 Y9.4028
G01 X58.9200 Y9.3976
G01 X58.8967 Y9.3913
G01 X58.8737 Y9.3838
G01 X58.8510 Y9.3753
G01 X58.8288 Y9.3657
G01 X58.8071 Y9.3550
G01 X58.7860 Y9.3432
G01 X58.7654 Y9.3305
G01 X58.7455 Y9.3168
G01 X58.7263 Y9.3021
G01 X58.7078 Y9.2865
G01 X58.6900 Y9.2701
G01 X58.6731 Y9.2528
G01 X58.6571 Y9.2347
G01 X58.6419 Y9.2158
G01 X58.6277 Y9.1963
G01 X58.6144 Y9.1760
G01 X58.6021 Y9.1552
G01 X58.5909 Y9.1338
G01 X58.5807 Y9.1119
G01 X58.5715 Y9.0895
G01 X58.5635 Y9.0666
G01 X58.5566 Y9.0435
G01 X58.5508 Y9.0200
G01 X58.5461 Y8.9962
G01 X58.5426 Y8.9723
G01 X58.5403 Y8.9482
G01 X58.5388 Y8.9120
G01 X58.5388 Y5.1963
G01 X58.5391 Y5.1840
G01 X58.5404 Y5.1593
G01 X58.5428 Y5.1347
G01 X58.5464 Y5.1103
G01 X58.5513 Y5.0861
G01 X58.5573 Y5.0622
G01 X58.5645 Y5.0385
G01 X58.5729 Y5.0153
G01 X58.5824 Y4.9925
G01 X58.5930 Y4.9702
G01 X58.6047 Y4.9485
G01 X58.6175 Y4.9274
G01 X58.6313 Y4.9069
G01 X58.6461 Y4.8871
G01 X58.6618 Y4.8681
G01 X58.6785 Y4.8499
G01 X58.6960 Y4.8325
G01 X58.7144 Y4.8160
G01 X58.7336 Y4.8004
G01 X58.7535 Y4.7858
G01 X58.7741 Y4.7723
G01 X58.7954 Y4.7597
G01 X58.8172 Y4.7482
G01 X58.8396 Y4.7378
G01 X58.8625 Y4.7285
G01 X58.8858 Y4.7204
G01 X58.9095 Y4.7134
G01 X58.9335 Y4.7076
G01 X58.9578 Y4.7030
G01 X58.9822 Y4.6996
G01 X59.0068 Y4.6974
G01 X59.0315 Y4.6964
G01 X59.0562 Y4.6966
G01 X59.0808 Y4.6981
G01 X59.1054 Y4.7008
G01 X59.1298 Y4.7047
G01 X59.1539 Y4.7097
G01 X59.1778 Y4.7160
G01 X59.2014 Y4.7235
G01 X59.2245 Y4.7321
G01 X59.2441 Y4.7401
G01 X59.2971 Y4.7561
G01 X59.3446 Y4.7655
G01 X59.3927 Y4.7757
G01 X59.4860 Y4.7849
G01 X63.4616 Y4.7849
G01 X63.4982 Y4.7864
G01 X63.5104 Y4.7873
G01 X63.7841 Y4.8141
G01 X63.8204 Y4.8192
G01 X63.8443 Y4.8239
G01 X63.8798 Y4.8331
G01 X64.1061 Y4.9014
G01 X64.1407 Y4.9134
G01 X64.1633 Y4.9227
G01 X64.1964 Y4.9386
G01 X64.4051 Y5.0496
G01 X64.4367 Y5.0681
G01 X64.4571 Y5.0816
G01 X64.4864 Y5.1036
G01 X64.6696 Y5.2530
G01 X64.6788 Y5.2609
G01 X64.6970 Y5.2773
G01 X64.7143 Y5.2945
G01 X64.7388 Y5.3218
G01 X64.8895 Y5.5039
G01 X64.9117 Y5.5331
G01 X64.9254 Y5.5533
G01 X64.9441 Y5.5848
G01 X65.0565 Y5.7928
G01 X65.0726 Y5.8257
G01 X65.0821 Y5.8482
G01 X65.0943 Y5.8827
G01 X65.1643 Y6.1086
G01 X65.1737 Y6.1440
G01 X65.1786 Y6.1679
G01 X65.1839 Y6.2042
G01 X65.2124 Y6.4754
G01 X65.2134 Y6.4884
G01 X65.2151 Y6.5276
G01 X65.2151 Y8.7397
G01 X65.2136 Y8.7772
G01 X65.2110 Y8.8022
G01 X65.2073 Y8.8270
G01 X65.2023 Y8.8516
G01 X65.1961 Y8.8759
G01 X65.1886 Y8.8998
G01 X65.1800 Y8.9233
G01 X65.1702 Y8.9464
G01 X65.1593 Y8.9690
G01 X65.1472 Y8.9910
G01 X65.1341 Y9.0123
G01 X65.1199 Y9.0330
G01 X65.1046 Y9.0529
G01 X65.0885 Y9.0721
G01 X65.0713 Y9.0904
G01 X65.0533 Y9.1078
G01 X65.0344 Y9.1243
G01 X65.0147 Y9.1398
G01 X64.9943 Y9.1544
G01 X64.9731 Y9.1678
G01 X64.9513 Y9.1802
G01 X64.9290 Y9.1915
G01 X64.9060 Y9.2017
G01 X64.8826 Y9.2107
G01 X64.8588 Y9.2185
G01 X64.8346 Y9.2251
G01 X64.8101 Y9.2305
G01 X64.7854 Y9.2346
G01 X64.7605 Y9.2376
G01 X64.7355 Y9.2392
G01 X64.7104 Y9.2396
G01 X64.6853 Y9.2387
G01 X64.6603 Y9.2366
G01 X64.6355 Y9.2333
G01 X64.6108 Y9.2287
G01 X64.5864 Y9.2228
G01 X64.5624 Y9.2158
G01 X64.5387 Y9.2075
G01 X64.5203 Y9.2001
G01 X64.5705 Y9.2677
G01 X64.5841 Y9.2881
G01 X64.7279 Y9.5280
G01 X64.7395 Y9.5496
G01 X64.8591 Y9.8025
G01 X64.8684 Y9.8251
G01 X64.9627 Y10.0885
G01 X64.9698 Y10.1119
G01 X65.0377 Y10.3832
G01 X65.0425 Y10.4073
G01 X65.0836 Y10.6840
G01 X65.0860 Y10.7084
G01 X65.0997 Y10.9877
G01 X65.0997 Y11.0123
G01 X65.0860 Y11.2916
G01 X65.0836 Y11.3160
G01 X65.0425 Y11.5927
G01 X65.0377 Y11.6168
G01 X64.9698 Y11.8881
G01 X64.9627 Y11.9115
G01 X64.8684 Y12.1749
G01 X64.8591 Y12.1975
G01 X64.7395 Y12.4504
G01 X64.7279 Y12.4720
G01 X64.5841 Y12.7119
G01 X64.5705 Y12.7323
G01 X64.5203 Y12.7999
G01 X64.5387 Y12.7925
G01 X64.5624 Y12.7842
G01 X64.5864 Y12.7772
G01 X64.6108 Y12.7713
G01 X64.6355 Y12.7667
G01 X64.6603 Y12.7634
G01 X64.6853 Y12.7613
G01 X64.7104 Y12.7604
G01 X64.7355 Y12.7608
G01 X64.7605 Y12.7624
G01 X64.7854 Y12.7654
G01 X64.8101 Y12.7695
G01 X64.8346 Y12.7749
G01 X64.8588 Y12.7815
G01 X64.8826 Y12.7893
G01 X64.9060 Y12.7983
G01 X64.9290 Y12.8085
G01 X64.9513 Y12.8198
G01 X64.9731 Y12.8322
G01 X64.9943 Y12.8456
G01 X65.0147 Y12.8602
G01 X65.0344 Y12.8757
G01 X65.0533 Y12.8922
G01 X65.0713 Y12.9096
G01 X65.0885 Y12.9279
G01 X65.1046 Y12.9471
G01 X65.1199 Y12.9670
G01 X65.1341 Y12.9877
G01 X65.1472 Y13.0090
G01 X65.1593 Y13.0310
G01 X65.1702 Y13.0536
G01 X65.1800 Y13.0767
G01 X65.1886 Y13.1002
G01 X65.1961 Y13.1241
G01 X65.2023 Y13.1484
G01 X65.2073 Y13.1730
G01 X65.2110 Y13.1978
G01 X65.2136 Y13.2228
G01 X65.2151 Y13.2603
G01 X65.2151 Y19.4616
G01 X65.2136 Y19.4982
G01 X65.2127 Y19.5104
G01 X65.1859 Y19.7841
G01 X65.1808 Y19.8204
G01 X65.1761 Y19.8443
G01 X65.1669 Y19.8798
G01 X65.0986 Y20.1061
G01 X65.0866 Y20.1407
G01 X65.0773 Y20.1633
G01 X65.0614 Y20.1964
G01 X64.9504 Y20.4051
G01 X64.9319 Y20.4367
G01 X64.9184 Y20.4571
G01 X64.8964 Y20.4864
G01 X64.7470 Y20.6696
G01 X64.7227 Y20.6970
G01 X64.7055 Y20.7143
G01 X64.6782 Y20.7388
G01 X64.4961 Y20.8895
G01 X64.4669 Y20.9117
G01 X64.4467 Y20.9254
G01 X64.4152 Y20.9441
G01 X64.2072 Y21.0565
G01 X64.1964 Y21.0621
G01 X64.1743 Y21.0726
G01 X64.1518 Y21.0821
G01 X64.1173 Y21.0944
G01 X63.8914 Y21.1643
G01 X63.8560 Y21.1737
G01 X63.8321 Y21.1786
G01 X63.7958 Y21.1839
G01 X63.5246 Y21.2124
G01 X63.4854 Y21.2148
G01 X63.4724 Y21.2151
G01 X1.5384 Y21.2151
G01 X1.5018 Y21.2136
G01 X1.4896 Y21.2127
G01 X1.2159 Y21.1859
G01 X1.1799 Y21.1809
G01 X1.1677 Y21.1788
G01 X1.1554 Y21.1760
G01 X1.1202 Y21.1669
G01 X0.8939 Y21.0986
G01 X0.8593 Y21.0866
G01 X0.8367 Y21.0773
G01 X0.8036 Y21.0614
G01 X0.5949 Y20.9504
G01 X0.5633 Y20.9319
G01 X0.5429 Y20.9184
G01 X0.5136 Y20.8964
G01 X0.3304 Y20.7470
G01 X0.3212 Y20.7391
G01 X0.3030 Y20.7227
G01 X0.2857 Y20.7055
G01 X0.2612 Y20.6782
G01 X0.1105 Y20.4961
G01 X0.0883 Y20.4669
G01 X0.0746 Y20.4467
G01 X0.0559 Y20.4152
G01 X-0.0565 Y20.2072
G01 X-0.0726 Y20.1743
G01 X-0.0821 Y20.1518
G01 X-0.0944 Y20.1173
G01 X-0.1643 Y19.8914
G01 X-0.1737 Y19.8560
G01 X-0.1786 Y19.8321
G01 X-0.1839 Y19.7958
G01 X-0.2124 Y19.5246
G01 X-0.2134 Y19.5116
G01 X-0.2151 Y19.4723
G01 X-0.2151 Y13.2603
G01 X-0.2136 Y13.2228
G01 X-0.2110 Y13.1978
G01 X-0.2073 Y13.1730
G01 X-0.2023 Y13.1484
G01 X-0.1961 Y13.1241
G01 X-0.1886 Y13.1002
G01 X-0.1800 Y13.0767
G01 X-0.1702 Y13.0536
G01 X-0.1593 Y13.0310
G01 X-0.1472 Y13.0090
G01 X-0.1341 Y12.9877
G01 X-0.1199 Y12.9670
G01 X-0.1047 Y12.9471
G01 X-0.0885 Y12.9279
G01 X-0.0713 Y12.9096
G01 X-0.0533 Y12.8922
G01 X-0.0344 Y12.8757
G01 X-0.0147 Y12.8602
G01 X0.0057 Y12.8456
G01 X0.0269 Y12.8322
G01 X0.0487 Y12.8198
G01 X0.0710 Y12.8085
G01 X0.0940 Y12.7983
G01 X0.1174 Y12.7893
G01 X0.1412 Y12.7815
G01 X0.1654 Y12.7749
G01 X0.1899 Y12.7695
G01 X0.2146 Y12.7654
G01 X0.2395 Y12.7624
G01 X0.2645 Y12.7608
G01 X0.2896 Y12.7604
G01 X0.3147 Y12.7613
G01 X0.3397 Y12.7634
G01 X0.3645 Y12.7667
G01 X0.3892 Y12.7713
G01 X0.4136 Y12.7772
G01 X0.4376 Y12.7842
G01 X0.4613 Y12.7925
G01 X0.4797 Y12.7999
G01 X0.4295 Y12.7323
G01 X0.4159 Y12.7119
G01 X0.2721 Y12.4720
G01 X0.2605 Y12.4504
G01 X0.1409 Y12.1975
G01 X0.1316 Y12.1749
G01 X0.0373 Y11.9115
G01 X0.0302 Y11.8881
G01 X-0.0377 Y11.6168
G01 X-0.0425 Y11.5927
G01 X-0.0836 Y11.3160
G01 X-0.0860 Y11.2916
G01 X-0.0997 Y11.0123
G01 X-0.0997 Y10.9877
G01 X-0.0860 Y10.7084
G01 X-0.0836 Y10.6840
G01 X-0.0425 Y10.4073
G01 X-0.0377 Y10.3832
G01 X0.0302 Y10.1119
G01 X0.0373 Y10.0885
G01 X0.1316 Y9.8251
G01 X0.1409 Y9.8025
G01 X0.2605 Y9.5496
G01 X0.2721 Y9.5280
G01 X0.4159 Y9.2881
G01 X0.4295 Y9.2677
G01 X0.4797 Y9.2001
G00 Z2.0000
G00 X1.2102 Y13.5278
G01 F800.00
G01 Z-0.0300
G01 F400.00
G01 X1.2677 Y13.5705
G01 X1.2881 Y13.5841
G01 X1.5280 Y13.7279
G01 X1.5496 Y13.7395
G01 X1.8025 Y13.8591
G01 X1.8251 Y13.8684
G01 X2.0885 Y13.9627
G01 X2.1119 Y13.9698
G01 X2.3832 Y14.0377
G01 X2.4073 Y14.0425
G01 X2.6840 Y14.0836
G01 X2.7084 Y14.0860
G01 X2.9877 Y14.0997
G01 X3.0123 Y14.0997
G01 X3.2916 Y14.0860
G01 X3.3160 Y14.0836
G01 X3.5927 Y14.0425
G01 X3.6168 Y14.0377
G01 X3.8881 Y13.9698
G01 X3.9115 Y13.9627
G01 X4.1749 Y13.8684
G01 X4.1975 Y13.8591
G01 X4.4504 Y13.7395
G01 X4.4720 Y13.7279
G01 X4.7119 Y13.5841
G01 X4.7323 Y13.5705
G01 X4.7898 Y13.5278
G01 X4.7560 Y13.5848
G01 X4.6501 Y13.6555
G01 X4.0856 Y13.9303
G01 X3.4931 Y14.0858
G01 X2.8816 Y14.1227
G01 X2.2747 Y14.0396
G01 X1.6956 Y13.8397
G01 X1.2358 Y13.5710
G01 X1.2102 Y13.5278
G00 Z2.0000
G00 X5.5278 Y12.7898
G01 F800.00
G01 Z-0.0300
G01 F400.00
G01 X5.5705 Y12.7323
G01 X5.5841 Y12.7119
G01 X5.7279 Y12.4720
G01 X5.7395 Y12.4504
G01 X5.8591 Y12.1975
G01 X5.8684 Y12.1749
G01 X5.9627 Y11.9115
G01 X5.9698 Y11.8881
G01 X6.0377 Y11.6168
G01 X6.0425 Y11.5927
G01 X6.0836 Y11.3160
G01 X6.0860 Y11.2916
G01 X6.0997 Y11.0123
G01 X6.0997 Y10.9877
G01 X6.0860 Y10.7084
G01 X6.0836 Y10.6840
G01 X6.0425 Y10.4073
G01 X6.0377 Y10.3832
G01 X5.9698 Y10.1119
G01 X5.9627 Y10.0885
G01 X5.8684 Y9.8251
G01 X5.8591 Y9.8025
G01 X5.7395 Y9.5496
G01 X5.7279 Y9.5280
G01 X5.5841 Y9.2881
G01 X5.5705 Y9.2677
G01 X5.5278 Y9.2102
G01 X5.5848 Y9.2440
G01 X5.6555 Y9.3499
G01 X5.9303 Y9.9144
G01 X6.0858 Y10.5069
G01 X6.1227 Y11.1184
G01 X6.0396 Y11.7253
G01 X5.8397 Y12.3044
G01 X5.5710 Y12.7642
G01 X5.5278 Y12.7898
G00 Z2.0000
G00 X10.1341 Y10.6056
G01 F800.00
G01 Z-0.0300
G01 F400.00
G01 X10.1442 Y10.6002
G01 X10.1753 Y10.5855
G01 X10.1980 Y10.5761
G01 X10.2303 Y10.5645
G01 X10.2538 Y10.5574
G01 X10.2871 Y10.5490
G01 X10.3112 Y10.5443
G01 X10.3452 Y10.5392
G01 X10.3696 Y10.5368
G01 X10.4039 Y10.5351
G01 X10.4285 Y10.5351
G01 X10.4628 Y10.5368
G01 X10.4872 Y10.5392
G01 X10.5212 Y10.5443
G01 X10.5453 Y10.5490
G01 X10.5786 Y10.5574
G01 X10.6021 Y10.5645
G01 X10.6344 Y10.5761
G01 X10.6571 Y10.5855
G01 X10.6882 Y10.6002
G01 X10.6983 Y10.6056
G01 X11.4068 Y10.6056
G01 X11.4313 Y10.6068
G01 X11.4556 Y10.6104
G01 X11.4794 Y10.6164
G01 X11.5025 Y10.6246
G01 X11.5246 Y10.6351
G01 X11.5457 Y10.6477
G01 X11.5654 Y10.6623
G01 X11.5836 Y10.6788
G01 X11.6001 Y10.6970
G01 X11.6147 Y10.7167
G01 X11.6273 Y10.7378
G01 X11.6378 Y10.7599
G01 X11.6460 Y10.7830
G01 X11.6520 Y10.8068
G01 X11.6556 Y10.8311
G01 X11.6568 Y10.8556
G01 X11.6568 Y11.4144
G01 X11.6556 Y11.4389
G01 X11.6520 Y11.4632
G01 X11.6460 Y11.4870
G01 X11.6378 Y11.5101
G01 X11.6273 Y11.5322
G01 X11.6147 Y11.5533
G01 X11.6001 Y11.5730
G01 X11.5836 Y11.5912
G01 X11.5654 Y11.6077
G01 X11.5457 Y11.6223
G01 X11.5246 Y11.6349
G01 X11.5025 Y11.6454
G01 X11.4794 Y11.6536
G01 X11.4556 Y11.6596
G01 X11.4313 Y11.6632
G01 X11.4068 Y11.6644
G01 X11.0164 Y11.6644
G01 X11.0164 Y11.8756
G01 X11.4068 Y11.8756
G01 X11.4313 Y11.8768
G01 X11.4556 Y11.8804
G01 X11.4794 Y11.8864
G01 X11.5025 Y11.8946
G01 X11.5246 Y11.9051
G01 X11.5457 Y11.9177
G01 X11.5654 Y11.9323
G01 X11.5836 Y11.9488
G01 X11.6001 Y11.9670
G01 X11.6147 Y11.9867
G01 X11.6273 Y12.0078
G01 X11.6378 Y12.0299
G01 X11.6460 Y12.0530
G01 X11.6520 Y12.0768
G01 X11.6556 Y12.1011
G01 X11.6568 Y12.1256
G01 X11.6568 Y12.6844
G01 X11.6556 Y12.7089
G01 X11.6520 Y12.7332
G01 X11.6460 Y12.7570
G01 X11.6384 Y12.7784
G01 X11.9744 Y13.1144
G01 X12.0059 Y13.1488
G01 X12.0215 Y13.1677
G01 X12.0420 Y13.1953
G01 X12.0556 Y13.2157
G01 X12.0733 Y13.2452
G01 X12.0848 Y13.2668
G01 X12.0995 Y13.2979
G01 X12.1089 Y13.3206
G01 X12.1205 Y13.3529
G01 X12.1276 Y13.3764
G01 X12.1360 Y13.4097
G01 X12.1407 Y13.4338
G01 X12.1458 Y13.4678
G01 X12.1482 Y13.4922
G01 X12.1502 Y13.5388
G01 X12.1502 Y16.3285
G01 X12.1712 Y16.3424
G01 X12.2382 Y16.3921
G01 X12.2571 Y16.4077
G01 X12.3189 Y16.4637
G01 X12.3363 Y16.4811
G01 X12.3923 Y16.5429
G01 X12.4079 Y16.5618
G01 X12.4576 Y16.6288
G01 X12.4712 Y16.6492
G01 X12.5141 Y16.7208
G01 X12.5256 Y16.7424
G01 X12.5613 Y16.8178
G01 X12.5707 Y16.8405
G01 X12.5988 Y16.9190
G01 X12.6059 Y16.9425
G01 X12.6262 Y17.0234
G01 X12.6310 Y17.0475
G01 X12.6432 Y17.1300
G01 X12.6456 Y17.1544
G01 X12.6497 Y17.2377
G01 X12.6497 Y17.2623
G01 X12.6456 Y17.3456
G01 X12.6432 Y17.3700
G01 X12.6310 Y17.4525
G01 X12.6262 Y17.4766
G01 X12.6059 Y17.5575
G01 X12.5988 Y17.5810
G01 X12.5707 Y17.6595
G01 X12.5613 Y17.6822
G01 X12.5256 Y17.7576
G01 X12.5141 Y17.7792
G01 X12.4712 Y17.8508
G01 X12.4576 Y17.8712
G01 X12.4079 Y17.9382
G01 X12.3923 Y17.9571
G01 X12.3363 Y18.0189
G01 X12.3189 Y18.0363
G01 X12.2571 Y18.0923
G01 X12.2382 Y18.1079
G01 X12.1712 Y18.1576
G01 X12.1508 Y18.1712
G01 X12.0792 Y18.2141
G01 X12.0576 Y18.2256
G01 X11.9822 Y18.2613
G01 X11.9595 Y18.2707
G01 X11.8810 Y18.2988
G01 X11.8575 Y18.3059
G01 X11.7766 Y18.3262
G01 X11.7525 Y18.3310
G01 X11.6700 Y18.3432
G01 X11.6456 Y18.3456
G01 X11.5623 Y18.3497
G01 X11.5377 Y18.3497
G01 X11.4544 Y18.3456
G01 X11.4300 Y18.3432
G01 X11.3475 Y18.3310
G01 X11.3234 Y18.3262
G01 X11.2425 Y18.3059
G01 X11.2190 Y18.2988
G01 X11.1405 Y18.2707
G01 X11.1178 Y18.2613
G01 X11.0424 Y18.2256
G01 X11.0208 Y18.2141
G01 X10.9492 Y18.1712
G01 X10.9288 Y18.1576
G01 X10.8618 Y18.1079
G01 X10.8429 Y18.0923
G01 X10.7811 Y18.0363
G01 X10.7637 Y18.0189
G01 X10.7077 Y17.9571
G01 X10.6921 Y17.9382
G01 X10.6424 Y17.8712
G01 X10.6288 Y17.8508
G01 X10.5859 Y17.7792
G01 X10.5744 Y17.7576
G01 X10.5387 Y17.6822
G01 X10.5293 Y17.6595
G01 X10.5012 Y17.5810
G01 X10.4941 Y17.5575
G01 X10.4738 Y17.4766
G01 X10.4690 Y17.4525
G01 X10.4568 Y17.3700
G01 X10.4544 Y17.3456
G01 X10.4503 Y17.2623
G01 X10.4503 Y17.2377
G01 X10.4544 Y17.1544
G01 X10.4568 Y17.1300
G01 X10.4690 Y17.0475
G01 X10.4738 Y17.0234
G01 X10.4941 Y16.9425
G01 X10.5012 Y16.9190
G01 X10.5293 Y16.8405
G01 X10.5387 Y16.8178
G01 X10.5744 Y16.7424
G01 X10.5859 Y16.7208
G01 X10.6288 Y16.6492
G01 X10.6424 Y16.6288
G01 X10.6921 Y16.5618
G01 X10.7077 Y16.5429
G01 X10.7637 Y16.4811
G01 X10.7811 Y16.4637
G01 X10.8429 Y16.4077
G01 X10.8618 Y16.3921
G01 X10.9288 Y16.3424
G01 X10.9498 Y16.3285
G01 X10.9498 Y13.7874
G01 X10.0968 Y12.9344
G01 X9.4256 Y12.9344
G01 X9.4011 Y12.9332
G01 X9.3768 Y12.9296
G01 X9.3530 Y12.9236
G01 X9.3299 Y12.9154
G01 X9.3078 Y12.9049
G01 X9.2867 Y12.8923
G01 X9.2670 Y12.8777
G01 X9.2488 Y12.8612
G01 X9.2323 Y12.8430
G01 X9.2177 Y12.8233
G01 X9.2051 Y12.8022
G01 X9.1946 Y12.7801
G01 X9.1864 Y12.7570
G01 X9.1804 Y12.7332
G01 X9.1768 Y12.7089
G01 X9.1756 Y12.6844
G01 X9.1756 Y12.1256
G01 X9.1768 Y12.1011
G01 X9.1804 Y12.0768
G01 X9.1864 Y12.0530
G01 X9.1946 Y12.0299
G01 X9.2051 Y12.0078
G01 X9.2177 Y11.9867
G01 X9.2323 Y11.9670
G01 X9.2488 Y11.9488
G01 X9.2670 Y11.9323
G01 X9.2867 Y11.9177
G01 X9.3078 Y11.9051
G01 X9.3299 Y11.8946
G01 X9.3530 Y11.8864
G01 X9.3768 Y11.8804
G01 X9.4011 Y11.8768
G01 X9.4256 Y11.8756
G01 X9.8160 Y11.8756
G01 X9.8160 Y11.6644
G01 X9.4256 Y11.6644
G01 X9.4011 Y11.6632
G01 X9.3768 Y11.6596
G01 X9.3530 Y11.6536
G01 X9.3299 Y11.6454
G01 X9.3078 Y11.6349
G01 X9.2867 Y11.6223
G01 X9.2670 Y11.6077
G01 X9.2488 Y11.5912
G01 X9.2323 Y11.5730
G01 X9.2177 Y11.5533
G01 X9.2051 Y11.5322
G01 X9.1946 Y11.5101
G01 X9.1864 Y11.4870
G01 X9.1804 Y11.4632
G01 X9.1768 Y11.4389
G01 X9.1756 Y11.4144
G01 X9.1756 Y10.8556
G01 X9.1768 Y10.8311
G01 X9.1804 Y10.8068
G01 X9.1864 Y10.7830
G01 X9.1946 Y10.7599
G01 X9.2051 Y10.7378
G01 X9.2177 Y10.7167
G01 X9.2323 Y10.6970
G01 X9.2488 Y10.6788
G01 X9.2670 Y10.6623
G01 X9.2867 Y10.6477
G01 X9.3078 Y10.6351
G01 X9.3299 Y10.6246
G01 X9.3530 Y10.6164
G01 X9.3768 Y10.6104
G01 X9.4011 Y10.6068
G01 X9.4256 Y10.6056
G01 X10.1341 Y10.6056
G00 Z2.0000
G00 X9.2966 Y8.0899
G01 F800.00
G01 Z-0.0300
G01 F400.00
G01 X9.3257 Y8.0743
G01 X9.3747 Y8.0595
G01 X9.4490 Y8.0522
G01 X9.9111 Y8.0543
G01 X9.9111 Y8.0656
G01 X9.4256 Y8.0656
G01 X9.4011 Y8.0668
G01 X9.3768 Y8.0704
G01 X9.3530 Y8.0764
G01 X9.3299 Y8.0846
G01 X9.3188 Y8.0899
G01 X9.2966 Y8.0899
G00 Z2.0000
G00 X9.7376 Y5.9113
G01 F800.00
G01 Z-0.0300
G01 F400.00
G01 X9.6817 Y5.9448
G01 X9.6601 Y5.9564
G01 X9.5802 Y5.9941
G01 X9.5576 Y6.0035
G01 X9.4744 Y6.0333
G01 X9.4509 Y6.0404
G01 X9.3653 Y6.0619
G01 X9.3412 Y6.0667
G01 X9.2538 Y6.0796
G01 X9.2294 Y6.0820
G01 X9.1412 Y6.0864
G01 X9.1167 Y6.0864
G01 X9.0285 Y6.0820
G01 X9.0040 Y6.0796
G01 X8.9167 Y6.0667
G01 X8.8926 Y6.0619
G01 X8.8069 Y6.0404
G01 X8.7835 Y6.0333
G01 X8.7003 Y6.0035
G01 X8.6776 Y5.9941
G01 X8.5978 Y5.9564
G01 X8.5762 Y5.9448
G01 X8.5004 Y5.8994
G01 X8.4800 Y5.8858
G01 X8.4091 Y5.8332
G01 X8.3901 Y5.8176
G01 X8.3247 Y5.7583
G01 X8.3073 Y5.7409
G01 X8.2480 Y5.6755
G01 X8.2324 Y5.6565
G01 X8.1798 Y5.5856
G01 X8.1662 Y5.5652
G01 X8.1208 Y5.4894
G01 X8.1092 Y5.4678
G01 X8.0715 Y5.3880
G01 X8.0621 Y5.3653
G01 X8.0323 Y5.2821
G01 X8.0252 Y5.2587
G01 X8.0037 Y5.1730
G01 X7.9989 Y5.1489
G01 X7.9860 Y5.0616
G01 X7.9836 Y5.0371
G01 X7.9792 Y4.9489
G01 X7.9789 Y4.9367
G01 X7.9789 Y3.1367
G01 X7.9792 Y3.1244
G01 X7.9836 Y3.0362
G01 X7.9860 Y3.0118
G01 X7.9989 Y2.9244
G01 X8.0037 Y2.9003
G01 X8.0252 Y2.8147
G01 X8.0323 Y2.7912
G01 X8.0621 Y2.7080
G01 X8.0715 Y2.6853
G01 X8.1092 Y2.6055
G01 X8.1208 Y2.5839
G01 X8.1662 Y2.5081
G01 X8.1798 Y2.4877
G01 X8.2324 Y2.4168
G01 X8.2480 Y2.3978
G01 X8.3073 Y2.3324
G01 X8.3247 Y2.3150
G01 X8.3901 Y2.2557
G01 X8.4091 Y2.2401
G01 X8.4800 Y2.1875
G01 X8.5004 Y2.1739
G01 X8.5762 Y2.1285
G01 X8.5978 Y2.1169
G01 X8.6776 Y2.0792
G01 X8.7003 Y2.0698
G01 X8.7835 Y2.0400
G01 X8.8069 Y2.0329
G01 X8.8926 Y2.0114
G01 X8.9167 Y2.0067
G01 X9.0040 Y1.9937
G01 X9.0285 Y1.9913
G01 X9.1167 Y1.9870
G01 X9.1412 Y1.9870
G01 X9.2294 Y1.9913
G01 X9.2538 Y1.9937
G01 X9.3412 Y2.0067
G01 X9.3653 Y2.0114
G01 X9.4509 Y2.0329
G01 X9.4744 Y2.0400
G01 X9.5576 Y2.0698
G01 X9.5802 Y2.0792
G01 X9.6601 Y2.1169
G01 X9.6817 Y2.1285
G01 X9.7575 Y2.1739
G01 X9.7779 Y2.1875
G01 X9.8488 Y2.2401
G01 X9.8678 Y2.2557
G01 X9.9332 Y2.3150
G01 X9.9506 Y2.3324
G01 X10.0099 Y2.3978
G01 X10.0255 Y2.4168
G01 X10.0781 Y2.4877
G01 X10.0917 Y2.5081
G01 X10.1371 Y2.5839
G01 X10.1487 Y2.6055
G01 X10.1864 Y2.6853
G01 X10.1958 Y2.7080
G01 X10.2256 Y2.7912
G01 X10.2327 Y2.8147
G01 X10.2542 Y2.9003
G01 X10.2589 Y2.9244
G01 X10.2719 Y3.0118
G01 X10.2743 Y3.0362
G01 X10.2786 Y3.1244
G01 X10.2789 Y3.1367
G01 X10.2789 Y4.7552
G01 X12.7076 Y7.1838
G01 X12.7391 Y7.2182
G01 X12.7547 Y7.2371
G01 X12.7752 Y7.2647
G01 X12.7888 Y7.2851
G01 X12.8064 Y7.3146
G01 X12.8180 Y7.3362
G01 X12.8327 Y7.3673
G01 X12.8421 Y7.3900
G01 X12.8537 Y7.4223
G01 X12.8608 Y7.4458
G01 X12.8691 Y7.4791
G01 X12.8739 Y7.5032
G01 X12.8790 Y7.5372
G01 X12.8814 Y7.5616
G01 X12.8834 Y7.6082
G01 X12.8834 Y9.6886
G01 X12.8814 Y9.7352
G01 X12.8790 Y9.7596
G01 X12.8739 Y9.7936
G01 X12.8691 Y9.8177
G01 X12.8608 Y9.8510
G01 X12.8537 Y9.8745
G01 X12.8421 Y9.9068
G01 X12.8327 Y9.9295
G01 X12.8180 Y9.9606
G01 X12.8064 Y9.9822
G01 X12.7888 Y10.0117
G01 X12.7752 Y10.0321
G01 X12.7547 Y10.0597
G01 X12.7391 Y10.0786
G01 X12.7076 Y10.1130
G01 X12.5312 Y10.2894
G01 X12.5223 Y10.2978
G01 X12.4968 Y10.3209
G01 X12.4779 Y10.3365
G01 X12.4503 Y10.3570
G01 X12.4299 Y10.3706
G01 X12.4004 Y10.3883
G01 X12.3788 Y10.3998
G01 X12.3477 Y10.4145
G01 X12.3250 Y10.4239
G01 X12.2927 Y10.4355
G01 X12.2692 Y10.4426
G01 X12.2359 Y10.4510
G01 X12.2118 Y10.4557
G01 X12.1778 Y10.4608
G01 X12.1534 Y10.4632
G01 X12.1191 Y10.4649
G01 X12.1068 Y10.4652
G01 X10.4162 Y10.4652
G01 X10.4039 Y10.4649
G01 X10.3696 Y10.4632
G01 X10.3452 Y10.4608
G01 X10.3112 Y10.4557
G01 X10.2871 Y10.4510
G01 X10.2538 Y10.4426
G01 X10.2303 Y10.4355
G01 X10.1980 Y10.4239
G01 X10.1753 Y10.4145
G01 X10.1442 Y10.3998
G01 X10.1341 Y10.3944
G01 X9.4256 Y10.3944
G01 X9.4011 Y10.3932
G01 X9.3768 Y10.3896
G01 X9.3530 Y10.3836
G01 X9.3299 Y10.3754
G01 X9.3078 Y10.3649
G01 X9.2867 Y10.3523
G01 X9.2670 Y10.3377
G01 X9.2488 Y10.3212
G01 X9.2323 Y10.3030
G01 X9.2177 Y10.2833
G01 X9.2051 Y10.2622
G01 X9.1946 Y10.2401
G01 X9.1864 Y10.2170
G01 X9.1804 Y10.1932
G01 X9.1768 Y10.1689
G01 X9.1756 Y10.1444
G01 X9.1756 Y9.5856
G01 X9.1768 Y9.5611
G01 X9.1804 Y9.5368
G01 X9.1864 Y9.5130
G01 X9.1946 Y9.4899
G01 X9.2051 Y9.4678
G01 X9.2177 Y9.4467
G01 X9.2323 Y9.4270
G01 X9.2488 Y9.4088
G01 X9.2670 Y9.3923
G01 X9.2867 Y9.3777
G01 X9.3078 Y9.3651
G01 X9.3299 Y9.3546
G01 X9.3530 Y9.3464
G01 X9.3768 Y9.3404
G01 X9.4011 Y9.3368
G01 X9.4256 Y9.3356
G01 X10.1341 Y9.3356
G01 X10.1442 Y9.3302
G01 X10.1753 Y9.3155
G01 X10.1980 Y9.3061
G01 X10.2303 Y9.2945
G01 X10.2538 Y9.2874
G01 X10.2871 Y9.2790
G01 X10.3112 Y9.2743
G01 X10.3452 Y9.2692
G01 X10.3696 Y9.2668
G01 X10.4039 Y9.2651
G01 X10.4162 Y9.2648
G01 X11.6830 Y9.2648
G01 X11.6830 Y7.8568
G01 X9.7376 Y5.9113
G00 Z2.0000
G00 X12.1887 Y2.2660
G01 F800.00
G01 Z-0.0300
G01 F400.00
G01 X12.1887 Y1.2266
G01 X12.1890 Y1.2144
G01 X12.1914 Y1.1653
G01 X12.1938 Y1.1409
G01 X12.2010 Y1.0924
G01 X12.2058 Y1.0683
G01 X12.2177 Y1.0207
G01 X12.2248 Y0.9972
G01 X12.2414 Y0.9510
G01 X12.2508 Y0.9283
G01 X12.2718 Y0.8839
G01 X12.2833 Y0.8623
G01 X12.3086 Y0.8202
G01 X12.3222 Y0.7998
G01 X12.3514 Y0.7604
G01 X12.3670 Y0.7414
G01 X12.4000 Y0.7050
G01 X12.4173 Y0.6877
G01 X12.4537 Y0.6547
G01 X12.4727 Y0.6391
G01 X12.5121 Y0.6099
G01 X12.5325 Y0.5963
G01 X12.5746 Y0.5710
G01 X12.5962 Y0.5595
G01 X12.6406 Y0.5385
G01 X12.6633 Y0.5291
G01 X12.7095 Y0.5125
G01 X12.7330 Y0.5054
G01 X12.7806 Y0.4935
G01 X12.8047 Y0.4887
G01 X12.8532 Y0.4815
G01 X12.8776 Y0.4791
G01 X12.9267 Y0.4767
G01 X12.9389 Y0.4764
G01 X57.0409 Y0.4764
G01 X57.1022 Y0.4791
G01 X57.1266 Y0.4815
G01 X57.1751 Y0.4887
G01 X57.1992 Y0.4935
G01 X57.2468 Y0.5054
G01 X57.2703 Y0.5125
G01 X57.3165 Y0.5291
G01 X57.3392 Y0.5385
G01 X57.3836 Y0.5595
G01 X57.4052 Y0.5710
G01 X57.4473 Y0.5963
G01 X57.4677 Y0.6099
G01 X57.5071 Y0.6391
G01 X57.5261 Y0.6547
G01 X57.5714 Y0.6961
G01 X58.3095 Y1.4342
G01 X58.3509 Y1.4795
G01 X58.3665 Y1.4985
G01 X58.3957 Y1.5379
G01 X58.4093 Y1.5583
G01 X58.4346 Y1.6004
G01 X58.4461 Y1.6220
G01 X58.4671 Y1.6664
G01 X58.4765 Y1.6891
G01 X58.4931 Y1.7353
G01 X58.5002 Y1.7588
G01 X58.5121 Y1.8064
G01 X58.5169 Y1.8305
G01 X58.5241 Y1.8790
G01 X58.5265 Y1.9034
G01 X58.5292 Y1.9647
G01 X58.5292 Y11.2210
G01 X58.5265 Y11.2823
G01 X58.5241 Y11.3068
G01 X58.5169 Y11.3553
G01 X58.5121 Y11.3794
G01 X58.5002 Y11.4270
G01 X58.4931 Y11.4505
G01 X58.4765 Y11.4967
G01 X58.4671 Y11.5194
G01 X58.4461 Y11.5638
G01 X58.4346 Y11.5854
G01 X58.4093 Y11.6275
G01 X58.3957 Y11.6479
G01 X58.3665 Y11.6873
G01 X58.3509 Y11.7063
G01 X58.3179 Y11.7427
G01 X58.3095 Y11.7516
G01 X58.1093 Y11.9517
G01 X58.1127 Y11.9655
G01 X58.1175 Y11.9895
G01 X58.1211 Y12.0138
G01 X58.1235 Y12.0382
G01 X58.1250 Y12.0750
G01 X58.1250 Y12.7250
G01 X58.1235 Y12.7618
G01 X58.1211 Y12.7862
G01 X58.1175 Y12.8105
G01 X58.1127 Y12.8345
G01 X58.1067 Y12.8583
G01 X58.0996 Y12.8818
G01 X58.0914 Y12.9049
G01 X58.0820 Y12.9276
G01 X58.0715 Y12.9497
G01 X58.0599 Y12.9714
G01 X58.0473 Y12.9924
G01 X58.0337 Y13.0128
G01 X58.0191 Y13.0325
G01 X58.0035 Y13.0515
G01 X57.9870 Y13.0697
G01 X57.9697 Y13.0870
G01 X57.9515 Y13.1035
G01 X57.9325 Y13.1191
G01 X57.9128 Y13.1337
G01 X57.8924 Y13.1473
G01 X57.8714 Y13.1599
G01 X57.8497 Y13.1715
G01 X57.8276 Y13.1820
G01 X57.8049 Y13.1914
G01 X57.7818 Y13.1996
G01 X57.7583 Y13.2067
G01 X57.7345 Y13.2127
G01 X57.7105 Y13.2175
G01 X57.6862 Y13.2211
G01 X57.6618 Y13.2235
G01 X57.6250 Y13.2250
G01 X56.7250 Y13.2250
G01 X56.6882 Y13.2235
G01 X56.6638 Y13.2211
G01 X56.6395 Y13.2175
G01 X56.6155 Y13.2127
G01 X56.5917 Y13.2067
G01 X56.5682 Y13.1996
G01 X56.5451 Y13.1914
G01 X56.5224 Y13.1820
G01 X56.5003 Y13.1715
G01 X56.4786 Y13.1599
G01 X56.4576 Y13.1473
G01 X56.4372 Y13.1337
G01 X56.4175 Y13.1191
G01 X56.3985 Y13.1035
G01 X56.3803 Y13.0870
G01 X56.3630 Y13.0697
G01 X56.3465 Y13.0515
G01 X56.3309 Y13.0325
G01 X56.3163 Y13.0128
G01 X56.3027 Y12.9924
G01 X56.2901 Y12.9714
G01 X56.2814 Y12.9552
G01 X54.4638 Y12.9551
G01 X54.4221 Y12.9534
G01 X54.3977 Y12.9510
G01 X54.3686 Y12.9467
G01 X54.3445 Y12.9419
G01 X54.3148 Y12.9344
G01 X53.4732 Y12.9344
G01 X53.4487 Y12.9332
G01 X53.4244 Y12.9296
G01 X53.4006 Y12.9236
G01 X53.3775 Y12.9154
G01 X53.3554 Y12.9049
