(G-CODE GENERATED BY FLATCAM v8.991 - www.flatcam.org - Version Date: 2019/12/27)

(Name: 02 - 0-5mm Endmill Copper Clear)
(Type: G-code from Geometry)
(Units: MM)

(Created on Monday, 16 March 2020 at 11:53)

(TOOL DIAMETER: 0.5 mm)
(Feedrate: 400.0 mm/min)
(Feedrate_Z: 800.0 mm/min)
(Feedrate rapids 1500.0 mm/min)

(Z_Cut: -0.03 mm)
(Z_Move: 2.0 mm)
(Z Toolchange: 15.0 mm)
(X,Y Toolchange: 0.0000, 0.0000 mm)
(Z Start: None mm)
(Z End: 15.0 mm)
(Steps per circle: 64)
(Preprocessor Geometry: default)

(X range:   -0.7750 ...   65.7750  mm)
(Y range:   -0.2750 ...   21.7750  mm)

(Spindle Speed: 24000 RPM)
G21
G90
G94

M08


G01 F400.00
G00 Z2.0000

M03 S24000
G00 X5.7250 Y3.9750
G01 F800.00
G01 Z-0.0300
G01 F400.00
G01 X5.7238 Y3.9995
G01 X5.7202 Y4.0238
G01 X5.7142 Y4.0476
G01 X5.7060 Y4.0707
G01 X5.6955 Y4.0928
G01 X5.6829 Y4.1139
G01 X5.6682 Y4.1336
G01 X5.6518 Y4.1518
G01 X5.6336 Y4.1682
G01 X5.6139 Y4.1829
G01 X5.5928 Y4.1955
G01 X5.5707 Y4.2060
G01 X5.5476 Y4.2142
G01 X5.5238 Y4.2202
G01 X5.4995 Y4.2238
G01 X5.4750 Y4.2250
G01 X1.4937 Y4.2251
G01 X1.2935 Y4.2348
G01 X1.2780 Y4.2359
G01 X1.2603 Y4.2381
G01 X1.0725 Y4.2659
G01 X1.0571 Y4.2686
G01 X1.0398 Y4.2725
G01 X0.8556 Y4.3186
G01 X0.8405 Y4.3228
G01 X0.8236 Y4.3283
G01 X0.6449 Y4.3923
G01 X0.6303 Y4.3979
G01 X0.6140 Y4.4051
G01 X0.4424 Y4.4862
G01 X0.4284 Y4.4933
G01 X0.4130 Y4.5020
G01 X0.2501 Y4.5996
G01 X0.2369 Y4.6080
G01 X0.2223 Y4.6182
G01 X0.0699 Y4.7313
G01 X0.0575 Y4.7409
G01 X0.0440 Y4.7525
G01 X-0.0966 Y4.8800
G01 X-0.1079 Y4.8907
G01 X-0.1202 Y4.9036
G01 X-0.2477 Y5.0443
G01 X-0.2579 Y5.0561
G01 X-0.2689 Y5.0701
G01 X-0.3820 Y5.2226
G01 X-0.3910 Y5.2353
G01 X-0.4005 Y5.2503
G01 X-0.4982 Y5.4132
G01 X-0.5058 Y5.4268
G01 X-0.5139 Y5.4426
G01 X-0.5951 Y5.6143
G01 X-0.6014 Y5.6286
G01 X-0.6078 Y5.6451
G01 X-0.6718 Y5.8239
G01 X-0.6767 Y5.8387
G01 X-0.6815 Y5.8559
G01 X-0.7276 Y6.0400
G01 X-0.7310 Y6.0553
G01 X-0.7341 Y6.0728
G01 X-0.7620 Y6.2606
G01 X-0.7639 Y6.2761
G01 X-0.7652 Y6.2938
G01 X-0.7746 Y6.4850
G01 X-0.7750 Y6.5017
G01 X-0.7750 Y19.4985
G01 X-0.7746 Y19.5152
G01 X-0.7652 Y19.7065
G01 X-0.7641 Y19.7220
G01 X-0.7619 Y19.7397
G01 X-0.7341 Y19.9275
G01 X-0.7314 Y19.9429
G01 X-0.7275 Y19.9602
G01 X-0.6814 Y20.1444
G01 X-0.6772 Y20.1595
G01 X-0.6717 Y20.1764
G01 X-0.6077 Y20.3551
G01 X-0.6021 Y20.3697
G01 X-0.5949 Y20.3860
G01 X-0.5138 Y20.5576
G01 X-0.5067 Y20.5716
G01 X-0.4980 Y20.5870
G01 X-0.4004 Y20.7499
G01 X-0.3920 Y20.7631
G01 X-0.3818 Y20.7777
G01 X-0.2687 Y20.9301
G01 X-0.2591 Y20.9425
G01 X-0.2475 Y20.9560
G01 X-0.1200 Y21.0966
G01 X-0.1093 Y21.1079
G01 X-0.0964 Y21.1202
G01 X0.0443 Y21.2477
G01 X0.0561 Y21.2579
G01 X0.0701 Y21.2689
G01 X0.2226 Y21.3820
G01 X0.2353 Y21.3910
G01 X0.2503 Y21.4005
G01 X0.4132 Y21.4982
G01 X0.4268 Y21.5058
G01 X0.4426 Y21.5139
G01 X0.6143 Y21.5951
G01 X0.6286 Y21.6014
G01 X0.6451 Y21.6078
G01 X0.8239 Y21.6718
G01 X0.8387 Y21.6767
G01 X0.8559 Y21.6815
G01 X1.0400 Y21.7276
G01 X1.0553 Y21.7310
G01 X1.0728 Y21.7341
G01 X1.2606 Y21.7620
G01 X1.2761 Y21.7639
G01 X1.2938 Y21.7652
G01 X1.4850 Y21.7746
G01 X1.5017 Y21.7750
G01 X63.5063 Y21.7749
G01 X63.7065 Y21.7652
G01 X63.7220 Y21.7641
G01 X63.7397 Y21.7619
G01 X63.9275 Y21.7341
G01 X63.9429 Y21.7314
G01 X63.9602 Y21.7275
G01 X64.1444 Y21.6814
G01 X64.1595 Y21.6772
G01 X64.1764 Y21.6717
G01 X64.3551 Y21.6077
G01 X64.3697 Y21.6021
G01 X64.3860 Y21.5949
G01 X64.5576 Y21.5138
G01 X64.5716 Y21.5067
G01 X64.5870 Y21.4980
G01 X64.7499 Y21.4004
G01 X64.7631 Y21.3920
G01 X64.7777 Y21.3818
G01 X64.9301 Y21.2687
G01 X64.9425 Y21.2591
G01 X64.9560 Y21.2475
G01 X65.0966 Y21.1200
G01 X65.1079 Y21.1093
G01 X65.1202 Y21.0964
G01 X65.2477 Y20.9557
G01 X65.2579 Y20.9439
G01 X65.2689 Y20.9299
G01 X65.3820 Y20.7774
G01 X65.3910 Y20.7647
G01 X65.4005 Y20.7497
G01 X65.4982 Y20.5868
G01 X65.5058 Y20.5732
G01 X65.5139 Y20.5574
G01 X65.5951 Y20.3857
G01 X65.6014 Y20.3714
G01 X65.6078 Y20.3549
G01 X65.6718 Y20.1761
G01 X65.6767 Y20.1613
G01 X65.6815 Y20.1441
G01 X65.7276 Y19.9600
G01 X65.7310 Y19.9447
G01 X65.7341 Y19.9272
G01 X65.7620 Y19.7394
G01 X65.7639 Y19.7239
G01 X65.7652 Y19.7062
G01 X65.7745 Y19.5166
G01 X65.7750 Y19.4982
G01 X65.7750 Y6.5015
G01 X65.7746 Y6.4848
G01 X65.7652 Y6.2935
G01 X65.7641 Y6.2780
G01 X65.7619 Y6.2603
G01 X65.7341 Y6.0725
G01 X65.7314 Y6.0571
G01 X65.7275 Y6.0398
G01 X65.6814 Y5.8556
G01 X65.6772 Y5.8405
G01 X65.6717 Y5.8236
G01 X65.6077 Y5.6449
G01 X65.6021 Y5.6303
G01 X65.5949 Y5.6140
G01 X65.5138 Y5.4424
G01 X65.5067 Y5.4284
G01 X65.4980 Y5.4130
G01 X65.4004 Y5.2501
G01 X65.3920 Y5.2369
G01 X65.3818 Y5.2223
G01 X65.2687 Y5.0699
G01 X65.2591 Y5.0575
G01 X65.2475 Y5.0440
G01 X65.1200 Y4.9034
G01 X65.1093 Y4.8921
G01 X65.0964 Y4.8798
G01 X64.9557 Y4.7523
G01 X64.9439 Y4.7421
G01 X64.9299 Y4.7311
G01 X64.7774 Y4.6180
G01 X64.7647 Y4.6090
G01 X64.7497 Y4.5995
G01 X64.5868 Y4.5018
G01 X64.5732 Y4.4942
G01 X64.5574 Y4.4861
G01 X64.3857 Y4.4049
G01 X64.3714 Y4.3986
G01 X64.3549 Y4.3922
G01 X64.1761 Y4.3282
G01 X64.1613 Y4.3233
G01 X64.1441 Y4.3185
G01 X63.9600 Y4.2724
G01 X63.9447 Y4.2690
G01 X63.9272 Y4.2659
G01 X63.7394 Y4.2380
G01 X63.7239 Y4.2361
G01 X63.7062 Y4.2348
G01 X63.5072 Y4.2251
G01 X59.5250 Y4.2250
G01 X59.5005 Y4.2238
G01 X59.4762 Y4.2202
G01 X59.4524 Y4.2142
G01 X59.4293 Y4.2060
G01 X59.4072 Y4.1955
G01 X59.3861 Y4.1829
G01 X59.3664 Y4.1682
G01 X59.3482 Y4.1518
G01 X59.3318 Y4.1336
G01 X59.3171 Y4.1139
G01 X59.3045 Y4.0928
G01 X59.2940 Y4.0707
G01 X59.2858 Y4.0476
G01 X59.2798 Y4.0238
G01 X59.2762 Y3.9995
G01 X59.2750 Y3.9750
G01 X59.2750 Y0.5015
G01 X59.2746 Y0.4848
G01 X59.2724 Y0.4406
G01 X59.2713 Y0.4250
G01 X59.2691 Y0.4073
G01 X59.2629 Y0.3651
G01 X59.2602 Y0.3498
G01 X59.2563 Y0.3324
G01 X59.2460 Y0.2910
G01 X59.2418 Y0.2760
G01 X59.2363 Y0.2591
G01 X59.2219 Y0.2189
G01 X59.2163 Y0.2043
G01 X59.2091 Y0.1880
G01 X59.1909 Y0.1495
G01 X59.1839 Y0.1355
G01 X59.1751 Y0.1200
G01 X59.1532 Y0.0835
G01 X59.1448 Y0.0703
G01 X59.1346 Y0.0557
G01 X59.1092 Y0.0214
G01 X59.0996 Y0.0091
G01 X59.0880 Y-0.0044
G01 X59.0594 Y-0.0360
G01 X59.0486 Y-0.0473
G01 X59.0358 Y-0.0596
G01 X59.0042 Y-0.0882
G01 X58.9923 Y-0.0984
G01 X58.9783 Y-0.1094
G01 X58.9441 Y-0.1348
G01 X58.9313 Y-0.1438
G01 X58.9163 Y-0.1533
G01 X58.8797 Y-0.1753
G01 X58.8661 Y-0.1830
G01 X58.8503 Y-0.1910
G01 X58.8117 Y-0.2092
G01 X58.7974 Y-0.2156
G01 X58.7808 Y-0.2220
G01 X58.7407 Y-0.2364
G01 X58.7259 Y-0.2413
G01 X58.7087 Y-0.2461
G01 X58.6673 Y-0.2564
G01 X58.6521 Y-0.2598
G01 X58.6346 Y-0.2629
G01 X58.5924 Y-0.2692
G01 X58.5769 Y-0.2711
G01 X58.5592 Y-0.2724
G01 X58.5150 Y-0.2746
G01 X58.4983 Y-0.2750
G01 X6.4937 Y-0.2749
G01 X6.4406 Y-0.2724
G01 X6.4250 Y-0.2713
G01 X6.4073 Y-0.2691
G01 X6.3651 Y-0.2629
G01 X6.3498 Y-0.2602
G01 X6.3324 Y-0.2563
G01 X6.2910 Y-0.2460
G01 X6.2760 Y-0.2418
G01 X6.2591 Y-0.2363
G01 X6.2189 Y-0.2219
G01 X6.2043 Y-0.2163
G01 X6.1880 Y-0.2091
G01 X6.1495 Y-0.1909
G01 X6.1355 Y-0.1839
G01 X6.1200 Y-0.1751
G01 X6.0835 Y-0.1532
G01 X6.0703 Y-0.1448
G01 X6.0557 Y-0.1346
G01 X6.0214 Y-0.1092
G01 X6.0091 Y-0.0996
G01 X5.9956 Y-0.0880
G01 X5.9640 Y-0.0594
G01 X5.9527 Y-0.0486
G01 X5.9404 Y-0.0358
G01 X5.9118 Y-0.0042
G01 X5.9016 Y0.0077
G01 X5.8906 Y0.0217
G01 X5.8652 Y0.0559
G01 X5.8562 Y0.0687
G01 X5.8467 Y0.0837
G01 X5.8247 Y0.1203
G01 X5.8170 Y0.1339
G01 X5.8090 Y0.1497
G01 X5.7908 Y0.1883
G01 X5.7844 Y0.2026
G01 X5.7780 Y0.2192
G01 X5.7636 Y0.2593
G01 X5.7587 Y0.2741
G01 X5.7539 Y0.2913
G01 X5.7436 Y0.3327
G01 X5.7402 Y0.3479
G01 X5.7371 Y0.3654
G01 X5.7308 Y0.4076
G01 X5.7289 Y0.4231
G01 X5.7276 Y0.4408
G01 X5.7254 Y0.4850
G01 X5.7250 Y0.5017
G01 X5.7250 Y3.9750
G01 X5.9750 Y3.9750
G01 X5.9735 Y4.0118
G01 X5.9711 Y4.0362
G01 X5.9675 Y4.0604
G01 X5.9627 Y4.0845
G01 X5.9567 Y4.1083
G01 X5.9496 Y4.1318
G01 X5.9413 Y4.1549
G01 X5.9320 Y4.1775
G01 X5.9215 Y4.1997
G01 X5.9099 Y4.2214
G01 X5.8973 Y4.2424
G01 X5.8837 Y4.2628
G01 X5.8690 Y4.2825
G01 X5.8535 Y4.3015
G01 X5.8370 Y4.3197
G01 X5.8197 Y4.3370
G01 X5.8015 Y4.3535
G01 X5.7825 Y4.3690
G01 X5.7628 Y4.3837
G01 X5.7424 Y4.3973
G01 X5.7214 Y4.4099
G01 X5.6997 Y4.4215
G01 X5.6775 Y4.4320
G01 X5.6549 Y4.4413
G01 X5.6318 Y4.4496
G01 X5.6083 Y4.4567
G01 X5.5845 Y4.4627
G01 X5.5604 Y4.4675
G01 X5.5362 Y4.4711
G01 X5.5118 Y4.4735
G01 X5.4873 Y4.4747
G01 X5.4750 Y4.4750
G01 X1.4997 Y4.4750
G01 X1.3089 Y4.4843
G01 X1.2937 Y4.4859
G01 X1.1056 Y4.5139
G01 X0.9193 Y4.5604
G01 X0.9047 Y4.5648
G01 X0.7257 Y4.6290
G01 X0.5521 Y4.7109
G01 X0.5386 Y4.7181
G01 X0.3756 Y4.8160
G01 X0.2212 Y4.9302
G01 X0.2095 Y4.9399
G01 X0.0687 Y5.0677
G01 X-0.0604 Y5.2099
G01 X-0.0701 Y5.2217
G01 X-0.1832 Y5.3745
G01 X-0.2821 Y5.5391
G01 X-0.2893 Y5.5526
G01 X-0.3705 Y5.7245
G01 X-0.4354 Y5.9052
G01 X-0.4398 Y5.9198
G01 X-0.4858 Y6.1043
G01 X-0.5142 Y6.2942
G01 X-0.5157 Y6.3094
G01 X-0.5250 Y6.5033
G01 X-0.5250 Y19.4969
G01 X-0.5152 Y19.6978
G01 X-0.4872 Y19.8878
G01 X-0.4842 Y19.9028
G01 X-0.4379 Y20.0871
G01 X-0.3710 Y20.2743
G01 X-0.2891 Y20.4479
G01 X-0.2819 Y20.4614
G01 X-0.1840 Y20.6244
G01 X-0.0657 Y20.7840
G01 X0.0631 Y20.9265
G01 X0.0739 Y20.9372
G01 X0.2149 Y21.0648
G01 X0.3745 Y21.1832
G01 X0.5391 Y21.2821
G01 X0.5526 Y21.2893
G01 X0.7245 Y21.3705
G01 X0.9116 Y21.4375
G01 X1.1043 Y21.4858
G01 X1.2942 Y21.5142
G01 X1.3094 Y21.5157
G01 X1.5033 Y21.5250
G01 X63.5003 Y21.5250
G01 X63.6978 Y21.5152
G01 X63.8878 Y21.4872
G01 X63.9028 Y21.4842
G01 X64.0807 Y21.4396
G01 X64.0953 Y21.4352
G01 X64.2743 Y21.3710
G01 X64.4539 Y21.2861
G01 X64.6244 Y21.1840
G01 X64.7788 Y21.0698
G01 X64.7905 Y21.0601
G01 X64.9265 Y20.9369
G01 X64.9372 Y20.9261
G01 X65.0648 Y20.7851
G01 X65.1832 Y20.6255
G01 X65.2854 Y20.4551
G01 X65.3677 Y20.2816
G01 X65.3736 Y20.2675
G01 X65.4354 Y20.0948
G01 X65.4398 Y20.0802
G01 X65.4858 Y19.8957
G01 X65.5142 Y19.7058
G01 X65.5157 Y19.6906
G01 X65.5247 Y19.5074
G01 X65.5250 Y19.4951
G01 X65.5250 Y6.5031
G01 X65.5152 Y6.3022
G01 X65.4872 Y6.1122
G01 X65.4842 Y6.0972
G01 X65.4396 Y5.9193
G01 X65.4352 Y5.9047
G01 X65.3710 Y5.7257
G01 X65.2891 Y5.5521
G01 X65.2819 Y5.5386
G01 X65.1840 Y5.3756
G01 X65.0698 Y5.2212
G01 X65.0601 Y5.2095
G01 X64.9323 Y5.0687
G01 X64.7901 Y4.9396
G01 X64.7783 Y4.9299
G01 X64.6255 Y4.8168
G01 X64.4609 Y4.7179
G01 X64.4474 Y4.7107
G01 X64.2755 Y4.6295
G01 X64.0948 Y4.5646
G01 X64.0802 Y4.5602
G01 X63.9022 Y4.5157
G01 X63.8872 Y4.5127
G01 X63.6991 Y4.4850
G01 X63.4967 Y4.4750
G01 X59.5250 Y4.4750
G01 X59.5127 Y4.4747
G01 X59.4882 Y4.4735
G01 X59.4638 Y4.4711
G01 X59.4396 Y4.4675
G01 X59.4155 Y4.4627
G01 X59.3917 Y4.4567
G01 X59.3682 Y4.4496
G01 X59.3451 Y4.4413
G01 X59.3225 Y4.4320
G01 X59.3003 Y4.4215
G01 X59.2786 Y4.4099
G01 X59.2576 Y4.3973
G01 X59.2372 Y4.3837
G01 X59.2175 Y4.3690
G01 X59.1985 Y4.3535
G01 X59.1803 Y4.3370
G01 X59.1630 Y4.3197
G01 X59.1465 Y4.3015
G01 X59.1310 Y4.2825
G01 X59.1163 Y4.2628
G01 X59.1027 Y4.2424
G01 X59.0901 Y4.2214
G01 X59.0785 Y4.1997
G01 X59.0680 Y4.1775
G01 X59.0587 Y4.1549
G01 X59.0504 Y4.1318
G01 X59.0433 Y4.1083
G01 X59.0373 Y4.0845
G01 X59.0325 Y4.0604
G01 X59.0289 Y4.0362
G01 X59.0265 Y4.0118
G01 X59.0253 Y3.9873
G01 X59.0250 Y3.9750
G01 X59.0250 Y0.5031
G01 X59.0229 Y0.4559
G01 X59.0214 Y0.4407
G01 X59.0149 Y0.3983
G01 X59.0042 Y0.3547
G01 X58.9998 Y0.3401
G01 X58.9851 Y0.2998
G01 X58.9662 Y0.2592
G01 X58.9590 Y0.2457
G01 X58.9368 Y0.2090
G01 X58.9061 Y0.1676
G01 X58.8762 Y0.1342
G01 X58.8654 Y0.1234
G01 X58.8335 Y0.0947
G01 X58.7921 Y0.0640
G01 X58.7480 Y0.0374
G01 X58.7076 Y0.0181
G01 X58.6935 Y0.0123
G01 X58.6593 Y0.0000
G01 X58.6447 Y-0.0044
G01 X58.6030 Y-0.0146
G01 X58.5587 Y-0.0214
G01 X58.5435 Y-0.0229
G01 X58.4967 Y-0.0250
G01 X6.5031 Y-0.0250
G01 X6.4492 Y-0.0224
G01 X6.3983 Y-0.0149
G01 X6.3547 Y-0.0042
G01 X6.3401 Y0.0002
G01 X6.3060 Y0.0124
G01 X6.2919 Y0.0183
G01 X6.2532 Y0.0368
G01 X6.2090 Y0.0632
G01 X6.1676 Y0.0939
G01 X6.1294 Y0.1284
G01 X6.0947 Y0.1665
G01 X6.0678 Y0.2024
G01 X6.0594 Y0.2151
G01 X6.0407 Y0.2462
G01 X6.0336 Y0.2597
G01 X6.0154 Y0.2985
G01 X5.9979 Y0.3470
G01 X5.9854 Y0.3970
G01 X5.9777 Y0.4479
G01 X5.9750 Y0.5033
G01 X5.9750 Y3.9750
G00 Z2.0000
G00 X9.7376 Y5.9113
G01 F800.00
G01 Z-0.0300
G01 F400.00
G01 X9.6817 Y5.9448
G01 X9.6601 Y5.9564
G01 X9.5802 Y5.9941
G01 X9.5576 Y6.0035
G01 X9.4744 Y6.0333
G01 X9.4509 Y6.0404
G01 X9.3653 Y6.0619
G01 X9.3412 Y6.0667
G01 X9.2538 Y6.0796
G01 X9.2294 Y6.0820
G01 X9.1412 Y6.0864
G01 X9.1167 Y6.0864
G01 X9.0285 Y6.0820
G01 X9.0040 Y6.0796
G01 X8.9167 Y6.0667
G01 X8.8926 Y6.0619
G01 X8.8069 Y6.0404
G01 X8.7835 Y6.0333
G01 X8.7003 Y6.0035
G01 X8.6776 Y5.9941
G01 X8.5978 Y5.9564
G01 X8.5762 Y5.9448
G01 X8.5004 Y5.8994
G01 X8.4800 Y5.8858
G01 X8.4091 Y5.8332
G01 X8.3901 Y5.8176
G01 X8.3247 Y5.7583
G01 X8.3073 Y5.7409
G01 X8.2480 Y5.6755
G01 X8.2324 Y5.6565
G01 X8.1798 Y5.5856
G01 X8.1662 Y5.5652
G01 X8.1208 Y5.4894
G01 X8.1092 Y5.4678
G01 X8.0715 Y5.3880
G01 X8.0621 Y5.3653
G01 X8.0323 Y5.2821
G01 X8.0252 Y5.2587
G01 X8.0037 Y5.1730
G01 X7.9989 Y5.1489
G01 X7.9860 Y5.0616
G01 X7.9836 Y5.0371
G01 X7.9792 Y4.9489
G01 X7.9789 Y4.9367
G01 X7.9789 Y3.1367
G01 X7.9792 Y3.1244
G01 X7.9836 Y3.0362
G01 X7.9860 Y3.0118
G01 X7.9989 Y2.9244
G01 X8.0037 Y2.9003
G01 X8.0252 Y2.8147
G01 X8.0323 Y2.7912
G01 X8.0621 Y2.7080
G01 X8.0715 Y2.6853
G01 X8.1092 Y2.6055
G01 X8.1208 Y2.5839
G01 X8.1662 Y2.5081
G01 X8.1798 Y2.4877
G01 X8.2324 Y2.4168
G01 X8.2480 Y2.3978
G01 X8.3073 Y2.3324
G01 X8.3247 Y2.3150
G01 X8.3901 Y2.2557
G01 X8.4091 Y2.2401
G01 X8.4800 Y2.1875
G01 X8.5004 Y2.1739
G01 X8.5762 Y2.1285
G01 X8.5978 Y2.1169
G01 X8.6776 Y2.0792
G01 X8.7003 Y2.0698
G01 X8.7835 Y2.0400
G01 X8.8069 Y2.0329
G01 X8.8926 Y2.0114
G01 X8.9167 Y2.0067
G01 X9.0040 Y1.9937
G01 X9.0285 Y1.9913
G01 X9.1167 Y1.9870
G01 X9.1412 Y1.9870
G01 X9.2294 Y1.9913
G01 X9.2538 Y1.9937
G01 X9.3412 Y2.0067
G01 X9.3653 Y2.0114
G01 X9.4509 Y2.0329
G01 X9.4744 Y2.0400
G01 X9.5576 Y2.0698
G01 X9.5802 Y2.0792
G01 X9.6601 Y2.1169
G01 X9.6817 Y2.1285
G01 X9.7575 Y2.1739
G01 X9.7779 Y2.1875
G01 X9.8488 Y2.2401
G01 X9.8678 Y2.2557
G01 X9.9332 Y2.3150
G01 X9.9506 Y2.3324
G01 X10.0099 Y2.3978
G01 X10.0255 Y2.4168
G01 X10.0781 Y2.4877
G01 X10.0917 Y2.5081
G01 X10.1371 Y2.5839
G01 X10.1487 Y2.6055
G01 X10.1864 Y2.6853
G01 X10.1958 Y2.7080
G01 X10.2256 Y2.7912
G01 X10.2327 Y2.8147
G01 X10.2542 Y2.9003
G01 X10.2589 Y2.9244
G01 X10.2719 Y3.0118
G01 X10.2743 Y3.0362
G01 X10.2786 Y3.1244
G01 X10.2789 Y3.1367
G01 X10.2789 Y4.7552
G01 X12.7076 Y7.1838
G01 X12.7391 Y7.2182
G01 X12.7547 Y7.2371
G01 X12.7752 Y7.2647
G01 X12.7888 Y7.2851
G01 X12.8064 Y7.3146
G01 X12.8180 Y7.3362
G01 X12.8327 Y7.3673
G01 X12.8421 Y7.3900
G01 X12.8537 Y7.4223
G01 X12.8608 Y7.4458
G01 X12.8691 Y7.4791
G01 X12.8739 Y7.5032
G01 X12.8790 Y7.5372
G01 X12.8814 Y7.5616
G01 X12.8834 Y7.6082
G01 X12.8834 Y9.6886
G01 X12.8814 Y9.7352
G01 X12.8790 Y9.7596
G01 X12.8739 Y9.7936
G01 X12.8691 Y9.8177
G01 X12.8608 Y9.8510
G01 X12.8537 Y9.8745
G01 X12.8421 Y9.9068
G01 X12.8327 Y9.9295
G01 X12.8180 Y9.9606
G01 X12.8064 Y9.9822
G01 X12.7888 Y10.0117
G01 X12.7752 Y10.0321
G01 X12.7547 Y10.0597
G01 X12.7391 Y10.0786
G01 X12.7076 Y10.1130
G01 X12.5312 Y10.2894
G01 X12.5223 Y10.2978
G01 X12.4968 Y10.3209
G01 X12.4779 Y10.3365
G01 X12.4503 Y10.3570
G01 X12.4299 Y10.3706
G01 X12.4004 Y10.3883
G01 X12.3788 Y10.3998
G01 X12.3477 Y10.4145
G01 X12.3250 Y10.4239
G01 X12.2927 Y10.4355
G01 X12.2692 Y10.4426
G01 X12.2359 Y10.4510
G01 X12.2118 Y10.4557
G01 X12.1778 Y10.4608
G01 X12.1534 Y10.4632
G01 X12.1191 Y10.4649
G01 X12.1068 Y10.4652
G01 X10.4162 Y10.4652
G01 X10.4039 Y10.4649
G01 X10.3696 Y10.4632
G01 X10.3452 Y10.4608
G01 X10.3112 Y10.4557
G01 X10.2871 Y10.4510
G01 X10.2538 Y10.4426
G01 X10.2303 Y10.4355
G01 X10.1980 Y10.4239
G01 X10.1753 Y10.4145
G01 X10.1442 Y10.3998
G01 X10.1341 Y10.3944
G01 X9.4256 Y10.3944
G01 X9.4011 Y10.3932
G01 X9.3768 Y10.3896
G01 X9.3530 Y10.3836
G01 X9.3299 Y10.3754
G01 X9.3078 Y10.3649
G01 X9.2867 Y10.3523
G01 X9.2670 Y10.3377
G01 X9.2488 Y10.3212
G01 X9.2323 Y10.3030
G01 X9.2177 Y10.2833
G01 X9.2051 Y10.2622
G01 X9.1946 Y10.2401
G01 X9.1864 Y10.2170
G01 X9.1804 Y10.1932
G01 X9.1768 Y10.1689
G01 X9.1756 Y10.1444
G01 X9.1756 Y9.5856
G01 X9.1768 Y9.5611
G01 X9.1804 Y9.5368
G01 X9.1864 Y9.5130
G01 X9.1946 Y9.4899
G01 X9.2051 Y9.4678
G01 X9.2177 Y9.4467
G01 X9.2323 Y9.4270
G01 X9.2488 Y9.4088
G01 X9.2670 Y9.3923
G01 X9.2867 Y9.3777
G01 X9.3078 Y9.3651
G01 X9.3299 Y9.3546
G01 X9.3530 Y9.3464
G01 X9.3768 Y9.3404
G01 X9.4011 Y9.3368
G01 X9.4256 Y9.3356
G01 X10.1341 Y9.3356
G01 X10.1442 Y9.3302
G01 X10.1753 Y9.3155
G01 X10.1980 Y9.3061
G01 X10.2303 Y9.2945
G01 X10.2538 Y9.2874
G01 X10.2871 Y9.2790
G01 X10.3112 Y9.2743
G01 X10.3452 Y9.2692
G01 X10.3696 Y9.2668
G01 X10.4039 Y9.2651
G01 X10.4162 Y9.2648
G01 X11.6830 Y9.2648
G01 X11.6830 Y7.8568
G01 X9.7376 Y5.9113
G00 Z2.0000
G00 X9.2966 Y8.0899
G01 F800.00
G01 Z-0.0300
G01 F400.00
G01 X9.3188 Y8.0899
G01 X9.3299 Y8.0846
G01 X9.3530 Y8.0764
G01 X9.3768 Y8.0704
G01 X9.4011 Y8.0668
G01 X9.4256 Y8.0656
G01 X9.9111 Y8.0656
G01 X9.9111 Y8.0543
G01 X9.4490 Y8.0522
G01 X9.3747 Y8.0595
G01 X9.3257 Y8.0743
G01 X9.2966 Y8.0899
G00 Z2.0000
G00 X10.1341 Y10.6056
G01 F800.00
G01 Z-0.0300
G01 F400.00
G01 X10.1442 Y10.6002
G01 X10.1753 Y10.5855
G01 X10.1980 Y10.5761
G01 X10.2303 Y10.5645
G01 X10.2538 Y10.5574
G01 X10.2871 Y10.5490
G01 X10.3112 Y10.5443
G01 X10.3452 Y10.5392
G01 X10.3696 Y10.5368
G01 X10.4039 Y10.5351
G01 X10.4285 Y10.5351
G01 X10.4628 Y10.5368
G01 X10.4872 Y10.5392
G01 X10.5212 Y10.5443
G01 X10.5453 Y10.5490
G01 X10.5786 Y10.5574
G01 X10.6021 Y10.5645
G01 X10.6344 Y10.5761
G01 X10.6571 Y10.5855
G01 X10.6882 Y10.6002
G01 X10.6983 Y10.6056
G01 X11.4068 Y10.6056
G01 X11.4313 Y10.6068
G01 X11.4556 Y10.6104
G01 X11.4794 Y10.6164
G01 X11.5025 Y10.6246
G01 X11.5246 Y10.6351
G01 X11.5457 Y10.6477
G01 X11.5654 Y10.6623
G01 X11.5836 Y10.6788
G01 X11.6001 Y10.6970
G01 X11.6147 Y10.7167
G01 X11.6273 Y10.7378
G01 X11.6378 Y10.7599
G01 X11.6460 Y10.7830
G01 X11.6520 Y10.8068
G01 X11.6556 Y10.8311
G01 X11.6568 Y10.8556
G01 X11.6568 Y11.4144
G01 X11.6556 Y11.4389
G01 X11.6520 Y11.4632
G01 X11.6460 Y11.4870
G01 X11.6378 Y11.5101
G01 X11.6273 Y11.5322
G01 X11.6147 Y11.5533
G01 X11.6001 Y11.5730
G01 X11.5836 Y11.5912
G01 X11.5654 Y11.6077
G01 X11.5457 Y11.6223
G01 X11.5246 Y11.6349
G01 X11.5025 Y11.6454
G01 X11.4794 Y11.6536
G01 X11.4556 Y11.6596
G01 X11.4313 Y11.6632
G01 X11.4068 Y11.6644
G01 X11.0164 Y11.6644
G01 X11.0164 Y11.8756
G01 X11.4068 Y11.8756
G01 X11.4313 Y11.8768
G01 X11.4556 Y11.8804
G01 X11.4794 Y11.8864
G01 X11.5025 Y11.8946
G01 X11.5246 Y11.9051
G01 X11.5457 Y11.9177
G01 X11.5654 Y11.9323
G01 X11.5836 Y11.9488
G01 X11.6001 Y11.9670
G01 X11.6147 Y11.9867
G01 X11.6273 Y12.0078
G01 X11.6378 Y12.0299
G01 X11.6460 Y12.0530
G01 X11.6520 Y12.0768
G01 X11.6556 Y12.1011
G01 X11.6568 Y12.1256
G01 X11.6568 Y12.6844
G01 X11.6556 Y12.7089
G01 X11.6520 Y12.7332
G01 X11.6460 Y12.7570
G01 X11.6384 Y12.7784
G01 X11.9744 Y13.1144
G01 X12.0059 Y13.1488
G01 X12.0215 Y13.1677
G01 X12.0420 Y13.1953
G01 X12.0556 Y13.2157
G01 X12.0733 Y13.2452
G01 X12.0848 Y13.2668
G01 X12.0995 Y13.2979
G01 X12.1089 Y13.3206
G01 X12.1205 Y13.3529
G01 X12.1276 Y13.3764
G01 X12.1360 Y13.4097
G01 X12.1407 Y13.4338
G01 X12.1458 Y13.4678
G01 X12.1482 Y13.4922
G01 X12.1502 Y13.5388
G01 X12.1502 Y16.3285
G01 X12.1712 Y16.3424
G01 X12.2382 Y16.3921
G01 X12.2571 Y16.4077
G01 X12.3189 Y16.4637
G01 X12.3363 Y16.4811
G01 X12.3923 Y16.5429
G01 X12.4079 Y16.5618
G01 X12.4576 Y16.6288
G01 X12.4712 Y16.6492
G01 X12.5141 Y16.7208
G01 X12.5256 Y16.7424
G01 X12.5613 Y16.8178
G01 X12.5707 Y16.8405
G01 X12.5988 Y16.9190
G01 X12.6059 Y16.9425
G01 X12.6262 Y17.0234
G01 X12.6310 Y17.0475
G01 X12.6432 Y17.1300
G01 X12.6456 Y17.1544
G01 X12.6497 Y17.2377
G01 X12.6497 Y17.2623
G01 X12.6456 Y17.3456
G01 X12.6432 Y17.3700
G01 X12.6310 Y17.4525
G01 X12.6262 Y17.4766
G01 X12.6059 Y17.5575
G01 X12.5988 Y17.5810
G01 X12.5707 Y17.6595
G01 X12.5613 Y17.6822
G01 X12.5256 Y17.7576
G01 X12.5141 Y17.7792
G01 X12.4712 Y17.8508
G01 X12.4576 Y17.8712
G01 X12.4079 Y17.9382
G01 X12.3923 Y17.9571
G01 X12.3363 Y18.0189
G01 X12.3189 Y18.0363
G01 X12.2571 Y18.0923
G01 X12.2382 Y18.1079
G01 X12.1712 Y18.1576
G01 X12.1508 Y18.1712
G01 X12.0792 Y18.2141
G01 X12.0576 Y18.2256
G01 X11.9822 Y18.2613
G01 X11.9595 Y18.2707
G01 X11.8810 Y18.2988
G01 X11.8575 Y18.3059
G01 X11.7766 Y18.3262
G01 X11.7525 Y18.3310
G01 X11.6700 Y18.3432
G01 X11.6456 Y18.3456
G01 X11.5623 Y18.3497
G01 X11.5377 Y18.3497
G01 X11.4544 Y18.3456
G01 X11.4300 Y18.3432
G01 X11.3475 Y18.3310
G01 X11.3234 Y18.3262
G01 X11.2425 Y18.3059
G01 X11.2190 Y18.2988
G01 X11.1405 Y18.2707
G01 X11.1178 Y18.2613
G01 X11.0424 Y18.2256
G01 X11.0208 Y18.2141
G01 X10.9492 Y18.1712
G01 X10.9288 Y18.1576
G01 X10.8618 Y18.1079
G01 X10.8429 Y18.0923
G01 X10.7811 Y18.0363
G01 X10.7637 Y18.0189
G01 X10.7077 Y17.9571
G01 X10.6921 Y17.9382
G01 X10.6424 Y17.8712
G01 X10.6288 Y17.8508
G01 X10.5859 Y17.7792
G01 X10.5744 Y17.7576
G01 X10.5387 Y17.6822
G01 X10.5293 Y17.6595
G01 X10.5012 Y17.5810
G01 X10.4941 Y17.5575
G01 X10.4738 Y17.4766
G01 X10.4690 Y17.4525
G01 X10.4568 Y17.3700
G01 X10.4544 Y17.3456
G01 X10.4503 Y17.2623
G01 X10.4503 Y17.2377
G01 X10.4544 Y17.1544
G01 X10.4568 Y17.1300
G01 X10.4690 Y17.0475
G01 X10.4738 Y17.0234
G01 X10.4941 Y16.9425
G01 X10.5012 Y16.9190
G01 X10.5293 Y16.8405
G01 X10.5387 Y16.8178
G01 X10.5744 Y16.7424
G01 X10.5859 Y16.7208
G01 X10.6288 Y16.6492
G01 X10.6424 Y16.6288
G01 X10.6921 Y16.5618
G01 X10.7077 Y16.5429
G01 X10.7637 Y16.4811
G01 X10.7811 Y16.4637
G01 X10.8429 Y16.4077
G01 X10.8618 Y16.3921
G01 X10.9288 Y16.3424
G01 X10.9498 Y16.3285
G01 X10.9498 Y13.7874
G01 X10.0968 Y12.9344
G01 X9.4256 Y12.9344
G01 X9.4011 Y12.9332
G01 X9.3768 Y12.9296
G01 X9.3530 Y12.9236
G01 X9.3299 Y12.9154
G01 X9.3078 Y12.9049
G01 X9.2867 Y12.8923
G01 X9.2670 Y12.8777
G01 X9.2488 Y12.8612
G01 X9.2323 Y12.8430
G01 X9.2177 Y12.8233
G01 X9.2051 Y12.8022
G01 X9.1946 Y12.7801
G01 X9.1864 Y12.7570
G01 X9.1804 Y12.7332
G01 X9.1768 Y12.7089
G01 X9.1756 Y12.6844
G01 X9.1756 Y12.1256
G01 X9.1768 Y12.1011
G01 X9.1804 Y12.0768
G01 X9.1864 Y12.0530
G01 X9.1946 Y12.0299
G01 X9.2051 Y12.0078
G01 X9.2177 Y11.9867
G01 X9.2323 Y11.9670
G01 X9.2488 Y11.9488
G01 X9.2670 Y11.9323
G01 X9.2867 Y11.9177
G01 X9.3078 Y11.9051
G01 X9.3299 Y11.8946
G01 X9.3530 Y11.8864
G01 X9.3768 Y11.8804
G01 X9.4011 Y11.8768
G01 X9.4256 Y11.8756
G01 X9.8160 Y11.8756
G01 X9.8160 Y11.6644
G01 X9.4256 Y11.6644
G01 X9.4011 Y11.6632
G01 X9.3768 Y11.6596
G01 X9.3530 Y11.6536
G01 X9.3299 Y11.6454
G01 X9.3078 Y11.6349
G01 X9.2867 Y11.6223
G01 X9.2670 Y11.6077
G01 X9.2488 Y11.5912
G01 X9.2323 Y11.5730
G01 X9.2177 Y11.5533
G01 X9.2051 Y11.5322
G01 X9.1946 Y11.5101
G01 X9.1864 Y11.4870
G01 X9.1804 Y11.4632
G01 X9.1768 Y11.4389
G01 X9.1756 Y11.4144
G01 X9.1756 Y10.8556
G01 X9.1768 Y10.8311
G01 X9.1804 Y10.8068
G01 X9.1864 Y10.7830
G01 X9.1946 Y10.7599
G01 X9.2051 Y10.7378
G01 X9.2177 Y10.7167
G01 X9.2323 Y10.6970
G01 X9.2488 Y10.6788
G01 X9.2670 Y10.6623
G01 X9.2867 Y10.6477
G01 X9.3078 Y10.6351
G01 X9.3299 Y10.6246
G01 X9.3530 Y10.6164
G01 X9.3768 Y10.6104
G01 X9.4011 Y10.6068
G01 X9.4256 Y10.6056
G01 X10.1341 Y10.6056
G00 Z2.0000
G00 X12.4648 Y10.9049
G01 F800.00
G01 Z-0.0300
G01 F400.00
G01 X12.4378 Y10.9140
G01 X12.3966 Y10.9261
G01 X12.3514 Y10.9374
G01 X12.3093 Y10.9461
G01 X12.2852 Y10.9503
G01 X12.2329 Y10.9577
G01 X12.1963 Y10.9613
G01 X12.1568 Y10.9636
G01 X12.1568 Y11.4144
G01 X12.1564 Y11.4328
G01 X12.1550 Y11.4634
G01 X12.1517 Y11.5001
G01 X12.1466 Y11.5365
G01 X12.1397 Y11.5727
G01 X12.1311 Y11.6085
G01 X12.1207 Y11.6438
G01 X12.1085 Y11.6785
G01 X12.0947 Y11.7126
G01 X12.0793 Y11.7460
G01 X12.0668 Y11.7700
G01 X12.0793 Y11.7940
G01 X12.0947 Y11.8274
G01 X12.1085 Y11.8615
G01 X12.1207 Y11.8962
G01 X12.1311 Y11.9315
G01 X12.1397 Y11.9673
G01 X12.1466 Y12.0035
G01 X12.1517 Y12.0399
G01 X12.1550 Y12.0766
G01 X12.1564 Y12.1072
G01 X12.1568 Y12.1256
G01 X12.1568 Y12.5897
G01 X12.3344 Y12.7674
G01 X12.3513 Y12.7853
G01 X12.3764 Y12.8130
G01 X12.3930 Y12.8323
G01 X12.3930 Y11.2950
G01 X12.3938 Y11.2613
G01 X12.3960 Y11.2178
G01 X12.3974 Y11.1994
G01 X12.4005 Y11.1689
G01 X12.4028 Y11.1506
G01 X12.4088 Y11.1106
G01 X12.4169 Y11.0684
G01 X12.4222 Y11.0445
G01 X12.4306 Y11.0111
G01 X12.4371 Y10.9875
G01 X12.4499 Y10.9465
G01 X12.4648 Y10.9049
G00 Z2.0000
G00 X14.5934 Y13.4345
G01 F800.00
G01 Z-0.0300
G01 F400.00
G01 X15.1392 Y13.4347
G01 X15.1691 Y13.4403
G01 X15.2043 Y13.4456
G01 X15.2287 Y13.4486
G01 X15.2592 Y13.4515
G01 X15.2776 Y13.4528
G01 X15.3193 Y13.4547
G01 X15.3438 Y13.4552
G01 X15.4033 Y13.4552
G01 X15.3975 Y13.4874
G01 X15.3903 Y13.5359
G01 X15.3873 Y13.5603
G01 X15.3843 Y13.5908
G01 X15.3831 Y13.6092
G01 X15.3805 Y13.6613
G01 X15.3798 Y13.6858
G01 X15.3797 Y16.2521
G01 X15.3600 Y16.2782
G01 X15.3457 Y16.2591
G01 X15.3344 Y16.2446
G01 X15.3149 Y16.2210
G01 X15.3028 Y16.2071
G01 X15.2468 Y16.1453
G01 X15.2341 Y16.1319
G01 X15.2081 Y16.1059
G01 X15.1902 Y16.0891
G01 X15.1902 Y16.0449
G01 X15.1894 Y16.0142
G01 X15.1872 Y15.9707
G01 X15.1834 Y15.9279
G01 X15.1804 Y15.9035
G01 X15.1744 Y15.8635
G01 X15.1663 Y15.8213
G01 X15.1610 Y15.7974
G01 X15.1511 Y15.7581
G01 X15.1390 Y15.7169
G01 X15.1313 Y15.6936
G01 X15.1131 Y15.6440
G01 X15.1015 Y15.6157
G01 X15.0941 Y15.5988
G01 X15.0768 Y15.5622
G01 X15.0686 Y15.5457
G01 X15.0542 Y15.5186
G01 X15.0421 Y15.4973
G01 X15.0147 Y15.4522
G01 X14.9977 Y15.4267
G01 X14.9872 Y15.4116
G01 X14.9631 Y15.3790
G01 X14.9518 Y15.3644
G01 X14.9324 Y15.3407
G01 X14.9164 Y15.3221
G01 X14.8871 Y15.2899
G01 X14.8679 Y15.2700
G01 X14.5934 Y14.9954
G01 X14.5934 Y13.4345
G01 X14.8434 Y13.6846
G01 X15.1154 Y13.6847
G01 X15.1298 Y13.6872
G01 X15.1297 Y15.1870
G01 X15.1016 Y15.1542
G01 X15.0744 Y15.1242
G01 X15.0533 Y15.1020
G01 X14.8434 Y14.8919
G01 X14.8434 Y13.6846
G00 Z2.0000
G00 X16.7964 Y11.6048
G01 F800.00
G01 Z-0.0300
G01 F400.00
G01 X16.8008 Y11.5943
G01 X16.8090 Y11.5712
G01 X16.8161 Y11.5477
G01 X16.8221 Y11.5239
G01 X16.8269 Y11.4999
G01 X16.8305 Y11.4756
G01 X16.8329 Y11.4512
G01 X16.8341 Y11.4267
G01 X16.8344 Y11.4144
G01 X16.8344 Y10.8556
G01 X16.8329 Y10.8188
G01 X16.8305 Y10.7944
G01 X16.8269 Y10.7701
G01 X16.8221 Y10.7461
G01 X16.8161 Y10.7223
G01 X16.8090 Y10.6988
G01 X16.8008 Y10.6757
G01 X16.7914 Y10.6530
G01 X16.7809 Y10.6309
G01 X16.7693 Y10.6092
G01 X16.7567 Y10.5882
G01 X16.7431 Y10.5678
G01 X16.7285 Y10.5481
G01 X16.7129 Y10.5291
G01 X16.6964 Y10.5109
G01 X16.6855 Y10.5000
G01 X16.6964 Y10.4891
G01 X16.7129 Y10.4709
G01 X16.7285 Y10.4519
G01 X16.7431 Y10.4322
G01 X16.7567 Y10.4118
G01 X16.7693 Y10.3908
G01 X16.7809 Y10.3691
G01 X16.7914 Y10.3470
G01 X16.8008 Y10.3243
G01 X16.8090 Y10.3012
G01 X16.8161 Y10.2777
G01 X16.8221 Y10.2539
G01 X16.8269 Y10.2299
G01 X16.8305 Y10.2056
G01 X16.8329 Y10.1812
G01 X16.8344 Y10.1444
G01 X16.8344 Y9.5856
G01 X16.8341 Y9.5733
G01 X16.8329 Y9.5488
G01 X16.8305 Y9.5244
G01 X16.8269 Y9.5001
G01 X16.8221 Y9.4761
G01 X16.8161 Y9.4523
G01 X16.8090 Y9.4288
G01 X16.8008 Y9.4057
G01 X16.7914 Y9.3830
G01 X16.7809 Y9.3609
G01 X16.7693 Y9.3392
G01 X16.7567 Y9.3182
G01 X16.7431 Y9.2978
G01 X16.7285 Y9.2781
G01 X16.7129 Y9.2591
G01 X16.6964 Y9.2409
G01 X16.6855 Y9.2300
G01 X16.6964 Y9.2191
G01 X16.7129 Y9.2009
G01 X16.7285 Y9.1819
G01 X16.7431 Y9.1622
G01 X16.7567 Y9.1418
G01 X16.7693 Y9.1208
G01 X16.7809 Y9.0991
G01 X16.7914 Y9.0770
G01 X16.8008 Y9.0543
G01 X16.8090 Y9.0312
G01 X16.8161 Y9.0077
G01 X16.8221 Y8.9839
G01 X16.8269 Y8.9599
G01 X16.8305 Y8.9356
G01 X16.8329 Y8.9112
G01 X16.8344 Y8.8744
G01 X16.8344 Y8.3156
G01 X16.8339 Y8.2989
G01 X17.4562 Y7.6765
G01 X17.4732 Y7.6588
G01 X17.5061 Y7.6224
G01 X17.5297 Y7.5941
G01 X17.5372 Y7.5845
G01 X17.5665 Y7.5450
G01 X17.5736 Y7.5350
G01 X17.5938 Y7.5042
G01 X17.6190 Y7.4621
G01 X17.6366 Y7.4298
G01 X17.6631 Y7.3745
G01 X17.6681 Y7.3632
G01 X17.6819 Y7.3291
G01 X17.6984 Y7.2829
G01 X17.7023 Y7.2713
G01 X17.7127 Y7.2360
G01 X17.7246 Y7.1883
G01 X17.7321 Y7.1523
G01 X17.7414 Y7.0916
G01 X17.7453 Y7.0551
G01 X17.7486 Y6.9938
G01 X17.7492 Y6.9692
G01 X17.7492 Y6.2495
G01 X17.7738 Y6.2360
G01 X17.7949 Y6.2234
G01 X17.8231 Y6.2049
G01 X17.8231 Y10.3873
G01 X17.2134 Y10.9971
G01 X17.2008 Y11.0105
G01 X17.1598 Y11.0562
G01 X17.1367 Y11.0848
G01 X17.1075 Y11.1242
G01 X17.1004 Y11.1343
G01 X17.0802 Y11.1650
G01 X17.0550 Y11.2071
G01 X17.0373 Y11.2394
G01 X17.0108 Y11.2948
G01 X17.0059 Y11.3060
G01 X16.9921 Y11.3401
G01 X16.9755 Y11.3863
G01 X16.9645 Y11.4215
G01 X16.9493 Y11.4809
G01 X16.9419 Y11.5170
G01 X16.9398 Y11.5290
G01 X16.9326 Y11.5776
G01 X16.9296 Y11.6048
G01 X16.7964 Y11.6048
G01 X17.0800 Y10.7769
G01 X17.0778 Y10.7577
G01 X17.0742 Y10.7335
G01 X17.0673 Y10.6973
G01 X17.0587 Y10.6615
G01 X17.0483 Y10.6262
G01 X17.0361 Y10.5915
G01 X17.0223 Y10.5574
G01 X17.0069 Y10.5240
G01 X16.9944 Y10.5000
G01 X17.0069 Y10.4760
G01 X17.0174 Y10.4538
G01 X17.0317 Y10.4200
G01 X17.0444 Y10.3854
G01 X17.0554 Y10.3503
G01 X17.0646 Y10.3147
G01 X17.0721 Y10.2786
G01 X17.0778 Y10.2423
G01 X17.0817 Y10.2057
G01 X17.0838 Y10.1689
G01 X17.0844 Y10.1444
G01 X17.0844 Y9.5856
G01 X17.0840 Y9.5672
G01 X17.0826 Y9.5366
G01 X17.0817 Y9.5243
G01 X17.0778 Y9.4877
G01 X17.0721 Y9.4514
G01 X17.0646 Y9.4153
G01 X17.0554 Y9.3797
G01 X17.0444 Y9.3446
G01 X17.0317 Y9.3100
G01 X17.0174 Y9.2762
G01 X17.0069 Y9.2540
G01 X16.9944 Y9.2300
G01 X17.0069 Y9.2060
G01 X17.0223 Y9.1726
G01 X17.0361 Y9.1385
G01 X17.0483 Y9.1038
G01 X17.0587 Y9.0685
G01 X17.0673 Y9.0327
G01 X17.0742 Y8.9965
G01 X17.0793 Y8.9601
G01 X17.0826 Y8.9234
G01 X17.0840 Y8.8928
G01 X17.0844 Y8.8744
G01 X17.0844 Y8.4019
G01 X17.5731 Y7.9132
G01 X17.5731 Y10.2838
G01 X17.0800 Y10.7769
G01 X17.3231 Y9.4378
G01 X17.3184 Y9.4086
G01 X17.3125 Y9.3785
G01 X17.3085 Y9.3606
G01 X17.3012 Y9.3308
G01 X17.2946 Y9.3071
G01 X17.2856 Y9.2778
G01 X17.2798 Y9.2604
G01 X17.2688 Y9.2300
G01 X17.2798 Y9.1996
G01 X17.2856 Y9.1822
G01 X17.2946 Y9.1529
G01 X17.3012 Y9.1292
G01 X17.3085 Y9.0994
G01 X17.3125 Y9.0815
G01 X17.3184 Y9.0514
G01 X17.3231 Y9.0222
G01 X17.3231 Y9.4378
G00 Z2.0000
G00 X14.6606 Y8.0656
G01 F800.00
G01 Z-0.0300
G01 F400.00
G01 X14.3532 Y8.0656
G01 X14.3287 Y8.0668
G01 X14.3044 Y8.0704
G01 X14.2806 Y8.0764
G01 X14.2575 Y8.0846
G01 X14.2354 Y8.0951
G01 X14.2143 Y8.1077
G01 X14.1946 Y8.1223
G01 X14.1764 Y8.1388
G01 X14.1599 Y8.1570
G01 X14.1453 Y8.1767
G01 X14.1327 Y8.1978
G01 X14.1222 Y8.2199
G01 X14.1140 Y8.2430
G01 X14.1080 Y8.2668
G01 X14.1044 Y8.2911
G01 X14.1032 Y8.3156
G01 X14.1032 Y8.8744
G01 X14.1044 Y8.8989
G01 X14.1080 Y8.9232
G01 X14.1140 Y8.9470
G01 X14.1222 Y8.9701
G01 X14.1327 Y8.9922
G01 X14.1453 Y9.0133
G01 X14.1599 Y9.0330
G01 X14.1764 Y9.0512
G01 X14.1946 Y9.0677
G01 X14.2143 Y9.0823
G01 X14.2354 Y9.0949
G01 X14.2575 Y9.1054
G01 X14.2806 Y9.1136
G01 X14.3044 Y9.1196
G01 X14.3287 Y9.1232
G01 X14.3532 Y9.1244
G01 X16.3344 Y9.1244
G01 X16.3589 Y9.1232
G01 X16.3832 Y9.1196
G01 X16.4070 Y9.1136
G01 X16.4301 Y9.1054
G01 X16.4522 Y9.0949
G01 X16.4733 Y9.0823
G01 X16.4930 Y9.0677
G01 X16.5112 Y9.0512
G01 X16.5277 Y9.0330
G01 X16.5423 Y9.0133
G01 X16.5549 Y8.9922
G01 X16.5654 Y8.9701
G01 X16.5736 Y8.9470
G01 X16.5796 Y8.9232
G01 X16.5832 Y8.8989
G01 X16.5844 Y8.8744
G01 X16.5844 Y8.3156
G01 X16.5832 Y8.2911
G01 X16.5796 Y8.2668
G01 X16.5736 Y8.2430
G01 X16.5654 Y8.2199
G01 X16.5634 Y8.2158
G01 X17.2795 Y7.4998
G01 X17.2879 Y7.4909
G01 X17.3209 Y7.4545
G01 X17.3364 Y7.4355
G01 X17.3657 Y7.3961
G01 X17.3793 Y7.3757
G01 X17.4046 Y7.3336
G01 X17.4161 Y7.3120
G01 X17.4371 Y7.2676
G01 X17.4465 Y7.2449
G01 X17.4630 Y7.1987
G01 X17.4702 Y7.1752
G01 X17.4821 Y7.1276
G01 X17.4869 Y7.1035
G01 X17.4941 Y7.0550
G01 X17.4965 Y7.0305
G01 X17.4992 Y6.9692
G01 X17.4992 Y6.0762
G01 X17.5085 Y6.0744
G01 X17.5323 Y6.0684
G01 X17.5557 Y6.0613
G01 X17.5788 Y6.0530
G01 X17.6015 Y6.0436
G01 X17.6237 Y6.0331
G01 X17.6453 Y6.0216
G01 X17.6664 Y6.0090
G01 X17.6868 Y5.9953
G01 X17.7065 Y5.9807
G01 X17.7254 Y5.9651
G01 X17.7436 Y5.9487
G01 X17.7610 Y5.9313
G01 X17.7774 Y5.9131
G01 X17.7930 Y5.8942
G01 X17.8076 Y5.8745
G01 X17.8212 Y5.8541
G01 X17.8339 Y5.8330
G01 X17.8454 Y5.8114
G01 X17.8559 Y5.7892
G01 X17.8653 Y5.7665
G01 X17.8736 Y5.7434
G01 X17.8807 Y5.7200
G01 X17.8866 Y5.6962
G01 X17.8914 Y5.6721
G01 X17.8950 Y5.6478
G01 X17.8974 Y5.6234
G01 X17.8989 Y5.5867
G01 X17.8989 Y2.4867
G01 X17.8974 Y2.4499
G01 X17.8950 Y2.4255
G01 X17.8914 Y2.4012
G01 X17.8866 Y2.3771
G01 X17.8807 Y2.3533
G01 X17.8736 Y2.3299
G01 X17.8653 Y2.3068
G01 X17.8559 Y2.2841
G01 X17.8454 Y2.2619
G01 X17.8339 Y2.2403
G01 X17.8212 Y2.2192
G01 X17.8076 Y2.1988
G01 X17.7930 Y2.1791
G01 X17.7774 Y2.1602
G01 X17.7610 Y2.1420
G01 X17.7436 Y2.1246
G01 X17.7254 Y2.1082
G01 X17.7065 Y2.0926
G01 X17.6868 Y2.0780
G01 X17.6664 Y2.0644
G01 X17.6453 Y2.0517
G01 X17.6237 Y2.0402
G01 X17.6015 Y2.0297
G01 X17.5788 Y2.0203
G01 X17.5557 Y2.0120
G01 X17.5323 Y2.0049
G01 X17.5085 Y1.9989
G01 X17.4844 Y1.9942
G01 X17.4601 Y1.9906
G01 X17.4357 Y1.9882
G01 X17.3989 Y1.9867
G01 X16.0989 Y1.9867
G01 X16.0622 Y1.9882
G01 X16.0378 Y1.9906
G01 X16.0135 Y1.9942
G01 X15.9894 Y1.9989
G01 X15.9656 Y2.0049
G01 X15.9422 Y2.0120
G01 X15.9191 Y2.0203
G01 X15.8964 Y2.0297
G01 X15.8742 Y2.0402
G01 X15.8526 Y2.0517
G01 X15.8315 Y2.0644
G01 X15.8111 Y2.0780
G01 X15.7914 Y2.0926
G01 X15.7725 Y2.1082
G01 X15.7543 Y2.1246
G01 X15.7369 Y2.1420
G01 X15.7205 Y2.1602
G01 X15.7049 Y2.1791
G01 X15.6903 Y2.1988
G01 X15.6766 Y2.2192
G01 X15.6640 Y2.2403
G01 X15.6525 Y2.2619
G01 X15.6420 Y2.2841
G01 X15.6326 Y2.3068
G01 X15.6243 Y2.3299
G01 X15.6172 Y2.3533
G01 X15.6112 Y2.3771
G01 X15.6065 Y2.4012
G01 X15.6029 Y2.4255
G01 X15.6005 Y2.4499
G01 X15.5989 Y2.4867
G01 X15.5989 Y5.5867
G01 X15.6005 Y5.6234
G01 X15.6029 Y5.6478
G01 X15.6065 Y5.6721
G01 X15.6112 Y5.6962
G01 X15.6172 Y5.7200
G01 X15.6243 Y5.7434
G01 X15.6326 Y5.7665
G01 X15.6420 Y5.7892
G01 X15.6525 Y5.8114
G01 X15.6640 Y5.8330
G01 X15.6766 Y5.8541
G01 X15.6903 Y5.8745
G01 X15.7049 Y5.8942
G01 X15.7205 Y5.9131
G01 X15.7369 Y5.9313
G01 X15.7543 Y5.9487
G01 X15.7725 Y5.9651
G01 X15.7914 Y5.9807
G01 X15.8111 Y5.9953
G01 X15.8315 Y6.0090
G01 X15.8526 Y6.0216
G01 X15.8742 Y6.0331
G01 X15.8964 Y6.0436
G01 X15.9191 Y6.0530
G01 X15.9422 Y6.0613
G01 X15.9656 Y6.0684
G01 X15.9894 Y6.0744
G01 X15.9987 Y6.0762
G01 X15.9987 Y6.6585
G01 X14.8133 Y7.8439
G01 X14.8048 Y7.8528
G01 X14.7719 Y7.8891
G01 X14.7563 Y7.9081
G01 X14.7271 Y7.9475
G01 X14.7134 Y7.9679
G01 X14.6882 Y8.0100
G01 X14.6766 Y8.0317
G01 X14.6606 Y8.0656
G01 X13.7340 Y6.9339
G01 X13.7743 Y6.9174
G01 X13.8025 Y6.9052
G01 X13.8990 Y6.8597
G01 X13.9401 Y6.8390
G01 X13.9685 Y6.8238
G01 X13.9952 Y6.8088
G01 X14.0921 Y6.7507
G01 X14.1179 Y6.7343
G01 X14.1447 Y6.7164
G01 X14.1836 Y6.6890
G01 X14.2558 Y6.6355
G01 X14.2837 Y6.6139
G01 X14.3157 Y6.5877
G01 X14.3390 Y6.5677
G01 X14.4182 Y6.4961
G01 X14.4503 Y6.4654
G01 X14.4763 Y6.4393
G01 X14.4974 Y6.4170
G01 X14.5690 Y6.3379
G01 X14.5890 Y6.3146
G01 X14.6094 Y6.2897
G01 X14.6377 Y6.2535
G01 X14.6922 Y6.1801
G01 X14.7107 Y6.1541
G01 X14.7235 Y6.1846
G01 X14.7361 Y6.2126
G01 X14.7538 Y6.2500
G01 X14.7677 Y6.2774
G01 X14.7850 Y6.3098
G01 X14.8001 Y6.3365
G01 X14.8221 Y6.3734
G01 X14.8405 Y6.4025
G01 X14.1624 Y7.0805
G01 X14.1244 Y7.0869
G01 X14.0944 Y7.0929
G01 X14.0704 Y7.0982
G01 X14.0258 Y7.1095
G01 X13.9787 Y7.1233
G01 X13.9437 Y7.1348
G01 X13.9178 Y7.1441
G01 X13.9091 Y7.1474
G01 X13.8977 Y7.1518
G01 X13.8552 Y7.1693
G01 X13.8255 Y7.1828
G01 X13.8182 Y7.1570
G01 X13.8055 Y7.1159
G01 X13.7967 Y7.0898
G01 X13.7821 Y7.0487
G01 X13.7706 Y7.0187
G01 X13.7560 Y6.9832
G01 X13.7437 Y6.9551
G01 X13.7340 Y6.9339
G01 X13.3565 Y6.7896
G01 X13.4462 Y6.7672
G01 X13.4787 Y6.7581
G01 X13.5051 Y6.7501
G01 X13.5284 Y6.7425
G01 X13.6202 Y6.7097
G01 X13.6546 Y6.6964
G01 X13.6998 Y6.6772
G01 X13.8018 Y6.6290
G01 X13.8453 Y6.6063
G01 X13.8694 Y6.5928
G01 X13.9531 Y6.5427
G01 X13.9842 Y6.5230
G01 X14.0071 Y6.5077
G01 X14.0272 Y6.4936
G01 X14.1081 Y6.4337
G01 X14.1346 Y6.4129
G01 X14.1723 Y6.3814
G01 X14.2559 Y6.3056
G01 X14.2909 Y6.2713
G01 X14.3163 Y6.2446
G01 X14.3817 Y6.1723
G01 X14.3977 Y6.1537
G01 X14.4152 Y6.1323
G01 X14.4379 Y6.1033
G01 X14.4977 Y6.0224
G01 X14.5253 Y5.9819
G01 X14.5434 Y5.9534
G01 X14.5951 Y5.8671
G01 X14.6071 Y5.8457
G01 X14.6201 Y5.8213
G01 X14.6367 Y5.7885
G01 X14.6783 Y5.7003
G01 X14.6882 Y5.6778
G01 X14.6987 Y5.6523
G01 X14.7109 Y5.6208
G01 X14.7447 Y5.5261
G01 X14.7524 Y5.5028
G01 X14.7613 Y5.4734
G01 X14.7695 Y5.4439
G01 X14.7917 Y5.3552
G01 X14.7997 Y5.3193
G01 X14.8062 Y5.2862
G01 X14.8104 Y5.2620
G01 X14.8238 Y5.1716
G01 X14.8273 Y5.1442
G01 X14.8310 Y5.1076
G01 X14.8329 Y5.0831
G01 X14.8377 Y4.9857
G01 X14.8389 Y4.9367
G01 X14.8388 Y3.1198
G01 X14.8378 Y3.0891
G01 X14.8332 Y2.9963
G01 X14.8310 Y2.9657
G01 X14.8273 Y2.9291
G01 X14.8238 Y2.9017
G01 X14.8094 Y2.8053
G01 X14.8045 Y2.7781
G01 X14.7991 Y2.7510
G01 X14.7939 Y2.7272
G01 X14.8489 Y2.7272
G01 X14.8489 Y5.5867
G01 X14.8501 Y5.6342
G01 X14.8519 Y5.6694
G01 X14.8538 Y5.6939
G01 X14.8568 Y5.7244
G01 X14.8593 Y5.7457
G01 X14.8665 Y5.7943
G01 X14.8703 Y5.8154
G01 X14.8775 Y5.8515
G01 X14.8830 Y5.8754
G01 X14.8897 Y5.9022
G01 X14.8995 Y5.9377
G01 X14.9094 Y5.9699
G01 X14.9171 Y5.9932
G01 X14.9275 Y6.0221
G01 X14.9351 Y6.0422
G01 X14.9527 Y6.0847
G01 X14.9627 Y6.1071
G01 X14.9745 Y6.1321
G01 X14.9910 Y6.1649
G01 X15.0041 Y6.1893
G01 X15.0161 Y6.2107
G01 X15.0349 Y6.2423
G01 X15.0480 Y6.2630
G01 X15.0736 Y6.3013
G01 X15.0861 Y6.3188
G01 X15.1080 Y6.3483
G01 X15.1232 Y6.3676
G01 X15.1426 Y6.3913
G01 X15.1586 Y6.4099
G01 X15.1719 Y6.4247
G01 X14.2779 Y7.3187
G01 X14.2369 Y7.3226
G01 X14.2186 Y7.3249
G01 X14.1883 Y7.3295
G01 X14.1702 Y7.3327
G01 X14.1401 Y7.3388
G01 X14.0984 Y7.3488
G01 X14.0806 Y7.3537
G01 X14.0747 Y7.3554
G01 X14.0513 Y7.3625
G01 X14.0338 Y7.3682
G01 X14.0049 Y7.3785
G01 X13.9877 Y7.3850
G01 X13.9593 Y7.3967
G01 X13.9369 Y7.4066
G01 X13.8982 Y7.4253
G01 X13.8711 Y7.4397
G01 X13.8551 Y7.4487
G01 X13.8287 Y7.4644
G01 X13.8131 Y7.4742
G01 X13.7876 Y7.4912
G01 X13.7725 Y7.5017
G01 X13.7429 Y7.5237
G01 X13.7285 Y7.5350
G01 X13.7048 Y7.5546
G01 X13.6909 Y7.5666
G01 X13.6683 Y7.5873
G01 X13.6550 Y7.6000
G01 X13.6334 Y7.6218
G01 X13.6332 Y7.5944
G01 X13.6324 Y7.5653
G01 X13.6303 Y7.5217
G01 X13.6288 Y7.5003
G01 X13.6240 Y7.4515
G01 X13.6213 Y7.4302
G01 X13.6153 Y7.3901
G01 X13.6112 Y7.3659
G01 X13.6047 Y7.3328
G01 X13.5967 Y7.2969
G01 X13.5876 Y7.2606
G01 X13.5811 Y7.2369
G01 X13.5705 Y7.2017
G01 X13.5638 Y7.1813
G01 X13.5440 Y7.1258
G01 X13.5362 Y7.1058
G01 X13.5244 Y7.0775
G01 X13.5120 Y7.0494
G01 X13.4960 Y7.0156
G01 X13.4795 Y6.9827
G01 X13.4664 Y6.9583
G01 X13.4544 Y6.9370
G01 X13.4321 Y6.8995
G01 X13.4191 Y6.8787
G01 X13.3918 Y6.8379
G01 X13.3794 Y6.8204
G01 X13.3565 Y6.7896
G01 X12.8122 Y6.5813
G01 X12.9083 Y6.5860
G01 X12.9512 Y6.5864
G01 X12.9757 Y6.5857
G01 X13.0640 Y6.5814
G01 X13.0884 Y6.5796
G01 X13.1190 Y6.5765
G01 X13.1372 Y6.5742
G01 X13.2246 Y6.5612
G01 X13.2427 Y6.5582
G01 X13.2728 Y6.5523
G01 X13.2908 Y6.5483
G01 X13.3824 Y6.5254
G01 X13.4061 Y6.5189
G01 X13.4354 Y6.5099
G01 X13.4529 Y6.5041
G01 X13.5418 Y6.4722
G01 X13.5816 Y6.4561
G01 X13.5984 Y6.4487
G01 X13.6839 Y6.4084
G01 X13.7058 Y6.3973
G01 X13.7328 Y6.3828
G01 X13.7488 Y6.3737
G01 X13.8298 Y6.3251
G01 X13.8657 Y6.3015
G01 X13.8857 Y6.2874
G01 X13.9616 Y6.2311
G01 X13.9950 Y6.2041
G01 X14.0090 Y6.1921
G01 X14.0790 Y6.1288
G01 X14.0924 Y6.1161
G01 X14.1141 Y6.0945
G01 X14.1311 Y6.0767
G01 X14.1904 Y6.0113
G01 X14.2064 Y5.9927
G01 X14.2258 Y5.9689
G01 X14.2371 Y5.9544
G01 X14.2897 Y5.8834
G01 X14.3003 Y5.8684
G01 X14.3174 Y5.8430
G01 X14.3273 Y5.8275
G01 X14.3760 Y5.7465
G01 X14.3851 Y5.7305
G01 X14.3996 Y5.7035
G01 X14.4107 Y5.6816
G01 X14.4510 Y5.5962
G01 X14.4584 Y5.5793
G01 X14.4700 Y5.5509
G01 X14.4766 Y5.5337
G01 X14.5063 Y5.4506
G01 X14.5140 Y5.4273
G01 X14.5229 Y5.3979
G01 X14.5277 Y5.3801
G01 X14.5506 Y5.2885
G01 X14.5593 Y5.2465
G01 X14.5626 Y5.2283
G01 X14.5765 Y5.1349
G01 X14.5788 Y5.1167
G01 X14.5819 Y5.0861
G01 X14.5837 Y5.0617
G01 X14.5882 Y4.9704
G01 X14.5889 Y4.9367
G01 X14.5889 Y3.1336
G01 X14.5882 Y3.1029
G01 X14.5837 Y3.0116
G01 X14.5824 Y2.9933
G01 X14.5795 Y2.9627
G01 X14.5765 Y2.9384
G01 X14.5635 Y2.8510
G01 X14.5605 Y2.8329
G01 X14.5546 Y2.8028
G01 X14.5492 Y2.7788
G01 X14.5277 Y2.6932
G01 X14.5212 Y2.6695
G01 X14.5122 Y2.6402
G01 X14.5063 Y2.6227
G01 X14.4745 Y2.5338
G01 X14.4584 Y2.4940
G01 X14.4509 Y2.4769
G01 X15.0990 Y2.4769
G01 X15.0989 Y5.5867
G01 X15.0995 Y5.6143
G01 X15.1011 Y5.6480
G01 X15.1023 Y5.6663
G01 X15.1053 Y5.6969
G01 X15.1074 Y5.7151
G01 X15.1119 Y5.7455
G01 X15.1149 Y5.7636
G01 X15.1208 Y5.7937
G01 X15.1248 Y5.8117
G01 X15.1322 Y5.8415
G01 X15.1370 Y5.8592
G01 X15.1459 Y5.8886
G01 X15.1516 Y5.9061
G01 X15.1618 Y5.9350
G01 X15.1706 Y5.9579
G01 X15.1874 Y5.9974
G01 X15.2005 Y6.0252
G01 X15.2115 Y6.0471
G01 X15.2321 Y6.0848
G01 X15.2478 Y6.1111
G01 X15.2576 Y6.1267
G01 X15.2745 Y6.1523
G01 X15.2887 Y6.1723
G01 X15.3070 Y6.1969
G01 X15.3184 Y6.2114
G01 X15.3379 Y6.2350
G01 X15.3664 Y6.2671
G01 X15.3791 Y6.2805
G01 X15.4007 Y6.3022
G01 X15.4140 Y6.3150
G01 X15.4367 Y6.3356
G01 X15.4553 Y6.3517
G01 X15.4790 Y6.3711
G01 X15.4987 Y6.3861
G01 X15.4987 Y6.4514
G01 X14.4597 Y7.4903
G01 X14.4344 Y7.5170
G01 X14.3907 Y7.5656
G01 X14.3532 Y7.5656
G01 X14.3348 Y7.5660
G01 X14.2919 Y7.5683
G01 X14.2675 Y7.5707
G01 X14.2553 Y7.5722
G01 X14.2311 Y7.5758
G01 X14.1949 Y7.5827
G01 X14.1829 Y7.5854
G01 X14.1591 Y7.5913
G01 X14.1238 Y7.6017
G01 X14.1122 Y7.6056
G01 X14.0776 Y7.6183
G01 X14.0438 Y7.6326
G01 X14.0216 Y7.6431
G01 X14.0106 Y7.6486
G01 X13.9783 Y7.6663
G01 X13.9469 Y7.6854
G01 X13.9165 Y7.7061
G01 X13.8968 Y7.7207
G01 X13.8681 Y7.7439
G01 X13.8588 Y7.7519
G01 X13.8406 Y7.7683
G01 X13.8144 Y7.7942
G01 X13.7895 Y7.8212
G01 X13.7815 Y7.8305
G01 X13.7583 Y7.8592
G01 X13.7437 Y7.8789
G01 X13.7367 Y7.8889
G01 X13.7165 Y7.9197
G01 X13.7039 Y7.9407
G01 X13.6862 Y7.9730
G01 X13.6702 Y8.0062
G01 X13.6559 Y8.0400
G01 X13.6432 Y8.0746
G01 X13.6393 Y8.0862
G01 X13.6289 Y8.1215
G01 X13.6230 Y8.1453
G01 X13.6155 Y8.1814
G01 X13.6098 Y8.2177
G01 X13.6059 Y8.2543
G01 X13.6038 Y8.2911
G01 X13.6032 Y8.3156
G01 X13.6032 Y8.8744
G01 X13.6038 Y8.8989
G01 X13.6059 Y8.9357
G01 X13.6098 Y8.9723
G01 X13.6155 Y9.0086
G01 X13.6230 Y9.0447
G01 X13.6322 Y9.0803
G01 X13.6432 Y9.1154
G01 X13.6559 Y9.1500
G01 X13.6702 Y9.1838
G01 X13.6807 Y9.2060
G01 X13.6932 Y9.2300
G01 X13.6807 Y9.2540
G01 X13.6653 Y9.2874
G01 X13.6515 Y9.3215
G01 X13.6393 Y9.3562
G01 X13.6289 Y9.3915
G01 X13.6203 Y9.4273
G01 X13.6134 Y9.4635
G01 X13.6083 Y9.4999
G01 X13.6050 Y9.5366
G01 X13.6036 Y9.5672
G01 X13.6032 Y9.5856
G01 X13.6032 Y10.0364
G01 X13.5637 Y10.0387
G01 X13.5271 Y10.0423
G01 X13.4748 Y10.0497
G01 X13.4567 Y10.0527
G01 X13.4266 Y10.0587
G01 X13.4086 Y10.0626
G01 X13.3693 Y10.0724
G01 X13.3457 Y10.0789
G01 X13.3069 Y10.0910
G01 X13.3129 Y10.0753
G01 X13.3264 Y10.0371
G01 X13.3321 Y10.0196
G01 X13.3410 Y9.9903
G01 X13.3458 Y9.9725
G01 X13.3556 Y9.9332
G01 X13.3643 Y9.8912
G01 X13.3685 Y9.8670
G01 X13.3736 Y9.8330
G01 X13.3759 Y9.8147
G01 X13.3790 Y9.7842
G01 X13.3808 Y9.7597
G01 X13.3826 Y9.7223
G01 X13.3833 Y9.6978
G01 X13.3833 Y7.6051
G01 X13.3826 Y7.5745
G01 X13.3808 Y7.5371
G01 X13.3790 Y7.5126
G01 X13.3759 Y7.4821
G01 X13.3736 Y7.4638
G01 X13.3675 Y7.4238
G01 X13.3595 Y7.3816
G01 X13.3556 Y7.3636
G01 X13.3442 Y7.3184
G01 X13.3393 Y7.3007
G01 X13.3303 Y7.2713
G01 X13.3244 Y7.2539
G01 X13.3107 Y7.2158
G01 X13.3040 Y7.1986
G01 X13.2922 Y7.1703
G01 X13.2847 Y7.1535
G01 X13.2673 Y7.1169
G01 X13.2590 Y7.1005
G01 X13.2445 Y7.0735
G01 X13.2353 Y7.0575
G01 X13.2144 Y7.0228
G01 X13.2045 Y7.0073
G01 X13.1874 Y6.9819
G01 X13.1563 Y6.9393
G01 X13.1412 Y6.9199
G01 X13.1137 Y6.8870
G01 X13.0803 Y6.8502
G01 X13.0611 Y6.8302
G01 X12.8122 Y6.5813
G00 Z2.0000
G00 X12.1887 Y2.2660
G01 F800.00
G01 Z-0.0300
G01 F400.00
G01 X12.1887 Y1.2266
G01 X12.1890 Y1.2144
G01 X12.1914 Y1.1653
G01 X12.1938 Y1.1409
G01 X12.2010 Y1.0924
G01 X12.2058 Y1.0683
G01 X12.2177 Y1.0207
G01 X12.2248 Y0.9972
G01 X12.2414 Y0.9510
G01 X12.2508 Y0.9283
G01 X12.2718 Y0.8839
G01 X12.2833 Y0.8623
G01 X12.3086 Y0.8202
G01 X12.3222 Y0.7998
G01 X12.3514 Y0.7604
G01 X12.3670 Y0.7414
G01 X12.4000 Y0.7050
G01 X12.4173 Y0.6877
G01 X12.4537 Y0.6547
G01 X12.4727 Y0.6391
G01 X12.5121 Y0.6099
G01 X12.5325 Y0.5963
G01 X12.5746 Y0.5710
G01 X12.5962 Y0.5595
G01 X12.6406 Y0.5385
G01 X12.6633 Y0.5291
G01 X12.7095 Y0.5125
G01 X12.7330 Y0.5054
G01 X12.7806 Y0.4935
G01 X12.8047 Y0.4887
G01 X12.8532 Y0.4815
G01 X12.8776 Y0.4791
G01 X12.9267 Y0.4767
G01 X12.9389 Y0.4764
G01 X57.0409 Y0.4764
G01 X57.1022 Y0.4791
G01 X57.1266 Y0.4815
G01 X57.1751 Y0.4887
G01 X57.1992 Y0.4935
G01 X57.2468 Y0.5054
G01 X57.2703 Y0.5125
G01 X57.3165 Y0.5291
G01 X57.3392 Y0.5385
G01 X57.3836 Y0.5595
G01 X57.4052 Y0.5710
G01 X57.4473 Y0.5963
G01 X57.4677 Y0.6099
G01 X57.5071 Y0.6391
G01 X57.5261 Y0.6547
G01 X57.5714 Y0.6961
G01 X58.3095 Y1.4342
G01 X58.3509 Y1.4795
G01 X58.3665 Y1.4985
G01 X58.3957 Y1.5379
G01 X58.4093 Y1.5583
G01 X58.4346 Y1.6004
G01 X58.4461 Y1.6220
G01 X58.4671 Y1.6664
G01 X58.4765 Y1.6891
G01 X58.4931 Y1.7353
G01 X58.5002 Y1.7588
G01 X58.5121 Y1.8064
G01 X58.5169 Y1.8305
G01 X58.5241 Y1.8790
G01 X58.5265 Y1.9034
G01 X58.5292 Y1.9647
G01 X58.5292 Y11.2210
G01 X58.5265 Y11.2823
G01 X58.5241 Y11.3068
G01 X58.5169 Y11.3553
G01 X58.5121 Y11.3794
G01 X58.5002 Y11.4270
G01 X58.4931 Y11.4505
G01 X58.4765 Y11.4967
G01 X58.4671 Y11.5194
G01 X58.4461 Y11.5638
G01 X58.4346 Y11.5854
G01 X58.4093 Y11.6275
G01 X58.3957 Y11.6479
G01 X58.3665 Y11.6873
G01 X58.3509 Y11.7063
G01 X58.3179 Y11.7427
G01 X58.3095 Y11.7516
G01 X58.1093 Y11.9517
G01 X58.1127 Y11.9655
G01 X58.1175 Y11.9895
G01 X58.1211 Y12.0138
G01 X58.1235 Y12.0382
G01 X58.1250 Y12.0750
G01 X58.1250 Y12.7250
G01 X58.1235 Y12.7618
G01 X58.1211 Y12.7862
G01 X58.1175 Y12.8105
G01 X58.1127 Y12.8345
G01 X58.1067 Y12.8583
G01 X58.0996 Y12.8818
G01 X58.0914 Y12.9049
G01 X58.0820 Y12.9276
G01 X58.0715 Y12.9497
G01 X58.0599 Y12.9714
G01 X58.0473 Y12.9924
G01 X58.0337 Y13.0128
G01 X58.0191 Y13.0325
G01 X58.0035 Y13.0515
G01 X57.9870 Y13.0697
G01 X57.9697 Y13.0870
G01 X57.9515 Y13.1035
G01 X57.9325 Y13.1191
G01 X57.9128 Y13.1337
G01 X57.8924 Y13.1473
G01 X57.8714 Y13.1599
G01 X57.8497 Y13.1715
G01 X57.8276 Y13.1820
G01 X57.8049 Y13.1914
G01 X57.7818 Y13.1996
G01 X57.7583 Y13.2067
G01 X57.7345 Y13.2127
G01 X57.7105 Y13.2175
G01 X57.6862 Y13.2211
G01 X57.6618 Y13.2235
G01 X57.6250 Y13.2250
G01 X56.7250 Y13.2250
G01 X56.6882 Y13.2235
G01 X56.6638 Y13.2211
G01 X56.6395 Y13.2175
G01 X56.6155 Y13.2127
G01 X56.5917 Y13.2067
G01 X56.5682 Y13.1996
G01 X56.5451 Y13.1914
G01 X56.5224 Y13.1820
G01 X56.5003 Y13.1715
G01 X56.4786 Y13.1599
G01 X56.4576 Y13.1473
G01 X56.4372 Y13.1337
G01 X56.4175 Y13.1191
G01 X56.3985 Y13.1035
G01 X56.3803 Y13.0870
G01 X56.3630 Y13.0697
G01 X56.3465 Y13.0515
G01 X56.3309 Y13.0325
G01 X56.3163 Y13.0128
G01 X56.3027 Y12.9924
G01 X56.2901 Y12.9714
G01 X56.2814 Y12.9552
G01 X54.4638 Y12.9552
G01 X54.4221 Y12.9534
G01 X54.3977 Y12.9510
G01 X54.3686 Y12.9467
G01 X54.3445 Y12.9419
G01 X54.3148 Y12.9344
G01 X53.4732 Y12.9344
G01 X53.4487 Y12.9332
G01 X53.4244 Y12.9296
G01 X53.4006 Y12.9236
G01 X53.3775 Y12.9154
G01 X53.3554 Y12.9049
G01 X53.3343 Y12.8923
G01 X53.3146 Y12.8777
G01 X53.2964 Y12.8612
G01 X53.2799 Y12.8430
G01 X53.2653 Y12.8233
G01 X53.2527 Y12.8022
G01 X53.2422 Y12.7801
G01 X53.2340 Y12.7570
G01 X53.2280 Y12.7332
G01 X53.2244 Y12.7089
G01 X53.2232 Y12.6844
G01 X53.2232 Y12.1256
G01 X53.2244 Y12.1011
G01 X53.2280 Y12.0768
G01 X53.2340 Y12.0530
G01 X53.2422 Y12.0299
G01 X53.2527 Y12.0078
G01 X53.2653 Y11.9867
G01 X53.2799 Y11.9670
G01 X53.2964 Y11.9488
G01 X53.3146 Y11.9323
G01 X53.3343 Y11.9177
G01 X53.3554 Y11.9051
G01 X53.3775 Y11.8946
G01 X53.4006 Y11.8864
G01 X53.4244 Y11.8804
G01 X53.4487 Y11.8768
G01 X53.4732 Y11.8756
G01 X54.3148 Y11.8756
G01 X54.3445 Y11.8681
G01 X54.3686 Y11.8633
G01 X54.3977 Y11.8590
G01 X54.4221 Y11.8566
G01 X54.4638 Y11.8548
G01 X56.2764 Y11.8548
G01 X56.2901 Y11.8286
G01 X56.3027 Y11.8076
G01 X56.3163 Y11.7872
G01 X56.3309 Y11.7675
G01 X56.3465 Y11.7485
G01 X56.3630 Y11.7303
G01 X56.3803 Y11.7130
G01 X56.3985 Y11.6965
G01 X56.4175 Y11.6809
G01 X56.4372 Y11.6663
G01 X56.4429 Y11.6625
G01 X56.4538 Y11.6190
G01 X56.4609 Y11.5956
G01 X56.4774 Y11.5493
G01 X56.4868 Y11.5267
G01 X56.5078 Y11.4823
G01 X56.5194 Y11.4607
G01 X56.5446 Y11.4186
G01 X56.5583 Y11.3982
G01 X56.5875 Y11.3587
G01 X56.6031 Y11.3398
G01 X56.6445 Y11.2945
G01 X57.0287 Y10.9103
G01 X57.0287 Y2.2755
G01 X56.7301 Y1.9769
G01 X52.8092 Y1.9769
G01 X52.8092 Y2.2660
G01 X52.8632 Y2.3150
G01 X52.8806 Y2.3324
G01 X52.9399 Y2.3978
G01 X52.9555 Y2.4168
G01 X53.0081 Y2.4877
G01 X53.0217 Y2.5081
G01 X53.0671 Y2.5839
G01 X53.0787 Y2.6055
G01 X53.1164 Y2.6853
G01 X53.1258 Y2.7080
G01 X53.1556 Y2.7912
G01 X53.1627 Y2.8147
G01 X53.1842 Y2.9003
G01 X53.1889 Y2.9244
G01 X53.2019 Y3.0118
G01 X53.2043 Y3.0362
G01 X53.2086 Y3.1244
G01 X53.2089 Y3.1367
G01 X53.2089 Y4.9367
G01 X53.2086 Y4.9489
G01 X53.2043 Y5.0371
G01 X53.2019 Y5.0616
G01 X53.1889 Y5.1489
G01 X53.1842 Y5.1730
G01 X53.1627 Y5.2587
G01 X53.1556 Y5.2821
G01 X53.1258 Y5.3653
G01 X53.1164 Y5.3880
G01 X53.0787 Y5.4678
G01 X53.0671 Y5.4894
G01 X53.0217 Y5.5652
G01 X53.0081 Y5.5856
G01 X52.9555 Y5.6565
G01 X52.9399 Y5.6755
G01 X52.8806 Y5.7409
G01 X52.8632 Y5.7583
G01 X52.7978 Y5.8176
G01 X52.7788 Y5.8332
G01 X52.7079 Y5.8858
G01 X52.6875 Y5.8994
G01 X52.6117 Y5.9448
G01 X52.5901 Y5.9564
G01 X52.5102 Y5.9941
G01 X52.4876 Y6.0035
G01 X52.4044 Y6.0333
G01 X52.3809 Y6.0404
G01 X52.2953 Y6.0619
G01 X52.2712 Y6.0667
G01 X52.1838 Y6.0796
G01 X52.1594 Y6.0820
G01 X52.0712 Y6.0864
G01 X52.0467 Y6.0864
G01 X51.9585 Y6.0820
G01 X51.9340 Y6.0796
G01 X51.8467 Y6.0667
G01 X51.8226 Y6.0619
G01 X51.7369 Y6.0404
G01 X51.7135 Y6.0333
G01 X51.6303 Y6.0035
G01 X51.6076 Y5.9941
G01 X51.5278 Y5.9564
G01 X51.5062 Y5.9448
G01 X51.4304 Y5.8994
G01 X51.4100 Y5.8858
G01 X51.3391 Y5.8332
G01 X51.3201 Y5.8176
G01 X51.2547 Y5.7583
G01 X51.2373 Y5.7409
G01 X51.1780 Y5.6755
G01 X51.1624 Y5.6565
G01 X51.1098 Y5.5856
G01 X51.0962 Y5.5652
G01 X51.0508 Y5.4894
G01 X51.0392 Y5.4678
G01 X51.0015 Y5.3880
G01 X50.9921 Y5.3653
G01 X50.9623 Y5.2821
G01 X50.9552 Y5.2587
G01 X50.9337 Y5.1730
G01 X50.9289 Y5.1489
G01 X50.9160 Y5.0616
G01 X50.9136 Y5.0371
G01 X50.9092 Y4.9489
G01 X50.9089 Y4.9367
G01 X50.9089 Y3.1367
G01 X50.9092 Y3.1244
G01 X50.9136 Y3.0362
G01 X50.9160 Y3.0118
G01 X50.9289 Y2.9244
G01 X50.9337 Y2.9003
G01 X50.9552 Y2.8147
G01 X50.9623 Y2.7912
G01 X50.9921 Y2.7080
G01 X51.0015 Y2.6853
G01 X51.0392 Y2.6055
G01 X51.0508 Y2.5839
G01 X51.0962 Y2.5081
G01 X51.1098 Y2.4877
G01 X51.1624 Y2.4168
G01 X51.1780 Y2.3978
G01 X51.2373 Y2.3324
G01 X51.2547 Y2.3150
G01 X51.3087 Y2.2660
G01 X51.3087 Y1.9769
G01 X45.6736 Y1.9769
G01 X45.6736 Y10.7766
G01 X45.6709 Y10.8379
G01 X45.6685 Y10.8624
G01 X45.6613 Y10.9109
G01 X45.6565 Y10.9350
G01 X45.6446 Y10.9826
G01 X45.6375 Y11.0061
G01 X45.6209 Y11.0523
G01 X45.6115 Y11.0750
G01 X45.5905 Y11.1193
G01 X45.5790 Y11.1410
G01 X45.5537 Y11.1831
G01 X45.5401 Y11.2035
G01 X45.5109 Y11.2429
G01 X45.4953 Y11.2619
G01 X45.4539 Y11.3071
G01 X44.8246 Y11.9364
G01 X44.8250 Y11.9500
G01 X44.8250 Y12.8500
G01 X44.8235 Y12.8868
G01 X44.8211 Y12.9112
G01 X44.8175 Y12.9355
G01 X44.8127 Y12.9595
G01 X44.8067 Y12.9833
G01 X44.7996 Y13.0068
G01 X44.7914 Y13.0299
G01 X44.7820 Y13.0526
G01 X44.7715 Y13.0747
G01 X44.7599 Y13.0964
G01 X44.7473 Y13.1174
G01 X44.7337 Y13.1378
G01 X44.7191 Y13.1575
G01 X44.7035 Y13.1765
G01 X44.6870 Y13.1947
G01 X44.6697 Y13.2120
G01 X44.6515 Y13.2285
G01 X44.6325 Y13.2441
G01 X44.6128 Y13.2587
G01 X44.5924 Y13.2723
G01 X44.5714 Y13.2849
G01 X44.5497 Y13.2965
G01 X44.5276 Y13.3070
G01 X44.5049 Y13.3164
G01 X44.4818 Y13.3246
G01 X44.4583 Y13.3317
G01 X44.4345 Y13.3377
G01 X44.4105 Y13.3425
G01 X44.3862 Y13.3461
G01 X44.3618 Y13.3485
G01 X44.3250 Y13.3500
G01 X43.6750 Y13.3500
G01 X43.6382 Y13.3485
G01 X43.6138 Y13.3461
G01 X43.5895 Y13.3425
G01 X43.5655 Y13.3377
G01 X43.5417 Y13.3317
G01 X43.5182 Y13.3246
G01 X43.4951 Y13.3164
G01 X43.4724 Y13.3070
G01 X43.4503 Y13.2965
G01 X43.4286 Y13.2849
G01 X43.4076 Y13.2723
G01 X43.3872 Y13.2587
G01 X43.3675 Y13.2441
G01 X43.3485 Y13.2285
G01 X43.3303 Y13.2120
G01 X43.3130 Y13.1947
G01 X43.2965 Y13.1765
G01 X43.2809 Y13.1575
G01 X43.2663 Y13.1378
G01 X43.2527 Y13.1174
G01 X43.2401 Y13.0964
G01 X43.2285 Y13.0747
G01 X43.2180 Y13.0526
G01 X43.2086 Y13.0299
G01 X43.2004 Y13.0068
G01 X43.1933 Y12.9833
G01 X43.1864 Y12.9552
G01 X41.4238 Y12.9552
G01 X41.3821 Y12.9534
G01 X41.3577 Y12.9510
G01 X41.3286 Y12.9467
G01 X41.3045 Y12.9419
G01 X41.2748 Y12.9344
G01 X40.4332 Y12.9344
G01 X40.4087 Y12.9332
G01 X40.3844 Y12.9296
G01 X40.3606 Y12.9236
G01 X40.3375 Y12.9154
G01 X40.3154 Y12.9049
G01 X40.2943 Y12.8923
G01 X40.2746 Y12.8777
G01 X40.2564 Y12.8612
G01 X40.2399 Y12.8430
G01 X40.2253 Y12.8233
G01 X40.2127 Y12.8022
G01 X40.2022 Y12.7801
G01 X40.1940 Y12.7570
G01 X40.1880 Y12.7332
G01 X40.1844 Y12.7089
G01 X40.1832 Y12.6844
G01 X40.1832 Y12.1256
G01 X40.1844 Y12.1011
G01 X40.1880 Y12.0768
G01 X40.1940 Y12.0530
G01 X40.2022 Y12.0299
G01 X40.2127 Y12.0078
G01 X40.2253 Y11.9867
G01 X40.2399 Y11.9670
G01 X40.2564 Y11.9488
G01 X40.2746 Y11.9323
G01 X40.2943 Y11.9177
G01 X40.3154 Y11.9051
G01 X40.3375 Y11.8946
G01 X40.3606 Y11.8864
G01 X40.3844 Y11.8804
G01 X40.4087 Y11.8768
G01 X40.4332 Y11.8756
G01 X41.2748 Y11.8756
G01 X41.3045 Y11.8681
G01 X41.3286 Y11.8633
G01 X41.3577 Y11.8590
G01 X41.3821 Y11.8566
G01 X41.4238 Y11.8548
G01 X43.1844 Y11.8548
G01 X43.1873 Y11.8405
G01 X43.1933 Y11.8167
G01 X43.2004 Y11.7932
G01 X43.2086 Y11.7701
G01 X43.2180 Y11.7474
G01 X43.2285 Y11.7253
G01 X43.2401 Y11.7036
G01 X43.2501 Y11.6869
G01 X43.2525 Y11.6387
G01 X43.2549 Y11.6143
G01 X43.2621 Y11.5657
G01 X43.2669 Y11.5417
G01 X43.2788 Y11.4940
G01 X43.2859 Y11.4706
G01 X43.3024 Y11.4243
G01 X43.3118 Y11.4017
G01 X43.3328 Y11.3573
G01 X43.3444 Y11.3357
G01 X43.3696 Y11.2936
G01 X43.3833 Y11.2732
G01 X43.4125 Y11.2337
G01 X43.4281 Y11.2148
G01 X43.4695 Y11.1695
G01 X44.1731 Y10.4659
G01 X44.1731 Y1.9769
G01 X39.7692 Y1.9769
G01 X39.7692 Y2.2660
G01 X39.8232 Y2.3150
G01 X39.8406 Y2.3324
G01 X39.8999 Y2.3978
G01 X39.9155 Y2.4168
G01 X39.9681 Y2.4877
G01 X39.9817 Y2.5081
G01 X40.0271 Y2.5839
G01 X40.0387 Y2.6055
G01 X40.0764 Y2.6853
G01 X40.0858 Y2.7080
G01 X40.1156 Y2.7912
G01 X40.1227 Y2.8147
G01 X40.1442 Y2.9003
G01 X40.1489 Y2.9244
G01 X40.1619 Y3.0118
G01 X40.1643 Y3.0362
G01 X40.1686 Y3.1244
G01 X40.1689 Y3.1367
G01 X40.1689 Y4.9367
G01 X40.1686 Y4.9489
G01 X40.1643 Y5.0371
G01 X40.1619 Y5.0616
G01 X40.1489 Y5.1489
G01 X40.1442 Y5.1730
G01 X40.1227 Y5.2587
G01 X40.1156 Y5.2821
G01 X40.0858 Y5.3653
G01 X40.0764 Y5.3880
G01 X40.0387 Y5.4678
G01 X40.0271 Y5.4894
G01 X39.9817 Y5.5652
G01 X39.9681 Y5.5856
G01 X39.9155 Y5.6565
G01 X39.8999 Y5.6755
G01 X39.8406 Y5.7409
G01 X39.8232 Y5.7583
G01 X39.7578 Y5.8176
G01 X39.7388 Y5.8332
G01 X39.6679 Y5.8858
G01 X39.6475 Y5.8994
G01 X39.5717 Y5.9448
G01 X39.5501 Y5.9564
G01 X39.4702 Y5.9941
G01 X39.4476 Y6.0035
G01 X39.3644 Y6.0333
G01 X39.3409 Y6.0404
G01 X39.2553 Y6.0619
G01 X39.2312 Y6.0667
G01 X39.1438 Y6.0796
G01 X39.1194 Y6.0820
G01 X39.0312 Y6.0864
G01 X39.0067 Y6.0864
G01 X38.9185 Y6.0820
G01 X38.8940 Y6.0796
G01 X38.8067 Y6.0667
G01 X38.7826 Y6.0619
G01 X38.6969 Y6.0404
G01 X38.6735 Y6.0333
G01 X38.5903 Y6.0035
G01 X38.5676 Y5.9941
G01 X38.4878 Y5.9564
G01 X38.4662 Y5.9448
G01 X38.3904 Y5.8994
G01 X38.3700 Y5.8858
G01 X38.2991 Y5.8332
G01 X38.2801 Y5.8176
G01 X38.2147 Y5.7583
G01 X38.1973 Y5.7409
G01 X38.1380 Y5.6755
G01 X38.1224 Y5.6565
G01 X38.0698 Y5.5856
G01 X38.0562 Y5.5652
G01 X38.0108 Y5.4894
G01 X37.9992 Y5.4678
G01 X37.9615 Y5.3880
G01 X37.9521 Y5.3653
G01 X37.9223 Y5.2821
G01 X37.9152 Y5.2587
G01 X37.8937 Y5.1730
G01 X37.8889 Y5.1489
G01 X37.8760 Y5.0616
G01 X37.8736 Y5.0371
G01 X37.8692 Y4.9489
G01 X37.8689 Y4.9367
G01 X37.8689 Y3.1367
G01 X37.8692 Y3.1244
G01 X37.8736 Y3.0362
G01 X37.8760 Y3.0118
G01 X37.8889 Y2.9244
G01 X37.8937 Y2.9003
G01 X37.9152 Y2.8147
G01 X37.9223 Y2.7912
G01 X37.9521 Y2.7080
G01 X37.9615 Y2.6853
G01 X37.9992 Y2.6055
G01 X38.0108 Y2.5839
G01 X38.0562 Y2.5081
G01 X38.0698 Y2.4877
G01 X38.1224 Y2.4168
G01 X38.1380 Y2.3978
G01 X38.1973 Y2.3324
G01 X38.2147 Y2.3150
G01 X38.2687 Y2.2660
G01 X38.2687 Y1.9769
G01 X32.7019 Y1.9769
G01 X32.7019 Y10.7234
G01 X32.6992 Y10.7847
G01 X32.6968 Y10.8091
G01 X32.6896 Y10.8576
G01 X32.6848 Y10.8817
G01 X32.6729 Y10.9293
G01 X32.6657 Y10.9528
G01 X32.6492 Y10.9990
G01 X32.6398 Y11.0217
G01 X32.6188 Y11.0661
G01 X32.6073 Y11.0877
G01 X32.5820 Y11.1298
G01 X32.5684 Y11.1502
G01 X32.5391 Y11.1896
G01 X32.5236 Y11.2086
G01 X32.4821 Y11.2539
G01 X31.7996 Y11.9364
G01 X31.8000 Y11.9500
G01 X31.8000 Y12.8500
G01 X31.7997 Y12.8623
G01 X31.7985 Y12.8868
G01 X31.7961 Y12.9112
G01 X31.7925 Y12.9355
G01 X31.7877 Y12.9595
G01 X31.7817 Y12.9833
G01 X31.7746 Y13.0068
G01 X31.7664 Y13.0299
G01 X31.7570 Y13.0526
G01 X31.7465 Y13.0747
G01 X31.7349 Y13.0964
G01 X31.7223 Y13.1174
G01 X31.7087 Y13.1378
G01 X31.6941 Y13.1575
G01 X31.6785 Y13.1765
G01 X31.6620 Y13.1947
G01 X31.6447 Y13.2120
G01 X31.6265 Y13.2285
G01 X31.6075 Y13.2441
G01 X31.5878 Y13.2587
G01 X31.5674 Y13.2723
G01 X31.5464 Y13.2849
G01 X31.5247 Y13.2965
G01 X31.5026 Y13.3070
G01 X31.4799 Y13.3164
G01 X31.4568 Y13.3246
G01 X31.4333 Y13.3317
G01 X31.4095 Y13.3377
G01 X31.3855 Y13.3425
G01 X31.3612 Y13.3461
G01 X31.3368 Y13.3485
G01 X31.3000 Y13.3500
G01 X30.6500 Y13.3500
G01 X30.6377 Y13.3497
G01 X30.6132 Y13.3485
G01 X30.5888 Y13.3461
G01 X30.5645 Y13.3425
G01 X30.5405 Y13.3377
G01 X30.5167 Y13.3317
G01 X30.4932 Y13.3246
G01 X30.4701 Y13.3164
G01 X30.4474 Y13.3070
G01 X30.4253 Y13.2965
G01 X30.4036 Y13.2849
G01 X30.3826 Y13.2723
G01 X30.3622 Y13.2587
G01 X30.3425 Y13.2441
G01 X30.3235 Y13.2285
G01 X30.3053 Y13.2120
G01 X30.2880 Y13.1947
G01 X30.2715 Y13.1765
G01 X30.2559 Y13.1575
G01 X30.2413 Y13.1378
G01 X30.2277 Y13.1174
G01 X30.2151 Y13.0964
G01 X30.2035 Y13.0747
G01 X30.1930 Y13.0526
G01 X30.1836 Y13.0299
G01 X30.1754 Y13.0068
G01 X30.1683 Y12.9833
G01 X30.1614 Y12.9552
G01 X28.3838 Y12.9552
G01 X28.3421 Y12.9534
G01 X28.3177 Y12.9510
G01 X28.2886 Y12.9467
G01 X28.2645 Y12.9419
G01 X28.2348 Y12.9344
G01 X27.3932 Y12.9344
G01 X27.3687 Y12.9332
G01 X27.3444 Y12.9296
G01 X27.3206 Y12.9236
G01 X27.2975 Y12.9154
G01 X27.2754 Y12.9049
G01 X27.2543 Y12.8923
G01 X27.2346 Y12.8777
G01 X27.2164 Y12.8612
G01 X27.1999 Y12.8430
G01 X27.1853 Y12.8233
G01 X27.1727 Y12.8022
G01 X27.1622 Y12.7801
G01 X27.1540 Y12.7570
G01 X27.1480 Y12.7332
G01 X27.1444 Y12.7089
G01 X27.1432 Y12.6844
G01 X27.1432 Y12.1256
G01 X27.1444 Y12.1011
G01 X27.1480 Y12.0768
G01 X27.1540 Y12.0530
G01 X27.1622 Y12.0299
G01 X27.1727 Y12.0078
G01 X27.1853 Y11.9867
G01 X27.1999 Y11.9670
G01 X27.2164 Y11.9488
G01 X27.2346 Y11.9323
G01 X27.2543 Y11.9177
G01 X27.2754 Y11.9051
G01 X27.2975 Y11.8946
G01 X27.3206 Y11.8864
G01 X27.3444 Y11.8804
G01 X27.3687 Y11.8768
G01 X27.3932 Y11.8756
G01 X28.2348 Y11.8756
G01 X28.2645 Y11.8681
G01 X28.2886 Y11.8633
G01 X28.3177 Y11.8590
G01 X28.3421 Y11.8566
G01 X28.3838 Y11.8548
G01 X30.1594 Y11.8548
G01 X30.1623 Y11.8405
G01 X30.1683 Y11.8167
G01 X30.1754 Y11.7932
G01 X30.1836 Y11.7701
G01 X30.1930 Y11.7474
G01 X30.2035 Y11.7253
G01 X30.2151 Y11.7036
G01 X30.2251 Y11.6869
G01 X30.2275 Y11.6387
G01 X30.2299 Y11.6143
G01 X30.2371 Y11.5657
G01 X30.2419 Y11.5417
G01 X30.2538 Y11.4940
G01 X30.2609 Y11.4706
G01 X30.2774 Y11.4243
G01 X30.2868 Y11.4017
G01 X30.3078 Y11.3573
G01 X30.3194 Y11.3357
G01 X30.3446 Y11.2936
G01 X30.3583 Y11.2732
G01 X30.3875 Y11.2337
G01 X30.4031 Y11.2148
G01 X30.4445 Y11.1695
G01 X31.2014 Y10.4126
G01 X31.2014 Y1.9769
G01 X26.7292 Y1.9769
G01 X26.7292 Y2.2660
G01 X26.7832 Y2.3150
G01 X26.8006 Y2.3324
G01 X26.8599 Y2.3978
G01 X26.8755 Y2.4168
G01 X26.9281 Y2.4877
G01 X26.9417 Y2.5081
G01 X26.9871 Y2.5839
G01 X26.9987 Y2.6055
G01 X27.0364 Y2.6853
G01 X27.0458 Y2.7080
G01 X27.0756 Y2.7912
G01 X27.0827 Y2.8147
G01 X27.1042 Y2.9003
G01 X27.1089 Y2.9244
G01 X27.1219 Y3.0118
G01 X27.1243 Y3.0362
G01 X27.1286 Y3.1244
G01 X27.1289 Y3.1367
G01 X27.1289 Y4.9367
G01 X27.1286 Y4.9489
G01 X27.1243 Y5.0371
G01 X27.1219 Y5.0616
G01 X27.1089 Y5.1489
G01 X27.1042 Y5.1730
G01 X27.0827 Y5.2587
G01 X27.0756 Y5.2821
G01 X27.0458 Y5.3653
G01 X27.0364 Y5.3880
G01 X26.9987 Y5.4678
G01 X26.9871 Y5.4894
G01 X26.9417 Y5.5652
G01 X26.9281 Y5.5856
G01 X26.8755 Y5.6565
G01 X26.8599 Y5.6755
G01 X26.8006 Y5.7409
G01 X26.7832 Y5.7583
G01 X26.7178 Y5.8176
G01 X26.6988 Y5.8332
G01 X26.6279 Y5.8858
G01 X26.6075 Y5.8994
G01 X26.5317 Y5.9448
G01 X26.5101 Y5.9564
G01 X26.4302 Y5.9941
G01 X26.4076 Y6.0035
G01 X26.3244 Y6.0333
G01 X26.3009 Y6.0404
G01 X26.2153 Y6.0619
G01 X26.1912 Y6.0667
G01 X26.1038 Y6.0796
G01 X26.0794 Y6.0820
G01 X25.9912 Y6.0864
G01 X25.9667 Y6.0864
G01 X25.8785 Y6.0820
G01 X25.8540 Y6.0796
G01 X25.7667 Y6.0667
G01 X25.7426 Y6.0619
G01 X25.6569 Y6.0404
G01 X25.6335 Y6.0333
G01 X25.5503 Y6.0035
G01 X25.5276 Y5.9941
G01 X25.4478 Y5.9564
G01 X25.4262 Y5.9448
G01 X25.3504 Y5.8994
G01 X25.3300 Y5.8858
G01 X25.2591 Y5.8332
G01 X25.2401 Y5.8176
G01 X25.1747 Y5.7583
G01 X25.1573 Y5.7409
G01 X25.0980 Y5.6755
G01 X25.0824 Y5.6565
G01 X25.0298 Y5.5856
G01 X25.0162 Y5.5652
G01 X24.9708 Y5.4894
G01 X24.9592 Y5.4678
G01 X24.9215 Y5.3880
G01 X24.9121 Y5.3653
G01 X24.8823 Y5.2821
G01 X24.8752 Y5.2587
G01 X24.8537 Y5.1730
G01 X24.8489 Y5.1489
G01 X24.8360 Y5.0616
G01 X24.8336 Y5.0371
G01 X24.8292 Y4.9489
G01 X24.8289 Y4.9367
G01 X24.8289 Y3.1367
G01 X24.8292 Y3.1244
G01 X24.8336 Y3.0362
G01 X24.8360 Y3.0118
G01 X24.8489 Y2.9244
G01 X24.8537 Y2.9003
G01 X24.8752 Y2.8147
G01 X24.8823 Y2.7912
G01 X24.9121 Y2.7080
G01 X24.9215 Y2.6853
G01 X24.9592 Y2.6055
G01 X24.9708 Y2.5839
G01 X25.0162 Y2.5081
G01 X25.0298 Y2.4877
G01 X25.0824 Y2.4168
G01 X25.0980 Y2.3978
G01 X25.1573 Y2.3324
G01 X25.1747 Y2.3150
G01 X25.2287 Y2.2660
G01 X25.2287 Y1.9769
G01 X19.5736 Y1.9769
G01 X19.5736 Y10.8016
G01 X19.5709 Y10.8629
G01 X19.5685 Y10.8874
G01 X19.5613 Y10.9359
G01 X19.5565 Y10.9600
G01 X19.5446 Y11.0076
G01 X19.5375 Y11.0311
G01 X19.5209 Y11.0773
G01 X19.5115 Y11.1000
G01 X19.4905 Y11.1443
G01 X19.4790 Y11.1660
G01 X19.4537 Y11.2081
G01 X19.4401 Y11.2285
G01 X19.4109 Y11.2679
G01 X19.3953 Y11.2869
G01 X19.3539 Y11.3321
G01 X18.7496 Y11.9364
G01 X18.7500 Y11.9500
G01 X18.7500 Y12.8500
G01 X18.7485 Y12.8868
G01 X18.7461 Y12.9112
G01 X18.7425 Y12.9355
G01 X18.7377 Y12.9595
G01 X18.7317 Y12.9833
G01 X18.7246 Y13.0068
G01 X18.7164 Y13.0299
G01 X18.7070 Y13.0526
G01 X18.6965 Y13.0747
G01 X18.6849 Y13.0964
G01 X18.6723 Y13.1174
G01 X18.6587 Y13.1378
G01 X18.6441 Y13.1575
G01 X18.6285 Y13.1765
G01 X18.6120 Y13.1947
G01 X18.5947 Y13.2120
G01 X18.5765 Y13.2285
G01 X18.5575 Y13.2441
G01 X18.5378 Y13.2587
G01 X18.5174 Y13.2723
G01 X18.4964 Y13.2849
G01 X18.4747 Y13.2965
G01 X18.4526 Y13.3070
G01 X18.4299 Y13.3164
G01 X18.4068 Y13.3246
G01 X18.3833 Y13.3317
G01 X18.3595 Y13.3377
G01 X18.3355 Y13.3425
G01 X18.3112 Y13.3461
G01 X18.2868 Y13.3485
G01 X18.2500 Y13.3500
G01 X18.0360 Y13.3500
G01 X17.3803 Y14.0058
G01 X17.3803 Y16.4468
G01 X17.3989 Y16.4637
G01 X17.4163 Y16.4811
G01 X17.4723 Y16.5429
G01 X17.4879 Y16.5618
G01 X17.5376 Y16.6288
G01 X17.5512 Y16.6492
G01 X17.5941 Y16.7208
G01 X17.6056 Y16.7424
G01 X17.6413 Y16.8178
G01 X17.6507 Y16.8405
G01 X17.6788 Y16.9190
G01 X17.6859 Y16.9425
G01 X17.7062 Y17.0234
G01 X17.7110 Y17.0475
G01 X17.7232 Y17.1300
G01 X17.7256 Y17.1544
G01 X17.7297 Y17.2377
G01 X17.7297 Y17.2623
G01 X17.7256 Y17.3456
G01 X17.7232 Y17.3700
G01 X17.7110 Y17.4525
G01 X17.7062 Y17.4766
G01 X17.6859 Y17.5575
G01 X17.6788 Y17.5810
G01 X17.6507 Y17.6595
G01 X17.6413 Y17.6822
G01 X17.6056 Y17.7576
G01 X17.5941 Y17.7792
G01 X17.5512 Y17.8508
G01 X17.5376 Y17.8712
G01 X17.4879 Y17.9382
G01 X17.4723 Y17.9571
G01 X17.4163 Y18.0189
G01 X17.3989 Y18.0363
G01 X17.3371 Y18.0923
G01 X17.3182 Y18.1079
G01 X17.2512 Y18.1576
G01 X17.2308 Y18.1712
G01 X17.1592 Y18.2141
G01 X17.1376 Y18.2256
G01 X17.0622 Y18.2613
G01 X17.0395 Y18.2707
G01 X16.9610 Y18.2988
G01 X16.9375 Y18.3059
G01 X16.8566 Y18.3262
G01 X16.8325 Y18.3310
G01 X16.7500 Y18.3432
G01 X16.7256 Y18.3456
G01 X16.6423 Y18.3497
G01 X16.6177 Y18.3497
G01 X16.5344 Y18.3456
G01 X16.5100 Y18.3432
G01 X16.4275 Y18.3310
G01 X16.4034 Y18.3262
G01 X16.3225 Y18.3059
G01 X16.2990 Y18.2988
G01 X16.2205 Y18.2707
G01 X16.1978 Y18.2613
G01 X16.1224 Y18.2256
G01 X16.1008 Y18.2141
G01 X16.0292 Y18.1712
G01 X16.0088 Y18.1576
G01 X15.9418 Y18.1079
G01 X15.9229 Y18.0923
G01 X15.8611 Y18.0363
G01 X15.8437 Y18.0189
G01 X15.7877 Y17.9571
G01 X15.7721 Y17.9382
G01 X15.7224 Y17.8712
G01 X15.7088 Y17.8508
G01 X15.6659 Y17.7792
G01 X15.6544 Y17.7576
G01 X15.6187 Y17.6822
G01 X15.6093 Y17.6595
G01 X15.5812 Y17.5810
G01 X15.5741 Y17.5575
G01 X15.5538 Y17.4766
G01 X15.5490 Y17.4525
G01 X15.5368 Y17.3700
G01 X15.5344 Y17.3456
G01 X15.5303 Y17.2623
G01 X15.5303 Y17.2377
G01 X15.5344 Y17.1544
G01 X15.5368 Y17.1300
G01 X15.5490 Y17.0475
G01 X15.5538 Y17.0234
G01 X15.5741 Y16.9425
G01 X15.5812 Y16.9190
G01 X15.6093 Y16.8405
G01 X15.6187 Y16.8178
G01 X15.6544 Y16.7424
G01 X15.6659 Y16.7208
G01 X15.7088 Y16.6492
G01 X15.7224 Y16.6288
G01 X15.7721 Y16.5618
G01 X15.7877 Y16.5429
G01 X15.8437 Y16.4811
G01 X15.8611 Y16.4637
G01 X15.8797 Y16.4468
G01 X15.8797 Y13.6950
G01 X15.8825 Y13.6337
G01 X15.8849 Y13.6093
G01 X15.8921 Y13.5607
G01 X15.8969 Y13.5367
G01 X15.9088 Y13.4890
G01 X15.9159 Y13.4656
G01 X15.9324 Y13.4193
G01 X15.9418 Y13.3967
G01 X15.9628 Y13.3523
G01 X15.9744 Y13.3307
G01 X15.9996 Y13.2886
G01 X16.0133 Y13.2682
G01 X16.0425 Y13.2287
G01 X16.0581 Y13.2098
G01 X16.0910 Y13.1734
G01 X16.0995 Y13.1645
G01 X16.3088 Y12.9552
G01 X15.3438 Y12.9552
G01 X15.3021 Y12.9534
G01 X15.2777 Y12.9510
G01 X15.2486 Y12.9467
G01 X15.2245 Y12.9419
G01 X15.1948 Y12.9344
G01 X14.3532 Y12.9344
G01 X14.3287 Y12.9332
G01 X14.3044 Y12.9296
G01 X14.2806 Y12.9236
G01 X14.2575 Y12.9154
G01 X14.2354 Y12.9049
G01 X14.2143 Y12.8923
G01 X14.1946 Y12.8777
G01 X14.1764 Y12.8612
G01 X14.1599 Y12.8430
G01 X14.1453 Y12.8233
G01 X14.1327 Y12.8022
G01 X14.1222 Y12.7801
G01 X14.1140 Y12.7570
G01 X14.1080 Y12.7332
G01 X14.1044 Y12.7089
G01 X14.1032 Y12.6844
G01 X14.1032 Y12.1256
G01 X14.1044 Y12.1011
G01 X14.1080 Y12.0768
G01 X14.1140 Y12.0530
G01 X14.1222 Y12.0299
G01 X14.1327 Y12.0078
G01 X14.1453 Y11.9867
G01 X14.1599 Y11.9670
G01 X14.1764 Y11.9488
G01 X14.1946 Y11.9323
G01 X14.2143 Y11.9177
G01 X14.2354 Y11.9051
G01 X14.2575 Y11.8946
G01 X14.2806 Y11.8864
G01 X14.3044 Y11.8804
G01 X14.3287 Y11.8768
G01 X14.3532 Y11.8756
G01 X15.1948 Y11.8756
G01 X15.2245 Y11.8681
G01 X15.2486 Y11.8633
G01 X15.2777 Y11.8590
G01 X15.3021 Y11.8566
G01 X15.3438 Y11.8548
G01 X17.1094 Y11.8548
G01 X17.1123 Y11.8405
G01 X17.1183 Y11.8167
G01 X17.1254 Y11.7932
G01 X17.1336 Y11.7701
G01 X17.1430 Y11.7474
G01 X17.1535 Y11.7253
G01 X17.1651 Y11.7036
G01 X17.1751 Y11.6869
G01 X17.1775 Y11.6387
G01 X17.1799 Y11.6143
G01 X17.1871 Y11.5657
G01 X17.1919 Y11.5417
G01 X17.2038 Y11.4940
G01 X17.2109 Y11.4706
G01 X17.2274 Y11.4243
G01 X17.2368 Y11.4017
G01 X17.2578 Y11.3573
G01 X17.2694 Y11.3357
G01 X17.2946 Y11.2936
G01 X17.3083 Y11.2732
G01 X17.3375 Y11.2337
G01 X17.3531 Y11.2148
G01 X17.3945 Y11.1695
G01 X18.0731 Y10.4909
G01 X18.0731 Y1.9769
G01 X13.6892 Y1.9769
G01 X13.6892 Y2.2660
G01 X13.7432 Y2.3150
G01 X13.7606 Y2.3324
G01 X13.8199 Y2.3978
G01 X13.8355 Y2.4168
G01 X13.8881 Y2.4877
G01 X13.9017 Y2.5081
G01 X13.9471 Y2.5839
G01 X13.9587 Y2.6055
G01 X13.9964 Y2.6853
G01 X14.0058 Y2.7080
G01 X14.0356 Y2.7912
G01 X14.0427 Y2.8147
G01 X14.0642 Y2.9003
G01 X14.0689 Y2.9244
G01 X14.0819 Y3.0118
G01 X14.0843 Y3.0362
G01 X14.0886 Y3.1244
G01 X14.0889 Y3.1367
G01 X14.0889 Y4.9367
G01 X14.0886 Y4.9489
G01 X14.0843 Y5.0371
G01 X14.0819 Y5.0616
G01 X14.0689 Y5.1489
G01 X14.0642 Y5.1730
G01 X14.0427 Y5.2587
G01 X14.0356 Y5.2821
G01 X14.0058 Y5.3653
G01 X13.9964 Y5.3880
G01 X13.9587 Y5.4678
G01 X13.9471 Y5.4894
G01 X13.9017 Y5.5652
G01 X13.8881 Y5.5856
G01 X13.8355 Y5.6565
G01 X13.8199 Y5.6755
G01 X13.7606 Y5.7409
G01 X13.7432 Y5.7583
G01 X13.6778 Y5.8176
G01 X13.6588 Y5.8332
G01 X13.5879 Y5.8858
G01 X13.5675 Y5.8994
G01 X13.4917 Y5.9448
G01 X13.4701 Y5.9564
G01 X13.3902 Y5.9941
G01 X13.3676 Y6.0035
G01 X13.2844 Y6.0333
G01 X13.2609 Y6.0404
G01 X13.1753 Y6.0619
G01 X13.1512 Y6.0667
G01 X13.0638 Y6.0796
G01 X13.0394 Y6.0820
G01 X12.9512 Y6.0864
G01 X12.9267 Y6.0864
G01 X12.8385 Y6.0820
G01 X12.8140 Y6.0796
G01 X12.7267 Y6.0667
G01 X12.7026 Y6.0619
G01 X12.6169 Y6.0404
G01 X12.5935 Y6.0333
G01 X12.5103 Y6.0035
G01 X12.4876 Y5.9941
G01 X12.4078 Y5.9564
G01 X12.3862 Y5.9448
G01 X12.3104 Y5.8994
G01 X12.2900 Y5.8858
G01 X12.2191 Y5.8332
G01 X12.2001 Y5.8176
G01 X12.1347 Y5.7583
G01 X12.1173 Y5.7409
G01 X12.0580 Y5.6755
G01 X12.0424 Y5.6565
G01 X11.9898 Y5.5856
G01 X11.9762 Y5.5652
G01 X11.9308 Y5.4894
G01 X11.9192 Y5.4678
G01 X11.8815 Y5.3880
G01 X11.8721 Y5.3653
G01 X11.8423 Y5.2821
G01 X11.8352 Y5.2587
G01 X11.8137 Y5.1730
G01 X11.8089 Y5.1489
G01 X11.7960 Y5.0616
G01 X11.7936 Y5.0371
G01 X11.7892 Y4.9489
G01 X11.7889 Y4.9367
G01 X11.7889 Y3.1367
G01 X11.7892 Y3.1244
G01 X11.7936 Y3.0362
G01 X11.7960 Y3.0118
G01 X11.8089 Y2.9244
G01 X11.8137 Y2.9003
G01 X11.8352 Y2.8147
G01 X11.8423 Y2.7912
G01 X11.8721 Y2.7080
G01 X11.8815 Y2.6853
G01 X11.9192 Y2.6055
G01 X11.9308 Y2.5839
G01 X11.9762 Y2.5081
G01 X11.9898 Y2.4877
G01 X12.0424 Y2.4168
G01 X12.0580 Y2.3978
G01 X12.1173 Y2.3324
G01 X12.1347 Y2.3150
G01 X12.1887 Y2.2660
G00 Z2.0000
G00 X15.3956 Y2.2269
G01 F800.00
G01 Z-0.0300
G01 F400.00
G01 X14.0024 Y2.2269
G01 X14.0131 Y2.2392
G01 X14.0363 Y2.2678
G01 X14.0889 Y2.3388
G01 X14.1096 Y2.3692
G01 X14.1161 Y2.3796
G01 X14.1615 Y2.4553
G01 X14.1792 Y2.4877
G01 X14.1847 Y2.4986
G01 X14.2224 Y2.5785
G01 X14.2274 Y2.5897
G01 X14.2412 Y2.6238
G01 X14.2710 Y2.7070
G01 X14.2748 Y2.7186
G01 X14.2852 Y2.7539
G01 X14.3067 Y2.8396
G01 X14.3141 Y2.8756
G01 X14.3162 Y2.8877
G01 X14.3292 Y2.9751
G01 X14.3307 Y2.9873
G01 X14.3340 Y3.0239
G01 X14.3383 Y3.1121
G01 X14.3389 Y3.1367
G01 X14.3389 Y4.9367
G01 X14.3386 Y4.9551
G01 X14.3340 Y5.0494
G01 X14.3307 Y5.0861
G01 X14.3292 Y5.0982
G01 X14.3162 Y5.1856
G01 X14.3094 Y5.2218
G01 X14.3067 Y5.2337
G01 X14.2852 Y5.3194
G01 X14.2748 Y5.3547
G01 X14.2710 Y5.3664
G01 X14.2412 Y5.4495
G01 X14.2274 Y5.4836
G01 X14.2224 Y5.4948
G01 X14.1847 Y5.5747
G01 X14.1676 Y5.6073
G01 X14.1615 Y5.6180
G01 X14.1161 Y5.6937
G01 X14.0959 Y5.7245
G01 X14.0889 Y5.7345
G01 X14.0363 Y5.8055
G01 X14.0131 Y5.8341
G01 X14.0051 Y5.8434
G01 X13.9458 Y5.9088
G01 X13.9374 Y5.9177
G01 X13.9111 Y5.9435
G01 X13.8457 Y6.0028
G01 X13.8174 Y6.0264
G01 X13.8077 Y6.0340
G01 X13.7368 Y6.0866
G01 X13.7268 Y6.0936
G01 X13.6960 Y6.1138
G01 X13.6203 Y6.1592
G01 X13.5879 Y6.1769
G01 X13.5770 Y6.1824
G01 X13.4971 Y6.2201
G01 X13.4633 Y6.2345
G01 X13.4518 Y6.2389
G01 X13.3686 Y6.2687
G01 X13.3335 Y6.2796
G01 X13.3217 Y6.2829
G01 X13.2360 Y6.3044
G01 X13.2240 Y6.3071
G01 X13.1879 Y6.3139
G01 X13.1005 Y6.3269
G01 X13.0883 Y6.3284
G01 X13.0517 Y6.3317
G01 X12.9635 Y6.3361
G01 X12.9512 Y6.3364
G01 X12.9144 Y6.3361
G01 X12.8262 Y6.3317
G01 X12.8140 Y6.3308
G01 X12.7774 Y6.3269
G01 X12.6900 Y6.3139
G01 X12.6538 Y6.3071
G01 X12.6419 Y6.3044
G01 X12.5562 Y6.2829
G01 X12.5444 Y6.2796
G01 X12.5092 Y6.2687
G01 X12.4261 Y6.2389
G01 X12.3920 Y6.2251
G01 X12.3808 Y6.2201
G01 X12.3009 Y6.1824
G01 X12.2683 Y6.1653
G01 X12.2576 Y6.1592
G01 X12.1819 Y6.1138
G01 X12.1715 Y6.1073
G01 X12.1411 Y6.0866
G01 X12.0701 Y6.0340
G01 X12.0415 Y6.0109
G01 X12.0322 Y6.0028
G01 X11.9668 Y5.9435
G01 X11.9579 Y5.9351
G01 X11.9321 Y5.9088
G01 X11.8728 Y5.8434
G01 X11.8647 Y5.8341
G01 X11.8416 Y5.8055
G01 X11.7890 Y5.7345
G01 X11.7820 Y5.7245
G01 X11.7618 Y5.6937
G01 X11.7281 Y5.6376
G01 X11.7075 Y5.6526
G01 X11.6871 Y5.6662
G01 X11.6556 Y5.6854
G01 X11.6233 Y5.7030
G01 X11.5944 Y5.7170
G01 X12.8844 Y7.0070
G01 X12.9013 Y7.0248
G01 X12.9324 Y7.0596
G01 X12.9555 Y7.0882
G01 X12.9760 Y7.1158
G01 X12.9966 Y7.1462
G01 X13.0032 Y7.1566
G01 X13.0209 Y7.1861
G01 X13.0385 Y7.2184
G01 X13.0587 Y7.2604
G01 X13.0637 Y7.2716
G01 X13.0775 Y7.3057
G01 X13.0891 Y7.3381
G01 X13.1000 Y7.3732
G01 X13.1033 Y7.3850
G01 X13.1117 Y7.4184
G01 X13.1191 Y7.4544
G01 X13.1212 Y7.4665
G01 X13.1278 Y7.5127
G01 X13.1311 Y7.5493
G01 X13.1328 Y7.5837
G01 X13.1334 Y7.6082
G01 X13.1333 Y9.6947
G01 X13.1328 Y9.7131
G01 X13.1302 Y9.7597
G01 X13.1263 Y9.7963
G01 X13.1212 Y9.8303
G01 X13.1191 Y9.8424
G01 X13.1117 Y9.8784
G01 X13.1033 Y9.9118
G01 X13.0929 Y9.9471
G01 X13.0775 Y9.9911
G01 X13.0637 Y10.0252
G01 X13.0440 Y10.0675
G01 X13.0269 Y10.1001
G01 X13.0032 Y10.1402
G01 X12.9830 Y10.1710
G01 X12.9555 Y10.2086
G01 X12.9324 Y10.2372
G01 X12.9013 Y10.2720
G01 X12.8844 Y10.2898
G01 X12.7080 Y10.4662
G01 X12.6947 Y10.4789
G01 X12.6647 Y10.5062
G01 X12.6365 Y10.5297
G01 X12.5992 Y10.5578
G01 X12.5688 Y10.5785
G01 X12.5289 Y10.6027
G01 X12.4966 Y10.6203
G01 X12.4546 Y10.6405
G01 X12.4207 Y10.6549
G01 X12.3769 Y10.6709
G01 X12.3418 Y10.6818
G01 X12.2966 Y10.6935
G01 X12.2846 Y10.6962
G01 X12.2485 Y10.7030
G01 X12.2023 Y10.7096
G01 X12.1657 Y10.7129
G01 X12.1313 Y10.7146
G01 X12.1068 Y10.7152
G01 X11.8864 Y10.7152
G01 X11.8885 Y10.7223
G01 X11.8945 Y10.7461
G01 X11.8993 Y10.7701
G01 X11.9029 Y10.7944
G01 X11.9053 Y10.8188
G01 X11.9068 Y10.8556
G01 X11.9068 Y11.4144
G01 X11.9053 Y11.4512
G01 X11.9029 Y11.4756
G01 X11.8993 Y11.4999
G01 X11.8945 Y11.5239
G01 X11.8885 Y11.5477
G01 X11.8814 Y11.5712
G01 X11.8732 Y11.5943
G01 X11.8638 Y11.6170
G01 X11.8533 Y11.6391
G01 X11.8417 Y11.6608
G01 X11.8291 Y11.6818
G01 X11.8155 Y11.7022
G01 X11.8009 Y11.7219
G01 X11.7853 Y11.7409
G01 X11.7688 Y11.7591
G01 X11.7579 Y11.7700
G01 X11.7688 Y11.7809
G01 X11.7853 Y11.7991
G01 X11.8009 Y11.8181
G01 X11.8155 Y11.8378
G01 X11.8291 Y11.8582
G01 X11.8417 Y11.8792
G01 X11.8533 Y11.9009
G01 X11.8638 Y11.9230
G01 X11.8732 Y11.9457
G01 X11.8814 Y11.9688
G01 X11.8885 Y11.9923
G01 X11.8945 Y12.0161
G01 X11.8993 Y12.0401
G01 X11.9029 Y12.0644
G01 X11.9053 Y12.0888
G01 X11.9068 Y12.1256
G01 X11.9066 Y12.6931
G01 X12.1512 Y12.9376
G01 X12.1639 Y12.9509
G01 X12.1912 Y12.9809
G01 X12.2147 Y13.0091
G01 X12.2428 Y13.0464
G01 X12.2635 Y13.0768
G01 X12.2877 Y13.1167
G01 X12.3053 Y13.1490
G01 X12.3255 Y13.1910
G01 X12.3305 Y13.2022
G01 X12.3443 Y13.2363
G01 X12.3559 Y13.2687
G01 X12.3668 Y13.3038
G01 X12.3785 Y13.3490
G01 X12.3859 Y13.3850
G01 X12.3931 Y13.4311
G01 X12.3970 Y13.4677
G01 X12.3979 Y13.4799
G01 X12.3996 Y13.5143
G01 X12.4002 Y13.5388
G01 X12.4002 Y16.2017
G01 X12.4250 Y16.2225
G01 X12.4868 Y16.2785
G01 X12.4957 Y16.2869
G01 X12.5215 Y16.3132
G01 X12.5775 Y16.3750
G01 X12.5855 Y16.3843
G01 X12.6087 Y16.4129
G01 X12.6584 Y16.4799
G01 X12.6654 Y16.4899
G01 X12.6856 Y16.5207
G01 X12.7285 Y16.5923
G01 X12.7461 Y16.6246
G01 X12.7516 Y16.6355
G01 X12.7873 Y16.7109
G01 X12.7923 Y16.7222
G01 X12.8061 Y16.7563
G01 X12.8200 Y16.7952
G01 X12.8339 Y16.7563
G01 X12.8477 Y16.7222
G01 X12.8527 Y16.7109
G01 X12.8884 Y16.6355
G01 X12.8939 Y16.6246
G01 X12.9115 Y16.5923
G01 X12.9544 Y16.5207
G01 X12.9746 Y16.4899
G01 X12.9816 Y16.4799
G01 X13.0313 Y16.4129
G01 X13.0389 Y16.4032
G01 X13.0625 Y16.3750
G01 X13.1185 Y16.3132
G01 X13.1355 Y16.2957
G01 X12.8920 Y16.0523
G01 X12.8751 Y16.0345
G01 X12.8440 Y15.9998
G01 X12.8209 Y15.9711
G01 X12.7934 Y15.9335
G01 X12.7732 Y15.9027
G01 X12.7555 Y15.8732
G01 X12.7379 Y15.8409
G01 X12.7177 Y15.7989
G01 X12.7033 Y15.7650
G01 X12.6873 Y15.7212
G01 X12.6764 Y15.6861
G01 X12.6731 Y15.6743
G01 X12.6620 Y15.6290
G01 X12.6552 Y15.5928
G01 X12.6501 Y15.5588
G01 X12.6462 Y15.5222
G01 X12.6436 Y15.4757
G01 X12.6430 Y15.4511
G01 X12.6430 Y11.2950
G01 X12.6436 Y11.2705
G01 X12.6462 Y11.2239
G01 X12.6501 Y11.1873
G01 X12.6573 Y11.1412
G01 X12.6647 Y11.1052
G01 X12.6731 Y11.0719
G01 X12.6835 Y11.0366
G01 X12.6989 Y10.9925
G01 X12.7127 Y10.9584
G01 X12.7324 Y10.9162
G01 X12.7495 Y10.8836
G01 X12.7732 Y10.8434
G01 X12.7934 Y10.8126
G01 X12.8004 Y10.8026
G01 X12.8209 Y10.7750
G01 X12.8440 Y10.7464
G01 X12.8793 Y10.7071
G01 X12.8920 Y10.6938
G01 X13.0520 Y10.5338
G01 X13.0698 Y10.5169
G01 X13.1046 Y10.4858
G01 X13.1332 Y10.4627
G01 X13.1708 Y10.4352
G01 X13.2016 Y10.4150
G01 X13.2418 Y10.3913
G01 X13.2744 Y10.3742
G01 X13.3166 Y10.3545
G01 X13.3507 Y10.3407
G01 X13.3948 Y10.3253
G01 X13.4301 Y10.3149
G01 X13.4754 Y10.3038
G01 X13.5115 Y10.2970
G01 X13.5577 Y10.2904
G01 X13.5943 Y10.2871
G01 X13.6287 Y10.2854
G01 X13.6532 Y10.2848
G01 X13.8736 Y10.2848
G01 X13.8715 Y10.2777
G01 X13.8655 Y10.2539
G01 X13.8607 Y10.2299
G01 X13.8571 Y10.2056
G01 X13.8547 Y10.1812
G01 X13.8532 Y10.1444
G01 X13.8532 Y9.5856
G01 X13.8547 Y9.5488
G01 X13.8571 Y9.5244
G01 X13.8607 Y9.5001
G01 X13.8655 Y9.4761
G01 X13.8715 Y9.4523
G01 X13.8786 Y9.4288
G01 X13.8868 Y9.4057
G01 X13.8962 Y9.3830
G01 X13.9067 Y9.3609
G01 X13.9183 Y9.3392
G01 X13.9309 Y9.3182
G01 X13.9445 Y9.2978
G01 X13.9591 Y9.2781
G01 X13.9747 Y9.2591
G01 X13.9912 Y9.2409
G01 X14.0021 Y9.2300
G01 X13.9912 Y9.2191
G01 X13.9747 Y9.2009
G01 X13.9591 Y9.1819
G01 X13.9445 Y9.1622
G01 X13.9309 Y9.1418
G01 X13.9183 Y9.1208
G01 X13.9067 Y9.0991
G01 X13.8962 Y9.0770
G01 X13.8868 Y9.0543
G01 X13.8786 Y9.0312
G01 X13.8715 Y9.0077
G01 X13.8655 Y8.9839
G01 X13.8607 Y8.9599
G01 X13.8571 Y8.9356
G01 X13.8547 Y8.9112
G01 X13.8535 Y8.8867
G01 X13.8532 Y8.8744
G01 X13.8532 Y8.3156
G01 X13.8547 Y8.2788
G01 X13.8571 Y8.2544
G01 X13.8607 Y8.2301
G01 X13.8655 Y8.2061
G01 X13.8715 Y8.1823
G01 X13.8786 Y8.1588
G01 X13.8868 Y8.1357
G01 X13.8962 Y8.1130
G01 X13.9067 Y8.0909
G01 X13.9183 Y8.0692
G01 X13.9309 Y8.0482
G01 X13.9445 Y8.0278
G01 X13.9591 Y8.0081
G01 X13.9747 Y7.9891
G01 X13.9912 Y7.9709
G01 X14.0085 Y7.9536
G01 X14.0267 Y7.9371
G01 X14.0457 Y7.9215
G01 X14.0654 Y7.9069
G01 X14.0858 Y7.8933
G01 X14.1068 Y7.8807
G01 X14.1285 Y7.8691
G01 X14.1506 Y7.8586
G01 X14.1733 Y7.8492
G01 X14.1964 Y7.8410
G01 X14.2199 Y7.8339
G01 X14.2437 Y7.8279
G01 X14.2677 Y7.8231
G01 X14.2920 Y7.8195
G01 X14.3164 Y7.8171
G01 X14.3532 Y7.8156
G01 X14.5145 Y7.8156
G01 X14.5263 Y7.7986
G01 X14.5555 Y7.7592
G01 X14.5786 Y7.7305
G01 X14.6196 Y7.6849
G01 X14.6365 Y7.6671
G01 X15.7487 Y6.5549
G01 X15.7487 Y6.2495
G01 X15.7240 Y6.2360
G01 X15.7030 Y6.2234
G01 X15.6722 Y6.2032
G01 X15.6622 Y6.1961
G01 X15.6425 Y6.1815
G01 X15.6139 Y6.1584
G01 X15.5864 Y6.1339
G01 X15.5602 Y6.1081
G01 X15.5517 Y6.0992
G01 X15.5272 Y6.0717
G01 X15.5041 Y6.0431
G01 X15.4895 Y6.0234
G01 X15.4688 Y5.9930
G01 X15.4496 Y5.9615
G01 X15.4320 Y5.9292
G01 X15.4265 Y5.9183
G01 X15.4110 Y5.8849
G01 X15.4016 Y5.8622
G01 X15.3889 Y5.8277
G01 X15.3851 Y5.8160
G01 X15.3747 Y5.7807
G01 X15.3660 Y5.7449
G01 X15.3592 Y5.7088
G01 X15.3556 Y5.6845
G01 X15.3517 Y5.6479
G01 X15.3495 Y5.6112
G01 X15.3489 Y5.5867
G01 X15.3490 Y2.4805
G01 X15.3495 Y2.4621
G01 X15.3517 Y2.4254
G01 X15.3556 Y2.3888
G01 X15.3613 Y2.3524
G01 X15.3687 Y2.3164
G01 X15.3747 Y2.2926
G01 X15.3851 Y2.2573
G01 X15.3956 Y2.2269
G00 Z2.0000
G00 X22.7552 Y5.9248
G01 F800.00
G01 Z-0.0300
G01 F400.00
G01 X22.7217 Y5.9448
G01 X22.7001 Y5.9564
G01 X22.6202 Y5.9941
G01 X22.5976 Y6.0035
G01 X22.5144 Y6.0333
G01 X22.4909 Y6.0404
G01 X22.4053 Y6.0619
G01 X22.3812 Y6.0667
G01 X22.2938 Y6.0796
G01 X22.2694 Y6.0820
G01 X22.1812 Y6.0864
G01 X22.1567 Y6.0864
G01 X22.0685 Y6.0820
G01 X22.0440 Y6.0796
G01 X21.9567 Y6.0667
G01 X21.9326 Y6.0619
G01 X21.8469 Y6.0404
G01 X21.8235 Y6.0333
G01 X21.7403 Y6.0035
G01 X21.7176 Y5.9941
G01 X21.6378 Y5.9564
G01 X21.6162 Y5.9448
G01 X21.5404 Y5.8994
G01 X21.5200 Y5.8858
G01 X21.4491 Y5.8332
G01 X21.4301 Y5.8176
G01 X21.3647 Y5.7583
G01 X21.3473 Y5.7409
G01 X21.2880 Y5.6755
G01 X21.2724 Y5.6565
G01 X21.2198 Y5.5856
G01 X21.2062 Y5.5652
G01 X21.1608 Y5.4894
G01 X21.1492 Y5.4678
G01 X21.1115 Y5.3880
G01 X21.1021 Y5.3653
G01 X21.0723 Y5.2821
G01 X21.0652 Y5.2587
G01 X21.0437 Y5.1730
G01 X21.0389 Y5.1489
G01 X21.0260 Y5.0616
G01 X21.0236 Y5.0371
G01 X21.0192 Y4.9489
G01 X21.0189 Y4.9367
G01 X21.0189 Y3.1367
G01 X21.0192 Y3.1244
G01 X21.0236 Y3.0362
G01 X21.0260 Y3.0118
G01 X21.0389 Y2.9244
G01 X21.0437 Y2.9003
G01 X21.0652 Y2.8147
G01 X21.0723 Y2.7912
G01 X21.1021 Y2.7080
G01 X21.1115 Y2.6853
G01 X21.1492 Y2.6055
G01 X21.1608 Y2.5839
G01 X21.2062 Y2.5081
G01 X21.2198 Y2.4877
G01 X21.2724 Y2.4168
G01 X21.2880 Y2.3978
G01 X21.3473 Y2.3324
G01 X21.3647 Y2.3150
G01 X21.4301 Y2.2557
G01 X21.4491 Y2.2401
G01 X21.5200 Y2.1875
G01 X21.5404 Y2.1739
G01 X21.6162 Y2.1285
G01 X21.6378 Y2.1169
G01 X21.7176 Y2.0792
G01 X21.7403 Y2.0698
G01 X21.8235 Y2.0400
G01 X21.8469 Y2.0329
G01 X21.9326 Y2.0114
G01 X21.9567 Y2.0067
G01 X22.0440 Y1.9937
G01 X22.0685 Y1.9913
G01 X22.1567 Y1.9870
G01 X22.1812 Y1.9870
G01 X22.2694 Y1.9913
G01 X22.2938 Y1.9937
G01 X22.3812 Y2.0067
G01 X22.4053 Y2.0114
G01 X22.4909 Y2.0329
G01 X22.5144 Y2.0400
G01 X22.5976 Y2.0698
G01 X22.6202 Y2.0792
G01 X22.7001 Y2.1169
G01 X22.7217 Y2.1285
G01 X22.7975 Y2.1739
G01 X22.8179 Y2.1875
G01 X22.8888 Y2.2401
G01 X22.9078 Y2.2557
G01 X22.9732 Y2.3150
G01 X22.9906 Y2.3324
G01 X23.0499 Y2.3978
G01 X23.0655 Y2.4168
G01 X23.1181 Y2.4877
G01 X23.1317 Y2.5081
G01 X23.1771 Y2.5839
G01 X23.1887 Y2.6055
G01 X23.2264 Y2.6853
G01 X23.2358 Y2.7080
G01 X23.2656 Y2.7912
G01 X23.2727 Y2.8147
G01 X23.2942 Y2.9003
G01 X23.2989 Y2.9244
G01 X23.3119 Y3.0118
G01 X23.3143 Y3.0362
G01 X23.3186 Y3.1244
G01 X23.3189 Y3.1367
G01 X23.3189 Y4.7910
G01 X25.7312 Y7.2032
G01 X25.7627 Y7.2376
G01 X25.7783 Y7.2565
G01 X25.7988 Y7.2841
G01 X25.8124 Y7.3045
G01 X25.8301 Y7.3340
G01 X25.8416 Y7.3556
G01 X25.8563 Y7.3867
G01 X25.8657 Y7.4094
G01 X25.8773 Y7.4417
G01 X25.8844 Y7.4652
G01 X25.8928 Y7.4985
G01 X25.8975 Y7.5226
G01 X25.9026 Y7.5566
G01 X25.9050 Y7.5810
G01 X25.9070 Y7.6276
G01 X25.9070 Y9.7050
G01 X25.9050 Y9.7516
G01 X25.9026 Y9.7760
G01 X25.8975 Y9.8100
G01 X25.8928 Y9.8341
G01 X25.8844 Y9.8674
G01 X25.8773 Y9.8909
G01 X25.8657 Y9.9232
G01 X25.8563 Y9.9459
G01 X25.8416 Y9.9770
G01 X25.8301 Y9.9986
G01 X25.8124 Y10.0281
G01 X25.7988 Y10.0485
G01 X25.7783 Y10.0761
G01 X25.7627 Y10.0950
G01 X25.7396 Y10.1205
G01 X25.7312 Y10.1294
G01 X25.5712 Y10.2894
G01 X25.5368 Y10.3209
G01 X25.5179 Y10.3365
G01 X25.4903 Y10.3570
G01 X25.4699 Y10.3706
G01 X25.4404 Y10.3883
G01 X25.4188 Y10.3998
G01 X25.3877 Y10.4145
G01 X25.3650 Y10.4239
G01 X25.3327 Y10.4355
G01 X25.3092 Y10.4426
G01 X25.2759 Y10.4510
G01 X25.2518 Y10.4557
G01 X25.2178 Y10.4608
G01 X25.1934 Y10.4632
G01 X25.1591 Y10.4649
G01 X25.1468 Y10.4652
G01 X23.4562 Y10.4652
G01 X23.4439 Y10.4649
G01 X23.4096 Y10.4632
G01 X23.3852 Y10.4608
G01 X23.3512 Y10.4557
G01 X23.3271 Y10.4510
G01 X23.2938 Y10.4426
G01 X23.2703 Y10.4355
G01 X23.2380 Y10.4239
G01 X23.2153 Y10.4145
G01 X23.1842 Y10.3998
G01 X23.1741 Y10.3944
G01 X22.4656 Y10.3944
G01 X22.4411 Y10.3932
G01 X22.4168 Y10.3896
G01 X22.3930 Y10.3836
G01 X22.3699 Y10.3754
G01 X22.3478 Y10.3649
G01 X22.3267 Y10.3523
G01 X22.3070 Y10.3377
G01 X22.2888 Y10.3212
G01 X22.2723 Y10.3030
G01 X22.2577 Y10.2833
G01 X22.2451 Y10.2622
G01 X22.2346 Y10.2401
G01 X22.2264 Y10.2170
G01 X22.2204 Y10.1932
G01 X22.2168 Y10.1689
G01 X22.2156 Y10.1444
G01 X22.2156 Y9.5856
G01 X22.2168 Y9.5611
G01 X22.2204 Y9.5368
G01 X22.2264 Y9.5130
G01 X22.2346 Y9.4899
G01 X22.2451 Y9.4678
G01 X22.2577 Y9.4467
G01 X22.2723 Y9.4270
G01 X22.2888 Y9.4088
G01 X22.3070 Y9.3923
G01 X22.3267 Y9.3777
G01 X22.3478 Y9.3651
G01 X22.3699 Y9.3546
G01 X22.3930 Y9.3464
G01 X22.4168 Y9.3404
G01 X22.4411 Y9.3368
G01 X22.4656 Y9.3356
G01 X23.1741 Y9.3356
G01 X23.1842 Y9.3302
G01 X23.2153 Y9.3155
G01 X23.2380 Y9.3061
G01 X23.2703 Y9.2945
G01 X23.2938 Y9.2874
G01 X23.3271 Y9.2790
G01 X23.3512 Y9.2743
G01 X23.3852 Y9.2692
G01 X23.4096 Y9.2668
G01 X23.4439 Y9.2651
G01 X23.4562 Y9.2648
G01 X24.7066 Y9.2648
G01 X24.7066 Y7.8762
G01 X22.7552 Y5.9248
G00 Z2.0000
G00 X22.3366 Y8.0899
G01 F800.00
G01 Z-0.0300
G01 F400.00
G01 X22.3588 Y8.0899
G01 X22.3699 Y8.0846
G01 X22.3930 Y8.0764
G01 X22.4168 Y8.0704
G01 X22.4411 Y8.0668
G01 X22.4656 Y8.0656
G01 X22.9511 Y8.0656
G01 X22.9511 Y8.0543
G01 X22.4890 Y8.0522
G01 X22.4147 Y8.0595
G01 X22.3657 Y8.0743
G01 X22.3366 Y8.0899
G00 Z2.0000
G00 X25.8131 Y6.5780
G01 F800.00
G01 Z-0.0300
G01 F400.00
G01 X25.8356 Y6.5801
G01 X25.8539 Y6.5814
G01 X25.9421 Y6.5857
G01 X25.9605 Y6.5863
G01 X25.9912 Y6.5864
G01 X26.0157 Y6.5857
G01 X26.1101 Y6.5810
G01 X26.1529 Y6.5772
G01 X26.1772 Y6.5742
G01 X26.2646 Y6.5612
G01 X26.2888 Y6.5570
G01 X26.3308 Y6.5483
G01 X26.4224 Y6.5254
G01 X26.4461 Y6.5189
G01 X26.4754 Y6.5099
G01 X26.4929 Y6.5041
G01 X26.5818 Y6.4722
G01 X26.6216 Y6.4561
G01 X26.6440 Y6.4461
G01 X26.7239 Y6.4084
G01 X26.7458 Y6.3973
G01 X26.7835 Y6.3768
G01 X26.8645 Y6.3283
G01 X26.8853 Y6.3151
G01 X26.9107 Y6.2980
G01 X26.9257 Y6.2874
G01 X27.0016 Y6.2311
G01 X27.0350 Y6.2041
G01 X27.0536 Y6.1881
G01 X27.1190 Y6.1288
G01 X27.1324 Y6.1161
G01 X27.1541 Y6.0945
G01 X27.1669 Y6.0812
G01 X27.2304 Y6.0113
G01 X27.2464 Y5.9927
G01 X27.2733 Y5.9593
G01 X27.3297 Y5.8834
G01 X27.3438 Y5.8634
G01 X27.3608 Y5.8378
G01 X27.3706 Y5.8222
G01 X27.4191 Y5.7412
G01 X27.4396 Y5.7035
G01 X27.4507 Y5.6816
G01 X27.4910 Y5.5962
G01 X27.5078 Y5.5566
G01 X27.5166 Y5.5337
G01 X27.5483 Y5.4448
G01 X27.5612 Y5.4038
G01 X27.5662 Y5.3861
G01 X27.5892 Y5.2945
G01 X27.5946 Y5.2705
G01 X27.6026 Y5.2283
G01 X27.6165 Y5.1349
G01 X27.6195 Y5.1106
G01 X27.6233 Y5.0678
G01 X27.6280 Y4.9735
G01 X27.6288 Y4.9489
G01 X27.6289 Y3.1367
G01 X27.6282 Y3.1029
G01 X27.6237 Y3.0116
G01 X27.6219 Y2.9872
G01 X27.6173 Y2.9445
G01 X27.6035 Y2.8510
G01 X27.6005 Y2.8329
G01 X27.5946 Y2.8028
G01 X27.5892 Y2.7788
G01 X27.5662 Y2.6872
G01 X27.5612 Y2.6695
G01 X27.5522 Y2.6402
G01 X27.5463 Y2.6227
G01 X27.5145 Y2.5338
G01 X27.4984 Y2.4940
G01 X27.4909 Y2.4769
G01 X28.1390 Y2.4769
G01 X28.1389 Y5.5867
G01 X28.1395 Y5.6143
G01 X28.1411 Y5.6480
G01 X28.1423 Y5.6663
G01 X28.1453 Y5.6969
G01 X28.1474 Y5.7151
G01 X28.1519 Y5.7455
G01 X28.1549 Y5.7636
G01 X28.1608 Y5.7937
G01 X28.1648 Y5.8117
G01 X28.1722 Y5.8415
G01 X28.1770 Y5.8592
G01 X28.1859 Y5.8886
G01 X28.1916 Y5.9061
G01 X28.2018 Y5.9350
G01 X28.2106 Y5.9579
G01 X28.2274 Y5.9974
G01 X28.2405 Y6.0252
G01 X28.2515 Y6.0471
G01 X28.2721 Y6.0848
G01 X28.2878 Y6.1111
G01 X28.2976 Y6.1267
G01 X28.3145 Y6.1523
G01 X28.3287 Y6.1723
G01 X28.3470 Y6.1969
G01 X28.3584 Y6.2114
G01 X28.3779 Y6.2350
G01 X28.4064 Y6.2671
G01 X28.4191 Y6.2805
G01 X28.4407 Y6.3022
G01 X28.4540 Y6.3150
G01 X28.4767 Y6.3356
G01 X28.4953 Y6.3517
G01 X28.5190 Y6.3711
G01 X28.5387 Y6.3861
G01 X28.5387 Y6.4514
G01 X27.4997 Y7.4903
G01 X27.4744 Y7.5170
G01 X27.4307 Y7.5656
G01 X27.3932 Y7.5656
G01 X27.3748 Y7.5660
G01 X27.3319 Y7.5683
G01 X27.2953 Y7.5722
G01 X27.2711 Y7.5758
G01 X27.2349 Y7.5827
G01 X27.1991 Y7.5913
G01 X27.1873 Y7.5946
G01 X27.1522 Y7.6056
G01 X27.1291 Y7.6139
G01 X27.0950 Y7.6277
G01 X27.0838 Y7.6326
G01 X27.0506 Y7.6486
G01 X27.0183 Y7.6663
G01 X26.9973 Y7.6789
G01 X26.9665 Y7.6991
G01 X26.9565 Y7.7061
G01 X26.9271 Y7.7283
G01 X26.8988 Y7.7519
G01 X26.8806 Y7.7683
G01 X26.8718 Y7.7768
G01 X26.8459 Y7.8030
G01 X26.8295 Y7.8212
G01 X26.8059 Y7.8495
G01 X26.7837 Y7.8789
G01 X26.7767 Y7.8889
G01 X26.7565 Y7.9197
G01 X26.7439 Y7.9407
G01 X26.7262 Y7.9730
G01 X26.7102 Y8.0062
G01 X26.7053 Y8.0174
G01 X26.6915 Y8.0515
G01 X26.6793 Y8.0862
G01 X26.6689 Y8.1215
G01 X26.6630 Y8.1453
G01 X26.6555 Y8.1814
G01 X26.6498 Y8.2177
G01 X26.6459 Y8.2543
G01 X26.6450 Y8.2666
G01 X26.6436 Y8.2972
G01 X26.6432 Y8.3156
G01 X26.6432 Y8.8744
G01 X26.6438 Y8.8989
G01 X26.6459 Y8.9357
G01 X26.6498 Y8.9723
G01 X26.6555 Y9.0086
G01 X26.6630 Y9.0447
G01 X26.6722 Y9.0803
G01 X26.6832 Y9.1154
G01 X26.6959 Y9.1500
G01 X26.7102 Y9.1838
G01 X26.7207 Y9.2060
G01 X26.7332 Y9.2300
G01 X26.7207 Y9.2540
G01 X26.7053 Y9.2874
G01 X26.6915 Y9.3215
G01 X26.6793 Y9.3562
G01 X26.6689 Y9.3915
G01 X26.6603 Y9.4273
G01 X26.6534 Y9.4635
G01 X26.6483 Y9.4999
G01 X26.6450 Y9.5366
G01 X26.6436 Y9.5672
G01 X26.6432 Y9.5856
G01 X26.6432 Y10.0364
G01 X26.6037 Y10.0387
G01 X26.5671 Y10.0423
G01 X26.5148 Y10.0497
G01 X26.4907 Y10.0539
G01 X26.4486 Y10.0626
G01 X26.4034 Y10.0739
G01 X26.3622 Y10.0860
G01 X26.3352 Y10.0951
G01 X26.3501 Y10.0535
G01 X26.3558 Y10.0360
G01 X26.3646 Y10.0066
G01 X26.3694 Y9.9889
G01 X26.3792 Y9.9496
G01 X26.3879 Y9.9075
G01 X26.3921 Y9.8834
G01 X26.3972 Y9.8494
G01 X26.4002 Y9.8250
G01 X26.4040 Y9.7822
G01 X26.4061 Y9.7418
G01 X26.4068 Y9.7173
G01 X26.4070 Y7.6245
G01 X26.4061 Y7.5908
G01 X26.4031 Y7.5381
G01 X26.4002 Y7.5076
G01 X26.3980 Y7.4893
G01 X26.3921 Y7.4492
G01 X26.3879 Y7.4251
G01 X26.3819 Y7.3950
G01 X26.3778 Y7.3770
G01 X26.3679 Y7.3378
G01 X26.3558 Y7.2966
G01 X26.3501 Y7.2791
G01 X26.3365 Y7.2409
G01 X26.3299 Y7.2237
G01 X26.3183 Y7.1954
G01 X26.3109 Y7.1785
G01 X26.2936 Y7.1419
G01 X26.2854 Y7.1254
G01 X26.2710 Y7.0983
G01 X26.2620 Y7.0823
G01 X26.2413 Y7.0475
G01 X26.2281 Y7.0267
G01 X26.2040 Y6.9913
G01 X26.1799 Y6.9587
G01 X26.1686 Y6.9441
G01 X26.1492 Y6.9204
G01 X26.1373 Y6.9064
G01 X26.1081 Y6.8741
G01 X26.0847 Y6.8497
G01 X25.8131 Y6.5780
G01 X26.3699 Y6.7957
G01 X26.3975 Y6.7894
G01 X26.4862 Y6.7672
G01 X26.5098 Y6.7607
G01 X26.5421 Y6.7510
G01 X26.5771 Y6.7394
G01 X26.6631 Y6.7086
G01 X26.6946 Y6.6964
G01 X26.7257 Y6.6834
G01 X26.7481 Y6.6734
G01 X26.8308 Y6.6344
G01 X26.8609 Y6.6193
G01 X26.8933 Y6.6018
G01 X26.9147 Y6.5897
G01 X26.9931 Y6.5427
G01 X27.0165 Y6.5280
G01 X27.0471 Y6.5077
G01 X27.0722 Y6.4900
G01 X27.1456 Y6.4356
G01 X27.1674 Y6.4187
G01 X27.1959 Y6.3954
G01 X27.2146 Y6.3794
G01 X27.2869 Y6.3140
G01 X27.3070 Y6.2951
G01 X27.3309 Y6.2713
G01 X27.3563 Y6.2446
G01 X27.4156 Y6.1792
G01 X27.4317 Y6.1607
G01 X27.4571 Y6.1299
G01 X27.4760 Y6.1058
G01 X27.5359 Y6.0249
G01 X27.5500 Y6.0048
G01 X27.5703 Y5.9742
G01 X27.5850 Y5.9508
G01 X27.6320 Y5.8724
G01 X27.6441 Y5.8511
G01 X27.6615 Y5.8186
G01 X27.6767 Y5.7885
G01 X27.7157 Y5.7058
G01 X27.7257 Y5.6834
G01 X27.7399 Y5.6495
G01 X27.7520 Y5.6180
G01 X27.7828 Y5.5319
G01 X27.7924 Y5.5028
G01 X27.8030 Y5.4675
G01 X27.8102 Y5.4409
G01 X27.8324 Y5.3522
G01 X27.8391 Y5.3223
G01 X27.8462 Y5.2862
G01 X27.8508 Y5.2590
G01 X27.8654 Y5.1594
G01 X27.8707 Y5.1106
G01 X27.8732 Y5.0770
G01 X27.8779 Y4.9811
G01 X27.8789 Y4.9367
G01 X27.8788 Y3.1228
G01 X27.8778 Y3.0891
G01 X27.8732 Y2.9963
G01 X27.8710 Y2.9657
G01 X27.8673 Y2.9291
G01 X27.8638 Y2.9017
G01 X27.8494 Y2.8053
G01 X27.8445 Y2.7781
G01 X27.8391 Y2.7510
G01 X27.8339 Y2.7272
G01 X27.8889 Y2.7272
G01 X27.8889 Y5.5867
G01 X27.8896 Y5.6219
G01 X27.8915 Y5.6633
G01 X27.8933 Y5.6878
G01 X27.8965 Y5.7214
G01 X27.9010 Y5.7579
G01 X27.9060 Y5.7912
G01 X27.9103 Y5.8154
G01 X27.9163 Y5.8455
G01 X27.9209 Y5.8665
G01 X27.9328 Y5.9141
G01 X27.9386 Y5.9347
G01 X27.9494 Y5.9699
G01 X27.9571 Y5.9932
G01 X27.9664 Y6.0192
G01 X27.9797 Y6.0536
G01 X27.9989 Y6.0987
G01 X28.0199 Y6.1431
G01 X28.0296 Y6.1622
G01 X28.0441 Y6.1893
G01 X28.0561 Y6.2107
G01 X28.0733 Y6.2396
G01 X28.0913 Y6.2682
G01 X28.1084 Y6.2937
G01 X28.1207 Y6.3113
G01 X28.1480 Y6.3483
G01 X28.1632 Y6.3676
G01 X28.1826 Y6.3913
G01 X28.1986 Y6.4099
G01 X28.2119 Y6.4247
G01 X27.3179 Y7.3187
G01 X27.2769 Y7.3226
G01 X27.2586 Y7.3249
G01 X27.2283 Y7.3295
G01 X27.2102 Y7.3327
G01 X27.1801 Y7.3388
G01 X27.1622 Y7.3429
G01 X27.1325 Y7.3504
G01 X27.1147 Y7.3554
G01 X27.0913 Y7.3625
G01 X27.0854 Y7.3644
G01 X27.0680 Y7.3702
G01 X27.0391 Y7.3806
G01 X27.0220 Y7.3873
G01 X26.9937 Y7.3991
G01 X26.9547 Y7.4171
G01 X26.9382 Y7.4253
G01 X26.9111 Y7.4397
G01 X26.8951 Y7.4487
G01 X26.8687 Y7.4644
G01 X26.8531 Y7.4742
G01 X26.8276 Y7.4912
G01 X26.8125 Y7.5017
G01 X26.7878 Y7.5199
G01 X26.7733 Y7.5312
G01 X26.7495 Y7.5506
G01 X26.7355 Y7.5626
G01 X26.7128 Y7.5831
G01 X26.6994 Y7.5957
G01 X26.6776 Y7.6174
G01 X26.6570 Y7.6393
G01 X26.6568 Y7.6138
G01 X26.6560 Y7.5847
G01 X26.6539 Y7.5411
G01 X26.6524 Y7.5197
G01 X26.6476 Y7.4709
G01 X26.6449 Y7.4496
G01 X26.6390 Y7.4095
G01 X26.6348 Y7.3853
G01 X26.6283 Y7.3522
G01 X26.6203 Y7.3163
G01 X26.6112 Y7.2800
G01 X26.6047 Y7.2563
G01 X26.5941 Y7.2211
G01 X26.5865 Y7.1978
G01 X26.5676 Y7.1452
G01 X26.5586 Y7.1224
G01 X26.5444 Y7.0884
G01 X26.5343 Y7.0660
G01 X26.5156 Y7.0267
G01 X26.5045 Y7.0048
G01 X26.4915 Y6.9805
G01 X26.4734 Y6.9484
G01 X26.4541 Y6.9163
G01 X26.4377 Y6.8904
G01 X26.4206 Y6.8649
G01 X26.4066 Y6.8448
G01 X26.3699 Y6.7957
G01 X26.7523 Y6.9422
G01 X26.7789 Y6.9320
G01 X26.8129 Y6.9180
G01 X26.8536 Y6.9001
G01 X26.9487 Y6.8550
G01 X26.9761 Y6.8412
G01 X27.0031 Y6.8267
G01 X27.0419 Y6.8049
G01 X27.1334 Y6.7499
G01 X27.1579 Y6.7343
G01 X27.1847 Y6.7164
G01 X27.2199 Y6.6917
G01 X27.3055 Y6.6280
G01 X27.3285 Y6.6100
G01 X27.3557 Y6.5877
G01 X27.3882 Y6.5596
G01 X27.4672 Y6.4878
G01 X27.4860 Y6.4697
G01 X27.5088 Y6.4470
G01 X27.5415 Y6.4125
G01 X27.6100 Y6.3367
G01 X27.6290 Y6.3146
G01 X27.6514 Y6.2874
G01 X27.6787 Y6.2522
G01 X27.7322 Y6.1801
G01 X27.7507 Y6.1541
G01 X27.7635 Y6.1846
G01 X27.7761 Y6.2126
G01 X27.7938 Y6.2500
G01 X27.8077 Y6.2774
G01 X27.8250 Y6.3098
G01 X27.8401 Y6.3365
G01 X27.8621 Y6.3734
G01 X27.8805 Y6.4025
G01 X27.2024 Y7.0805
G01 X27.1644 Y7.0869
G01 X27.1344 Y7.0929
G01 X27.1104 Y7.0982
G01 X27.0658 Y7.1095
G01 X27.0451 Y7.1153
G01 X27.0158 Y7.1242
G01 X26.9837 Y7.1348
G01 X26.9578 Y7.1441
G01 X26.9348 Y7.1529
G01 X26.9291 Y7.1552
G01 X26.9263 Y7.1563
G01 X26.9036 Y7.1657
G01 X26.8923 Y7.1706
G01 X26.8463 Y7.1919
G01 X26.8338 Y7.1500
G01 X26.8248 Y7.1222
G01 X26.8025 Y7.0595
G01 X26.7919 Y7.0324
G01 X26.7778 Y6.9984
G01 X26.7655 Y6.9703
G01 X26.7523 Y6.9422
G01 X27.7006 Y8.0656
G01 X27.3932 Y8.0656
G01 X27.3687 Y8.0668
G01 X27.3444 Y8.0704
G01 X27.3206 Y8.0764
G01 X27.2975 Y8.0846
G01 X27.2754 Y8.0951
G01 X27.2543 Y8.1077
G01 X27.2346 Y8.1223
G01 X27.2164 Y8.1388
G01 X27.1999 Y8.1570
G01 X27.1853 Y8.1767
G01 X27.1727 Y8.1978
G01 X27.1622 Y8.2199
G01 X27.1540 Y8.2430
G01 X27.1480 Y8.2668
G01 X27.1444 Y8.2911
G01 X27.1432 Y8.3156
G01 X27.1432 Y8.8744
G01 X27.1444 Y8.8989
G01 X27.1480 Y8.9232
G01 X27.1540 Y8.9470
G01 X27.1622 Y8.9701
G01 X27.1727 Y8.9922
G01 X27.1853 Y9.0133
G01 X27.1999 Y9.0330
G01 X27.2164 Y9.0512
G01 X27.2346 Y9.0677
G01 X27.2543 Y9.0823
G01 X27.2754 Y9.0949
G01 X27.2975 Y9.1054
G01 X27.3206 Y9.1136
G01 X27.3444 Y9.1196
G01 X27.3687 Y9.1232
G01 X27.3932 Y9.1244
G01 X29.3744 Y9.1244
G01 X29.3989 Y9.1232
G01 X29.4232 Y9.1196
G01 X29.4470 Y9.1136
G01 X29.4701 Y9.1054
G01 X29.4922 Y9.0949
G01 X29.5133 Y9.0823
G01 X29.5330 Y9.0677
G01 X29.5512 Y9.0512
G01 X29.5677 Y9.0330
G01 X29.5823 Y9.0133
G01 X29.5949 Y8.9922
G01 X29.6054 Y8.9701
G01 X29.6136 Y8.9470
G01 X29.6196 Y8.9232
G01 X29.6232 Y8.8989
G01 X29.6244 Y8.8744
G01 X29.6244 Y8.3156
G01 X29.6232 Y8.2911
G01 X29.6196 Y8.2668
G01 X29.6136 Y8.2430
G01 X29.6054 Y8.2199
G01 X29.6034 Y8.2158
G01 X30.3195 Y7.4998
G01 X30.3279 Y7.4909
G01 X30.3609 Y7.4545
G01 X30.3764 Y7.4355
G01 X30.4057 Y7.3961
G01 X30.4193 Y7.3757
G01 X30.4446 Y7.3336
G01 X30.4561 Y7.3120
G01 X30.4771 Y7.2676
G01 X30.4865 Y7.2449
G01 X30.5030 Y7.1987
G01 X30.5102 Y7.1752
G01 X30.5221 Y7.1276
G01 X30.5269 Y7.1035
G01 X30.5341 Y7.0550
G01 X30.5365 Y7.0305
G01 X30.5392 Y6.9692
G01 X30.5392 Y6.0762
G01 X30.5485 Y6.0744
G01 X30.5723 Y6.0684
G01 X30.5957 Y6.0613
G01 X30.6188 Y6.0530
G01 X30.6415 Y6.0436
G01 X30.6637 Y6.0331
G01 X30.6853 Y6.0216
G01 X30.7064 Y6.0090
G01 X30.7268 Y5.9953
G01 X30.7465 Y5.9807
G01 X30.7654 Y5.9651
G01 X30.7836 Y5.9487
G01 X30.8010 Y5.9313
G01 X30.8174 Y5.9131
G01 X30.8330 Y5.8942
G01 X30.8476 Y5.8745
G01 X30.8612 Y5.8541
G01 X30.8739 Y5.8330
G01 X30.8854 Y5.8114
G01 X30.8959 Y5.7892
G01 X30.9053 Y5.7665
G01 X30.9136 Y5.7434
G01 X30.9207 Y5.7200
G01 X30.9266 Y5.6962
G01 X30.9314 Y5.6721
G01 X30.9350 Y5.6478
G01 X30.9374 Y5.6234
G01 X30.9389 Y5.5867
G01 X30.9389 Y2.4867
G01 X30.9374 Y2.4499
G01 X30.9350 Y2.4255
G01 X30.9314 Y2.4012
G01 X30.9266 Y2.3771
G01 X30.9207 Y2.3533
G01 X30.9136 Y2.3299
G01 X30.9053 Y2.3068
G01 X30.8959 Y2.2841
G01 X30.8854 Y2.2619
G01 X30.8739 Y2.2403
G01 X30.8612 Y2.2192
G01 X30.8476 Y2.1988
G01 X30.8330 Y2.1791
G01 X30.8174 Y2.1602
G01 X30.8010 Y2.1420
G01 X30.7836 Y2.1246
G01 X30.7654 Y2.1082
G01 X30.7465 Y2.0926
G01 X30.7268 Y2.0780
G01 X30.7064 Y2.0644
G01 X30.6853 Y2.0517
