(G-CODE GENERATED BY FLATCAM v8.991 - www.flatcam.org - Version Date: 2019/12/27)

(Name: 03 - Spring Loaded V Bit Solder Mask)
(Type: G-code from Geometry)
(Units: MM)

(Created on Monday, 16 March 2020 at 11:55)

(TOOL DIAMETER: 0.1 mm)
(Feedrate: 350.0 mm/min)
(Feedrate_Z: 800.0 mm/min)
(Feedrate rapids 1500.0 mm/min)

(Z_Cut: -0.0001 mm)
(Z_Move: 2.0 mm)
(Z Toolchange: 15.0 mm)
(X,Y Toolchange: 0.0000, 0.0000 mm)
(Z Start: None mm)
(Z End: 15.0 mm)
(Steps per circle: 64)
(Preprocessor Geometry: default)

(X range:    0.1490 ...   64.8510  mm)
(Y range:    2.2313 ...   18.1010  mm)

(Spindle Speed: 7800 RPM)
G21
G90
G94

M08


G01 F350.00
G00 Z2.0000

M03 S7800
G00 X2.1384 Y8.2710
G01 F800.00
G01 Z-0.0001
G01 F350.00
G01 X3.8616 Y8.2710
G01 X3.9341 Y8.3010
G01 X2.0659 Y8.3010
G01 X1.9935 Y8.3310
G01 X4.0065 Y8.3310
G01 X4.0789 Y8.3610
G01 X1.9211 Y8.3610
G01 X1.8487 Y8.3910
G01 X4.1513 Y8.3910
G01 X4.2238 Y8.4210
G01 X1.7762 Y8.4210
G01 X1.7038 Y8.4510
G01 X4.2962 Y8.4510
G01 X4.3617 Y8.4810
G01 X1.6383 Y8.4810
G01 X1.5934 Y8.5110
G01 X4.4066 Y8.5110
G01 X4.4515 Y8.5410
G01 X1.5485 Y8.5410
G01 X1.5036 Y8.5710
G01 X4.4964 Y8.5710
G01 X4.5413 Y8.6010
G01 X1.4587 Y8.6010
G01 X1.4138 Y8.6310
G01 X4.5862 Y8.6310
G01 X4.6311 Y8.6610
G01 X1.3689 Y8.6610
G01 X1.3240 Y8.6910
G01 X4.6760 Y8.6910
G01 X4.7209 Y8.7210
G01 X1.2791 Y8.7210
G01 X1.2342 Y8.7510
G01 X4.7658 Y8.7510
G01 X4.8107 Y8.7810
G01 X1.1893 Y8.7810
G01 X1.1571 Y8.8110
G01 X4.8429 Y8.8110
G01 X4.8729 Y8.8410
G01 X1.1271 Y8.8410
G01 X1.0971 Y8.8710
G01 X4.9029 Y8.8710
G01 X4.9329 Y8.9010
G01 X1.0671 Y8.9010
G01 X1.0371 Y8.9310
G01 X4.9629 Y8.9310
G01 X4.9929 Y8.9610
G01 X1.0071 Y8.9610
G01 X0.9771 Y8.9910
G01 X5.0229 Y8.9910
G01 X5.0529 Y9.0210
G01 X0.9471 Y9.0210
G01 X0.9171 Y9.0510
G01 X5.0829 Y9.0510
G01 X5.1129 Y9.0810
G01 X0.8871 Y9.0810
G01 X0.8571 Y9.1110
G01 X5.1429 Y9.1110
G01 X5.1729 Y9.1410
G01 X0.8271 Y9.1410
G01 X0.7971 Y9.1710
G01 X5.2029 Y9.1710
G01 X5.2268 Y9.2010
G01 X0.7732 Y9.2010
G01 X0.7531 Y9.2310
G01 X5.2469 Y9.2310
G01 X5.2669 Y9.2610
G01 X0.7331 Y9.2610
G01 X0.7130 Y9.2910
G01 X5.2870 Y9.2910
G01 X5.3070 Y9.3210
G01 X0.6930 Y9.3210
G01 X0.6730 Y9.3510
G01 X5.3270 Y9.3510
G01 X5.3471 Y9.3810
G01 X0.6529 Y9.3810
G01 X0.6329 Y9.4110
G01 X5.3671 Y9.4110
G01 X5.3872 Y9.4410
G01 X0.6128 Y9.4410
G01 X0.5928 Y9.4710
G01 X5.4072 Y9.4710
G01 X5.4273 Y9.5010
G01 X0.5727 Y9.5010
G01 X0.5527 Y9.5310
G01 X5.4473 Y9.5310
G01 X5.4674 Y9.5610
G01 X0.5326 Y9.5610
G01 X0.5126 Y9.5910
G01 X5.4874 Y9.5910
G01 X5.5075 Y9.6210
G01 X0.4925 Y9.6210
G01 X0.4729 Y9.6510
G01 X5.5271 Y9.6510
G01 X5.5396 Y9.6810
G01 X0.4604 Y9.6810
G01 X0.4480 Y9.7110
G01 X5.5520 Y9.7110
G01 X5.5644 Y9.7410
G01 X0.4356 Y9.7410
G01 X0.4232 Y9.7710
G01 X5.5768 Y9.7710
G01 X5.5893 Y9.8010
G01 X0.4107 Y9.8010
G01 X0.3983 Y9.8310
G01 X5.6017 Y9.8310
G01 X5.6141 Y9.8610
G01 X0.3859 Y9.8610
G01 X0.3735 Y9.8910
G01 X5.6265 Y9.8910
G01 X5.6390 Y9.9210
G01 X0.3610 Y9.9210
G01 X0.3486 Y9.9510
G01 X5.6514 Y9.9510
G01 X5.6638 Y9.9810
G01 X0.3362 Y9.9810
G01 X0.3238 Y10.0110
G01 X5.6762 Y10.0110
G01 X5.6887 Y10.0410
G01 X0.3113 Y10.0410
G01 X0.2989 Y10.0710
G01 X5.7011 Y10.0710
G01 X5.7135 Y10.1010
G01 X0.2865 Y10.1010
G01 X0.2741 Y10.1310
G01 X5.7259 Y10.1310
G01 X5.7384 Y10.1610
G01 X0.2616 Y10.1610
G01 X0.2541 Y10.1910
G01 X5.7459 Y10.1910
G01 X5.7519 Y10.2210
G01 X0.2481 Y10.2210
G01 X0.2421 Y10.2510
G01 X5.7579 Y10.2510
G01 X5.7638 Y10.2810
G01 X0.2362 Y10.2810
G01 X0.2302 Y10.3110
G01 X5.7698 Y10.3110
G01 X5.7758 Y10.3410
G01 X0.2242 Y10.3410
G01 X0.2183 Y10.3710
G01 X5.7817 Y10.3710
G01 X5.7877 Y10.4010
G01 X0.2123 Y10.4010
G01 X0.2063 Y10.4310
G01 X5.7937 Y10.4310
G01 X5.7996 Y10.4610
G01 X0.2004 Y10.4610
G01 X0.1944 Y10.4910
G01 X5.8056 Y10.4910
G01 X5.8116 Y10.5210
G01 X0.1884 Y10.5210
G01 X0.1825 Y10.5510
G01 X5.8175 Y10.5510
G01 X5.8235 Y10.5810
G01 X0.1765 Y10.5810
G01 X0.1705 Y10.6110
G01 X5.8295 Y10.6110
G01 X5.8354 Y10.6410
G01 X0.1646 Y10.6410
G01 X0.1586 Y10.6710
G01 X5.8414 Y10.6710
G01 X5.8474 Y10.7010
G01 X0.1526 Y10.7010
G01 X0.1490 Y10.7310
G01 X5.8510 Y10.7310
G01 X5.8510 Y10.7610
G01 X0.1490 Y10.7610
G01 X0.1490 Y10.7910
G01 X5.8510 Y10.7910
G01 X5.8510 Y10.8210
G01 X0.1490 Y10.8210
G01 X0.1490 Y10.8510
G01 X5.8510 Y10.8510
G01 X5.8510 Y10.8810
G01 X0.1490 Y10.8810
G01 X0.1490 Y10.9110
G01 X5.8510 Y10.9110
G01 X5.8510 Y10.9410
G01 X0.1490 Y10.9410
G01 X0.1490 Y10.9710
G01 X5.8510 Y10.9710
G01 X5.8510 Y11.0010
G01 X0.1490 Y11.0010
G01 X0.1490 Y11.0310
G01 X5.8510 Y11.0310
G01 X5.8510 Y11.0610
G01 X0.1490 Y11.0610
G01 X0.1490 Y11.0910
G01 X5.8510 Y11.0910
G01 X5.8510 Y11.1210
G01 X0.1490 Y11.1210
G01 X0.1490 Y11.1510
G01 X5.8510 Y11.1510
G01 X5.8510 Y11.1810
G01 X0.1490 Y11.1810
G01 X0.1490 Y11.2110
G01 X5.8510 Y11.2110
G01 X5.8510 Y11.2410
G01 X0.1490 Y11.2410
G01 X0.1490 Y11.2710
G01 X5.8510 Y11.2710
G01 X5.8470 Y11.3010
G01 X0.1530 Y11.3010
G01 X0.1590 Y11.3310
G01 X5.8410 Y11.3310
G01 X5.8350 Y11.3610
G01 X0.1650 Y11.3610
G01 X0.1709 Y11.3910
G01 X5.8291 Y11.3910
G01 X5.8231 Y11.4210
G01 X0.1769 Y11.4210
G01 X0.1829 Y11.4510
G01 X5.8171 Y11.4510
G01 X5.8112 Y11.4810
G01 X0.1888 Y11.4810
G01 X0.1948 Y11.5110
G01 X5.8052 Y11.5110
G01 X5.7992 Y11.5410
G01 X0.2008 Y11.5410
G01 X0.2067 Y11.5710
G01 X5.7933 Y11.5710
G01 X5.7873 Y11.6010
G01 X0.2127 Y11.6010
G01 X0.2187 Y11.6310
G01 X5.7813 Y11.6310
G01 X5.7754 Y11.6610
G01 X0.2246 Y11.6610
G01 X0.2306 Y11.6910
G01 X5.7694 Y11.6910
G01 X5.7634 Y11.7210
G01 X0.2366 Y11.7210
G01 X0.2425 Y11.7510
G01 X5.7575 Y11.7510
G01 X5.7515 Y11.7810
G01 X0.2485 Y11.7810
G01 X0.2545 Y11.8110
G01 X5.7455 Y11.8110
G01 X5.7375 Y11.8410
G01 X0.2625 Y11.8410
G01 X0.2749 Y11.8710
G01 X5.7251 Y11.8710
G01 X5.7127 Y11.9010
G01 X0.2873 Y11.9010
G01 X0.2997 Y11.9310
G01 X5.7003 Y11.9310
G01 X5.6878 Y11.9610
G01 X0.3122 Y11.9610
G01 X0.3246 Y11.9910
G01 X5.6754 Y11.9910
G01 X5.6630 Y12.0210
G01 X0.3370 Y12.0210
G01 X0.3494 Y12.0510
G01 X5.6506 Y12.0510
G01 X5.6381 Y12.0810
G01 X0.3619 Y12.0810
G01 X0.3743 Y12.1110
G01 X5.6257 Y12.1110
G01 X5.6133 Y12.1410
G01 X0.3867 Y12.1410
G01 X0.3991 Y12.1710
G01 X5.6009 Y12.1710
G01 X5.5884 Y12.2010
G01 X0.4116 Y12.2010
G01 X0.4240 Y12.2310
G01 X5.5760 Y12.2310
G01 X5.5636 Y12.2610
G01 X0.4364 Y12.2610
G01 X0.4488 Y12.2910
G01 X5.5512 Y12.2910
G01 X5.5387 Y12.3210
G01 X0.4613 Y12.3210
G01 X0.4738 Y12.3510
G01 X5.5262 Y12.3510
G01 X5.5061 Y12.3810
G01 X0.4939 Y12.3810
G01 X0.5139 Y12.4110
G01 X5.4861 Y12.4110
G01 X5.4660 Y12.4410
G01 X0.5340 Y12.4410
G01 X0.5540 Y12.4710
G01 X5.4460 Y12.4710
G01 X5.4259 Y12.5010
G01 X0.5741 Y12.5010
G01 X0.5941 Y12.5310
G01 X5.4059 Y12.5310
G01 X5.3858 Y12.5610
G01 X0.6142 Y12.5610
G01 X0.6342 Y12.5910
G01 X5.3658 Y12.5910
G01 X5.3458 Y12.6210
G01 X0.6542 Y12.6210
G01 X0.6743 Y12.6510
G01 X5.3257 Y12.6510
G01 X5.3057 Y12.6810
G01 X0.6943 Y12.6810
G00 Z2.0000
G00 X0.7144 Y12.7110
G01 F800.00
G01 Z-0.0001
G01 F350.00
G01 X5.2856 Y12.7110
G01 X5.2656 Y12.7410
G01 X0.7344 Y12.7410
G01 X0.7545 Y12.7710
G01 X5.2455 Y12.7710
G01 X5.2255 Y12.8010
G01 X0.7745 Y12.8010
G01 X0.7991 Y12.8310
G01 X5.2009 Y12.8310
G01 X5.1709 Y12.8610
G01 X0.8291 Y12.8610
G01 X0.8591 Y12.8910
G01 X5.1409 Y12.8910
G01 X5.1109 Y12.9210
G01 X0.8891 Y12.9210
G01 X0.9191 Y12.9510
G01 X5.0809 Y12.9510
G01 X5.0509 Y12.9810
G01 X0.9491 Y12.9810
G01 X0.9791 Y13.0110
G01 X5.0209 Y13.0110
G01 X4.9909 Y13.0410
G01 X1.0091 Y13.0410
G01 X1.0391 Y13.0710
G01 X4.9609 Y13.0710
G01 X4.9309 Y13.1010
G01 X1.0691 Y13.1010
G01 X1.0991 Y13.1310
G01 X4.9009 Y13.1310
G01 X4.8709 Y13.1610
G01 X1.1291 Y13.1610
G01 X1.1591 Y13.1910
G01 X4.8409 Y13.1910
G01 X4.8077 Y13.2210
G01 X1.1923 Y13.2210
G01 X1.2372 Y13.2510
G01 X4.7628 Y13.2510
G01 X4.7179 Y13.2810
G01 X1.2821 Y13.2810
G01 X1.3270 Y13.3110
G01 X4.6730 Y13.3110
G01 X4.6281 Y13.3410
G01 X1.3719 Y13.3410
G01 X1.4168 Y13.3710
G01 X4.5832 Y13.3710
G01 X4.5383 Y13.4010
G01 X1.4617 Y13.4010
G01 X1.5066 Y13.4310
G01 X4.4934 Y13.4310
G01 X4.4485 Y13.4610
G01 X1.5515 Y13.4610
G01 X1.5964 Y13.4910
G01 X4.4036 Y13.4910
G01 X4.3587 Y13.5210
G01 X1.6413 Y13.5210
G01 X1.7086 Y13.5510
G01 X4.2914 Y13.5510
G01 X4.2189 Y13.5810
G01 X1.7811 Y13.5810
G01 X1.8535 Y13.6110
G01 X4.1465 Y13.6110
G01 X4.0741 Y13.6410
G01 X1.9259 Y13.6410
G01 X1.9983 Y13.6710
G01 X4.0017 Y13.6710
G01 X3.9292 Y13.7010
G01 X2.0708 Y13.7010
G01 X2.1432 Y13.7310
G01 X3.8568 Y13.7310
G01 X3.8316 Y13.7414
G01 X4.3505 Y13.5265
G01 X4.8174 Y13.2145
G01 X5.2145 Y12.8174
G01 X5.5265 Y12.3505
G01 X5.7414 Y11.8316
G01 X5.8510 Y11.2808
G01 X5.8510 Y10.7192
G01 X5.7414 Y10.1684
G01 X5.5265 Y9.6495
G01 X5.2145 Y9.1826
G01 X4.8174 Y8.7855
G01 X4.3505 Y8.4735
G01 X3.8316 Y8.2586
G01 X3.2808 Y8.1490
G01 X2.7192 Y8.1490
G01 X2.1684 Y8.2586
G01 X1.6495 Y8.4735
G01 X1.1826 Y8.7855
G01 X0.7855 Y9.1826
G01 X0.4735 Y9.6495
G01 X0.2586 Y10.1684
G01 X0.1490 Y10.7192
G01 X0.1490 Y11.2808
G01 X0.2586 Y11.8316
G01 X0.4735 Y12.3505
G01 X0.7855 Y12.8174
G01 X1.1826 Y13.2145
G01 X1.6495 Y13.5265
G01 X2.1684 Y13.7414
G01 X2.7192 Y13.8510
G01 X3.2808 Y13.8510
G01 X3.8316 Y13.7414
G01 X3.7333 Y13.7610
G01 X2.2667 Y13.7610
G01 X2.4176 Y13.7910
G01 X3.5824 Y13.7910
G01 X3.4316 Y13.8210
G01 X2.5684 Y13.8210
G00 Z2.0000
G00 X2.2567 Y8.2410
G01 F800.00
G01 Z-0.0001
G01 F350.00
G01 X3.7433 Y8.2410
G01 X3.5925 Y8.2110
G01 X2.4075 Y8.2110
G01 X2.5583 Y8.1810
G01 X3.4417 Y8.1810
G01 X3.2909 Y8.1510
G01 X2.7091 Y8.1510
G00 Z2.0000
G00 X9.4246 Y8.3354
G01 F800.00
G01 Z-0.0001
G01 F350.00
G01 X11.4078 Y8.3354
G01 X11.4078 Y8.3146
G01 X9.4246 Y8.3146
G01 X9.4246 Y8.8754
G01 X11.4078 Y8.8754
G01 X11.4078 Y8.3146
G01 X11.4078 Y8.3654
G01 X9.4246 Y8.3654
G01 X9.4246 Y8.3954
G01 X11.4078 Y8.3954
G01 X11.4078 Y8.4254
G01 X9.4246 Y8.4254
G01 X9.4246 Y8.4554
G01 X11.4078 Y8.4554
G01 X11.4078 Y8.4854
G01 X9.4246 Y8.4854
G01 X9.4246 Y8.5154
G01 X11.4078 Y8.5154
G01 X11.4078 Y8.5454
G01 X9.4246 Y8.5454
G01 X9.4246 Y8.5754
G01 X11.4078 Y8.5754
G01 X11.4078 Y8.6054
G01 X9.4246 Y8.6054
G01 X9.4246 Y8.6354
G01 X11.4078 Y8.6354
G01 X11.4078 Y8.6654
G01 X9.4246 Y8.6654
G01 X9.4246 Y8.6954
G01 X11.4078 Y8.6954
G01 X11.4078 Y8.7254
G01 X9.4246 Y8.7254
G01 X9.4246 Y8.7554
G01 X11.4078 Y8.7554
G01 X11.4078 Y8.7854
G01 X9.4246 Y8.7854
G01 X9.4246 Y8.8154
G01 X11.4078 Y8.8154
G01 X11.4078 Y8.8454
G01 X9.4246 Y8.8454
G00 Z2.0000
G00 X9.4246 Y9.6054
G01 F800.00
G01 Z-0.0001
G01 F350.00
G01 X11.4078 Y9.6054
G01 X11.4078 Y9.5846
G01 X9.4246 Y9.5846
G01 X9.4246 Y10.1454
G01 X11.4078 Y10.1454
G01 X11.4078 Y9.5846
G01 X11.4078 Y9.6354
G01 X9.4246 Y9.6354
G01 X9.4246 Y9.6654
G01 X11.4078 Y9.6654
G01 X11.4078 Y9.6954
G01 X9.4246 Y9.6954
G01 X9.4246 Y9.7254
G01 X11.4078 Y9.7254
G01 X11.4078 Y9.7554
G01 X9.4246 Y9.7554
G01 X9.4246 Y9.7854
G01 X11.4078 Y9.7854
G01 X11.4078 Y9.8154
G01 X9.4246 Y9.8154
G01 X9.4246 Y9.8454
G01 X11.4078 Y9.8454
G01 X11.4078 Y9.8754
G01 X9.4246 Y9.8754
G01 X9.4246 Y9.9054
G01 X11.4078 Y9.9054
G01 X11.4078 Y9.9354
G01 X9.4246 Y9.9354
G01 X9.4246 Y9.9654
G01 X11.4078 Y9.9654
G01 X11.4078 Y9.9954
G01 X9.4246 Y9.9954
G01 X9.4246 Y10.0254
G01 X11.4078 Y10.0254
G01 X11.4078 Y10.0554
G01 X9.4246 Y10.0554
G01 X9.4246 Y10.0854
G01 X11.4078 Y10.0854
G01 X11.4078 Y10.1154
G01 X9.4246 Y10.1154
G00 Z2.0000
G00 X9.4246 Y10.8754
G01 F800.00
G01 Z-0.0001
G01 F350.00
G01 X11.4078 Y10.8754
G01 X11.4078 Y10.8546
G01 X9.4246 Y10.8546
G01 X9.4246 Y11.4154
G01 X11.4078 Y11.4154
G01 X11.4078 Y10.8546
G01 X11.4078 Y10.9054
G01 X9.4246 Y10.9054
G01 X9.4246 Y10.9354
G01 X11.4078 Y10.9354
G01 X11.4078 Y10.9654
G01 X9.4246 Y10.9654
G01 X9.4246 Y10.9954
G01 X11.4078 Y10.9954
G01 X11.4078 Y11.0254
G01 X9.4246 Y11.0254
G01 X9.4246 Y11.0554
G01 X11.4078 Y11.0554
G01 X11.4078 Y11.0854
G01 X9.4246 Y11.0854
G01 X9.4246 Y11.1154
G01 X11.4078 Y11.1154
G01 X11.4078 Y11.1454
G01 X9.4246 Y11.1454
G01 X9.4246 Y11.1754
G01 X11.4078 Y11.1754
G01 X11.4078 Y11.2054
G01 X9.4246 Y11.2054
G01 X9.4246 Y11.2354
G01 X11.4078 Y11.2354
G01 X11.4078 Y11.2654
G01 X9.4246 Y11.2654
G01 X9.4246 Y11.2954
G01 X11.4078 Y11.2954
G01 X11.4078 Y11.3254
G01 X9.4246 Y11.3254
G01 X9.4246 Y11.3554
G01 X11.4078 Y11.3554
G01 X11.4078 Y11.3854
G01 X9.4246 Y11.3854
G00 Z2.0000
G00 X9.4246 Y12.1454
G01 F800.00
G01 Z-0.0001
G01 F350.00
G01 X11.4078 Y12.1454
G01 X11.4078 Y12.1246
G01 X9.4246 Y12.1246
G01 X9.4246 Y12.6854
G01 X11.4078 Y12.6854
G01 X11.4078 Y12.1246
G01 X11.4078 Y12.1754
G01 X9.4246 Y12.1754
G01 X9.4246 Y12.2054
G01 X11.4078 Y12.2054
G01 X11.4078 Y12.2354
G01 X9.4246 Y12.2354
G01 X9.4246 Y12.2654
G01 X11.4078 Y12.2654
G01 X11.4078 Y12.2954
G01 X9.4246 Y12.2954
G01 X9.4246 Y12.3254
G01 X11.4078 Y12.3254
G01 X11.4078 Y12.3554
G01 X9.4246 Y12.3554
G01 X9.4246 Y12.3854
G01 X11.4078 Y12.3854
G01 X11.4078 Y12.4154
G01 X9.4246 Y12.4154
G01 X9.4246 Y12.4454
G01 X11.4078 Y12.4454
G01 X11.4078 Y12.4754
G01 X9.4246 Y12.4754
G01 X9.4246 Y12.5054
G01 X11.4078 Y12.5054
G01 X11.4078 Y12.5354
G01 X9.4246 Y12.5354
G01 X9.4246 Y12.5654
G01 X11.4078 Y12.5654
G01 X11.4078 Y12.5954
G01 X9.4246 Y12.5954
G01 X9.4246 Y12.6254
G01 X11.4078 Y12.6254
G01 X11.4078 Y12.6554
G01 X9.4246 Y12.6554
G00 Z2.0000
G00 X11.0793 Y16.5410
G01 F800.00
G01 Z-0.0001
G01 F350.00
G01 X12.0207 Y16.5410
G01 X11.9758 Y16.5110
G01 X11.1242 Y16.5110
G01 X11.1828 Y16.4810
G01 X11.9172 Y16.4810
G01 X11.8448 Y16.4510
G01 X11.2552 Y16.4510
G01 X11.3556 Y16.4210
G01 X11.7444 Y16.4210
G01 X12.0656 Y16.5710
G01 X11.0344 Y16.5710
G01 X10.9955 Y16.6010
G01 X12.1045 Y16.6010
G01 X12.1345 Y16.6310
G01 X10.9655 Y16.6310
G01 X10.9355 Y16.6610
G01 X12.1645 Y16.6610
G01 X12.1945 Y16.6910
G01 X10.9055 Y16.6910
G01 X10.8800 Y16.7210
G01 X12.2200 Y16.7210
G01 X12.2401 Y16.7510
G01 X10.8599 Y16.7510
G01 X10.8399 Y16.7810
G01 X12.2601 Y16.7810
G01 X12.2802 Y16.8110
G01 X10.8198 Y16.8110
G01 X10.7998 Y16.8410
G01 X12.3002 Y16.8410
G01 X12.3141 Y16.8710
G01 X10.7859 Y16.8710
G01 X10.7734 Y16.9010
G01 X12.3266 Y16.9010
G01 X12.3390 Y16.9310
G01 X10.7610 Y16.9310
G01 X10.7486 Y16.9610
G01 X12.3514 Y16.9610
G01 X12.3638 Y16.9910
G01 X10.7362 Y16.9910
G01 X10.7279 Y17.0210
G01 X12.3721 Y17.0210
G01 X12.3781 Y17.0510
G01 X10.7219 Y17.0510
G01 X10.7159 Y17.0810
G01 X12.3841 Y17.0810
G01 X12.3900 Y17.1110
G01 X10.7100 Y17.1110
G01 X10.7040 Y17.1410
G01 X12.3960 Y17.1410
G01 X12.4010 Y17.1710
G01 X10.6990 Y17.1710
G01 X10.6990 Y17.2010
G01 X12.4010 Y17.2010
G01 X12.4010 Y17.2310
G01 X10.6990 Y17.2310
G01 X10.6990 Y17.2610
G01 X12.4010 Y17.2610
G01 X12.4010 Y17.2910
G01 X10.6990 Y17.2910
G01 X10.6990 Y17.3210
G01 X12.4010 Y17.3210
G01 X12.3976 Y17.3510
G01 X10.7024 Y17.3510
G01 X10.7084 Y17.3810
G01 X12.3916 Y17.3810
G01 X12.3856 Y17.4110
G01 X10.7144 Y17.4110
G01 X10.7203 Y17.4410
G01 X12.3797 Y17.4410
G01 X12.3737 Y17.4710
G01 X10.7263 Y17.4710
G01 X10.7329 Y17.5010
G01 X12.3671 Y17.5010
G01 X12.3547 Y17.5310
G01 X10.7453 Y17.5310
G01 X10.7577 Y17.5610
G01 X12.3423 Y17.5610
G01 X12.3299 Y17.5910
G01 X10.7701 Y17.5910
G01 X10.7826 Y17.6210
G01 X12.3174 Y17.6210
G01 X12.3050 Y17.6510
G01 X10.7950 Y17.6510
G01 X10.8145 Y17.6810
G01 X12.2855 Y17.6810
G01 X12.2655 Y17.7110
G01 X10.8345 Y17.7110
G01 X10.8546 Y17.7410
G01 X12.2454 Y17.7410
G01 X12.2254 Y17.7710
G01 X10.8746 Y17.7710
G01 X10.8975 Y17.8010
G01 X12.2025 Y17.8010
G01 X12.1725 Y17.8310
G01 X10.9275 Y17.8310
G01 X10.9575 Y17.8610
G01 X12.1425 Y17.8610
G01 X12.1125 Y17.8910
G01 X10.9875 Y17.8910
G01 X11.0225 Y17.9210
G01 X12.0775 Y17.9210
G01 X12.0326 Y17.9510
G01 X11.0674 Y17.9510
G01 X11.1123 Y17.9810
G01 X11.9877 Y17.9810
G01 X11.9366 Y18.0110
G01 X11.1634 Y18.0110
G01 X11.2359 Y18.0410
G01 X11.8641 Y18.0410
G01 X11.7846 Y18.0710
G01 X11.3154 Y18.0710
G01 X11.4462 Y18.0970
G01 X11.4662 Y18.1010
G01 X11.6338 Y18.1010
G01 X11.7982 Y18.0683
G01 X11.9531 Y18.0041
G01 X12.0925 Y17.9110
G01 X12.2110 Y17.7925
G01 X12.3041 Y17.6531
G01 X12.3683 Y17.4982
G01 X12.4010 Y17.3338
G01 X12.4010 Y17.1662
G01 X12.3683 Y17.0018
G01 X12.3041 Y16.8469
G01 X12.2110 Y16.7075
G01 X12.0925 Y16.5890
G01 X11.9531 Y16.4959
G01 X11.7982 Y16.4317
G01 X11.6338 Y16.3990
G01 X11.4662 Y16.3990
G01 X11.3018 Y16.4317
G01 X11.1469 Y16.4959
G01 X11.0075 Y16.5890
G01 X10.8890 Y16.7075
G01 X10.7959 Y16.8469
G01 X10.7317 Y17.0018
G01 X10.6990 Y17.1662
G01 X10.6990 Y17.3338
G01 X10.7317 Y17.4982
G01 X10.7959 Y17.6531
G01 X10.8890 Y17.7925
G01 X11.0075 Y17.9110
G01 X11.1469 Y18.0041
G01 X11.3018 Y18.0683
G01 X11.4462 Y18.0970
G00 Z2.0000
G00 X13.9862 Y18.0970
G01 F800.00
G01 Z-0.0001
G01 F350.00
G01 X13.8418 Y18.0683
G01 X13.6869 Y18.0041
G01 X13.5475 Y17.9110
G01 X13.4290 Y17.7925
G01 X13.3359 Y17.6531
G01 X13.2717 Y17.4982
G01 X13.2390 Y17.3338
G01 X13.2390 Y17.1662
G01 X13.2717 Y17.0018
G01 X13.3359 Y16.8469
G01 X13.4290 Y16.7075
G01 X13.5475 Y16.5890
G01 X13.6869 Y16.4959
G01 X13.8418 Y16.4317
G01 X14.0062 Y16.3990
G01 X14.1738 Y16.3990
G01 X14.3382 Y16.4317
G01 X14.4931 Y16.4959
G01 X14.6325 Y16.5890
G01 X14.7510 Y16.7075
G01 X14.8441 Y16.8469
G01 X14.9083 Y17.0018
G01 X14.9410 Y17.1662
G01 X14.9410 Y17.3338
G01 X14.9083 Y17.4982
G01 X14.8441 Y17.6531
G01 X14.7510 Y17.7925
G01 X14.6325 Y17.9110
G01 X14.4931 Y18.0041
G01 X14.3382 Y18.0683
G01 X14.1738 Y18.1010
G01 X14.0062 Y18.1010
G01 X13.8554 Y18.0710
G01 X14.3246 Y18.0710
G01 X14.4041 Y18.0410
G01 X13.7759 Y18.0410
G01 X13.7034 Y18.0110
G01 X14.4766 Y18.0110
G01 X14.5277 Y17.9810
G01 X13.6523 Y17.9810
G01 X13.6074 Y17.9510
G01 X14.5726 Y17.9510
G01 X14.6175 Y17.9210
G01 X13.5625 Y17.9210
G01 X13.5275 Y17.8910
G01 X14.6525 Y17.8910
G01 X14.6825 Y17.8610
G01 X13.4975 Y17.8610
G01 X13.4675 Y17.8310
G01 X14.7125 Y17.8310
G01 X14.7425 Y17.8010
G01 X13.4375 Y17.8010
G01 X13.4146 Y17.7710
G01 X14.7654 Y17.7710
G01 X14.7854 Y17.7410
G01 X13.3946 Y17.7410
G01 X13.3745 Y17.7110
G01 X14.8055 Y17.7110
G01 X14.8255 Y17.6810
G01 X13.3545 Y17.6810
G01 X13.3350 Y17.6510
G01 X14.8450 Y17.6510
G01 X14.8574 Y17.6210
G01 X13.3226 Y17.6210
G01 X13.3101 Y17.5910
G01 X14.8699 Y17.5910
G01 X14.8823 Y17.5610
G01 X13.2977 Y17.5610
G01 X13.2853 Y17.5310
G01 X14.8947 Y17.5310
G01 X14.9071 Y17.5010
G01 X13.2729 Y17.5010
G01 X13.2663 Y17.4710
G01 X14.9137 Y17.4710
G01 X14.9197 Y17.4410
G01 X13.2603 Y17.4410
G01 X13.2544 Y17.4110
G01 X14.9256 Y17.4110
G01 X14.9316 Y17.3810
G01 X13.2484 Y17.3810
G01 X13.2424 Y17.3510
G01 X14.9376 Y17.3510
G01 X14.9410 Y17.3210
G01 X13.2390 Y17.3210
G01 X13.2390 Y17.2910
G01 X14.9410 Y17.2910
G01 X14.9410 Y17.2610
G01 X13.2390 Y17.2610
G01 X13.2390 Y17.2310
G01 X14.9410 Y17.2310
G01 X14.9410 Y17.2010
G01 X13.2390 Y17.2010
G01 X13.2390 Y17.1710
G01 X14.9410 Y17.1710
G01 X14.9360 Y17.1410
G01 X13.2440 Y17.1410
G01 X13.2500 Y17.1110
G01 X14.9300 Y17.1110
G01 X14.9241 Y17.0810
G01 X13.2559 Y17.0810
G01 X13.2619 Y17.0510
G01 X14.9181 Y17.0510
G01 X14.9121 Y17.0210
G01 X13.2679 Y17.0210
G01 X13.2762 Y16.9910
G01 X14.9038 Y16.9910
G01 X14.8914 Y16.9610
G01 X13.2886 Y16.9610
G01 X13.3010 Y16.9310
G01 X14.8790 Y16.9310
G01 X14.8666 Y16.9010
G01 X13.3134 Y16.9010
G01 X13.3259 Y16.8710
G01 X14.8541 Y16.8710
G01 X14.8402 Y16.8410
G01 X13.3398 Y16.8410
G01 X13.3598 Y16.8110
G01 X14.8202 Y16.8110
G01 X14.8001 Y16.7810
G01 X13.3799 Y16.7810
G01 X13.3999 Y16.7510
G01 X14.7801 Y16.7510
G01 X14.7600 Y16.7210
G01 X13.4200 Y16.7210
G01 X13.4455 Y16.6910
G01 X14.7345 Y16.6910
G01 X14.7045 Y16.6610
G01 X13.4755 Y16.6610
G01 X13.5055 Y16.6310
G01 X14.6745 Y16.6310
G01 X14.6445 Y16.6010
G01 X13.5355 Y16.6010
G00 Z2.0000
G00 X13.5744 Y16.5710
G01 F800.00
G01 Z-0.0001
G01 F350.00
G01 X14.6056 Y16.5710
G01 X14.5607 Y16.5410
G01 X13.6193 Y16.5410
G01 X13.6642 Y16.5110
G01 X14.5158 Y16.5110
G01 X14.4572 Y16.4810
G01 X13.7228 Y16.4810
G01 X13.7952 Y16.4510
G01 X14.3848 Y16.4510
G01 X14.2844 Y16.4210
G01 X13.8956 Y16.4210
G00 Z2.0000
G00 X16.0755 Y16.6010
G01 F800.00
G01 Z-0.0001
G01 F350.00
G01 X17.1845 Y16.6010
G01 X17.2145 Y16.6310
G01 X16.0455 Y16.6310
G01 X16.0155 Y16.6610
G01 X17.2445 Y16.6610
G01 X17.2745 Y16.6910
G01 X15.9855 Y16.6910
G01 X15.9600 Y16.7210
G01 X17.3000 Y16.7210
G01 X17.3201 Y16.7510
G01 X15.9399 Y16.7510
G01 X15.9199 Y16.7810
G01 X17.3401 Y16.7810
G01 X17.3602 Y16.8110
G01 X15.8998 Y16.8110
G01 X15.8798 Y16.8410
G01 X17.3802 Y16.8410
G01 X17.3941 Y16.8710
G01 X15.8659 Y16.8710
G01 X15.8534 Y16.9010
G01 X17.4066 Y16.9010
G01 X17.4190 Y16.9310
G01 X15.8410 Y16.9310
G01 X15.8286 Y16.9610
G01 X17.4314 Y16.9610
G01 X17.4438 Y16.9910
G01 X15.8162 Y16.9910
G01 X15.8079 Y17.0210
G01 X17.4521 Y17.0210
G01 X17.4581 Y17.0510
G01 X15.8019 Y17.0510
G01 X15.7959 Y17.0810
G01 X17.4641 Y17.0810
G01 X17.4700 Y17.1110
G01 X15.7900 Y17.1110
G01 X15.7840 Y17.1410
G01 X17.4760 Y17.1410
G01 X17.4810 Y17.1710
G01 X15.7790 Y17.1710
G01 X15.7790 Y17.2010
G01 X17.4810 Y17.2010
G01 X17.4810 Y17.2310
G01 X15.7790 Y17.2310
G01 X15.7790 Y17.2610
G01 X17.4810 Y17.2610
G01 X17.4810 Y17.2910
G01 X15.7790 Y17.2910
G01 X15.7790 Y17.3210
G01 X17.4810 Y17.3210
G01 X17.4776 Y17.3510
G01 X15.7824 Y17.3510
G01 X15.7884 Y17.3810
G01 X17.4716 Y17.3810
G01 X17.4656 Y17.4110
G01 X15.7944 Y17.4110
G01 X15.8003 Y17.4410
G01 X17.4597 Y17.4410
G01 X17.4537 Y17.4710
G01 X15.8063 Y17.4710
G01 X15.8129 Y17.5010
G01 X17.4471 Y17.5010
G01 X17.4347 Y17.5310
G01 X15.8253 Y17.5310
G01 X15.8377 Y17.5610
G01 X17.4223 Y17.5610
G01 X17.4099 Y17.5910
G01 X15.8501 Y17.5910
G01 X15.8626 Y17.6210
G01 X17.3974 Y17.6210
G01 X17.3850 Y17.6510
G01 X15.8750 Y17.6510
G01 X15.8945 Y17.6810
G01 X17.3655 Y17.6810
G01 X17.3455 Y17.7110
G01 X15.9145 Y17.7110
G01 X15.9346 Y17.7410
G01 X17.3254 Y17.7410
G01 X17.3054 Y17.7710
G01 X15.9546 Y17.7710
G01 X15.9775 Y17.8010
G01 X17.2825 Y17.8010
G01 X17.2525 Y17.8310
G01 X16.0075 Y17.8310
G01 X16.0375 Y17.8610
G01 X17.2225 Y17.8610
G01 X17.1925 Y17.8910
G01 X16.0675 Y17.8910
G01 X16.1025 Y17.9210
G01 X17.1575 Y17.9210
G01 X17.1126 Y17.9510
G01 X16.1474 Y17.9510
G01 X16.1923 Y17.9810
G01 X17.0677 Y17.9810
G01 X17.0166 Y18.0110
G01 X16.2434 Y18.0110
G01 X16.3159 Y18.0410
G01 X16.9441 Y18.0410
G01 X16.8646 Y18.0710
G01 X16.3954 Y18.0710
G01 X16.5262 Y18.0970
G01 X16.5462 Y18.1010
G01 X16.7138 Y18.1010
G01 X16.8782 Y18.0683
G01 X17.0331 Y18.0041
G01 X17.1725 Y17.9110
G01 X17.2910 Y17.7925
G01 X17.3841 Y17.6531
G01 X17.4483 Y17.4982
G01 X17.4810 Y17.3338
G01 X17.4810 Y17.1662
G01 X17.4483 Y17.0018
G01 X17.3841 Y16.8469
G01 X17.2910 Y16.7075
G01 X17.1725 Y16.5890
G01 X17.0331 Y16.4959
G01 X16.8782 Y16.4317
G01 X16.7138 Y16.3990
G01 X16.5462 Y16.3990
G01 X16.3818 Y16.4317
G01 X16.2269 Y16.4959
G01 X16.0875 Y16.5890
G01 X15.9690 Y16.7075
G01 X15.8759 Y16.8469
G01 X15.8117 Y17.0018
G01 X15.7790 Y17.1662
G01 X15.7790 Y17.3338
G01 X15.8117 Y17.4982
G01 X15.8759 Y17.6531
G01 X15.9690 Y17.7925
G01 X16.0875 Y17.9110
G01 X16.2269 Y18.0041
G01 X16.3818 Y18.0683
G01 X16.5262 Y18.0970
G00 Z2.0000
G00 X16.1144 Y16.5710
G01 F800.00
G01 Z-0.0001
G01 F350.00
G01 X17.1456 Y16.5710
G01 X17.1007 Y16.5410
G01 X16.1593 Y16.5410
G01 X16.2042 Y16.5110
G01 X17.0558 Y16.5110
G01 X16.9972 Y16.4810
G01 X16.2628 Y16.4810
G01 X16.3352 Y16.4510
G01 X16.9248 Y16.4510
G01 X16.8244 Y16.4210
G01 X16.4356 Y16.4210
G00 Z2.0000
G00 X18.5255 Y16.6910
G01 F800.00
G01 Z-0.0001
G01 F350.00
G01 X19.8145 Y16.6910
G01 X19.8400 Y16.7210
G01 X18.5000 Y16.7210
G01 X18.4799 Y16.7510
G01 X19.8601 Y16.7510
G01 X19.8801 Y16.7810
G01 X18.4599 Y16.7810
G01 X18.4398 Y16.8110
G01 X19.9002 Y16.8110
G01 X19.9202 Y16.8410
G01 X18.4198 Y16.8410
G01 X18.4059 Y16.8710
G01 X19.9341 Y16.8710
G01 X19.9466 Y16.9010
G01 X18.3934 Y16.9010
G01 X18.3810 Y16.9310
G01 X19.9590 Y16.9310
G01 X19.9714 Y16.9610
G01 X18.3686 Y16.9610
G01 X18.3562 Y16.9910
G01 X19.9838 Y16.9910
G01 X19.9921 Y17.0210
G01 X18.3479 Y17.0210
G01 X18.3419 Y17.0510
G01 X19.9981 Y17.0510
G01 X20.0041 Y17.0810
G01 X18.3359 Y17.0810
G01 X18.3300 Y17.1110
G01 X20.0100 Y17.1110
G01 X20.0160 Y17.1410
G01 X18.3240 Y17.1410
G01 X18.3190 Y17.1710
G01 X20.0210 Y17.1710
G01 X20.0210 Y17.2010
G01 X18.3190 Y17.2010
G01 X18.3190 Y17.2310
G01 X20.0210 Y17.2310
G01 X20.0210 Y17.2610
G01 X18.3190 Y17.2610
G01 X18.3190 Y17.2910
G01 X20.0210 Y17.2910
G01 X20.0210 Y17.3210
G01 X18.3190 Y17.3210
G01 X18.3224 Y17.3510
G01 X20.0176 Y17.3510
G01 X20.0116 Y17.3810
G01 X18.3284 Y17.3810
G01 X18.3344 Y17.4110
G01 X20.0056 Y17.4110
G01 X19.9997 Y17.4410
G01 X18.3403 Y17.4410
G01 X18.3463 Y17.4710
G01 X19.9937 Y17.4710
G01 X19.9871 Y17.5010
G01 X18.3529 Y17.5010
G01 X18.3653 Y17.5310
G01 X19.9747 Y17.5310
G01 X19.9623 Y17.5610
G01 X18.3777 Y17.5610
G01 X18.3901 Y17.5910
G01 X19.9499 Y17.5910
G01 X19.9374 Y17.6210
G01 X18.4026 Y17.6210
G01 X18.4150 Y17.6510
G01 X19.9250 Y17.6510
G01 X19.9055 Y17.6810
G01 X18.4345 Y17.6810
G01 X18.4545 Y17.7110
G01 X19.8855 Y17.7110
G01 X19.8654 Y17.7410
G01 X18.4746 Y17.7410
G01 X18.4946 Y17.7710
G01 X19.8454 Y17.7710
G01 X19.8225 Y17.8010
G01 X18.5175 Y17.8010
G01 X18.5475 Y17.8310
G01 X19.7925 Y17.8310
G01 X19.7625 Y17.8610
G01 X18.5775 Y17.8610
G01 X18.6075 Y17.8910
G01 X19.7325 Y17.8910
G01 X19.6975 Y17.9210
G01 X18.6425 Y17.9210
G01 X18.6874 Y17.9510
G01 X19.6526 Y17.9510
G01 X19.6077 Y17.9810
G01 X18.7323 Y17.9810
G01 X18.7834 Y18.0110
G01 X19.5566 Y18.0110
G01 X19.4841 Y18.0410
G01 X18.8559 Y18.0410
G01 X18.9354 Y18.0710
G01 X19.4046 Y18.0710
G01 X19.0662 Y18.0970
G01 X19.0862 Y18.1010
G01 X19.2538 Y18.1010
G01 X19.4182 Y18.0683
G01 X19.5731 Y18.0041
G01 X19.7125 Y17.9110
G01 X19.8310 Y17.7925
G01 X19.9241 Y17.6531
G01 X19.9883 Y17.4982
G01 X20.0210 Y17.3338
G01 X20.0210 Y17.1662
G01 X19.9883 Y17.0018
G01 X19.9241 Y16.8469
G01 X19.8310 Y16.7075
G01 X19.7125 Y16.5890
G01 X19.5731 Y16.4959
G01 X19.4182 Y16.4317
G01 X19.2538 Y16.3990
G01 X19.0862 Y16.3990
G01 X18.9218 Y16.4317
G01 X18.7669 Y16.4959
G01 X18.6275 Y16.5890
G01 X18.5090 Y16.7075
G01 X18.4159 Y16.8469
G01 X18.3517 Y17.0018
G01 X18.3190 Y17.1662
G01 X18.3190 Y17.3338
G01 X18.3517 Y17.4982
G01 X18.4159 Y17.6531
G01 X18.5090 Y17.7925
G01 X18.6275 Y17.9110
G01 X18.7669 Y18.0041
G01 X18.9218 Y18.0683
G01 X19.0662 Y18.0970
G00 Z2.0000
G00 X18.5555 Y16.6610
G01 F800.00
G01 Z-0.0001
G01 F350.00
G01 X19.7845 Y16.6610
G01 X19.7545 Y16.6310
G01 X18.5855 Y16.6310
G01 X18.6155 Y16.6010
G01 X19.7245 Y16.6010
G01 X19.6856 Y16.5710
G01 X18.6544 Y16.5710
G01 X18.6993 Y16.5410
G01 X19.6407 Y16.5410
G01 X19.5958 Y16.5110
G01 X18.7442 Y16.5110
G01 X18.8028 Y16.4810
G01 X19.5372 Y16.4810
G01 X19.4648 Y16.4510
G01 X18.8752 Y16.4510
G01 X18.9756 Y16.4210
G01 X19.3644 Y16.4210
G00 Z2.0000
G00 X21.0400 Y16.7210
G01 F800.00
G01 Z-0.0001
G01 F350.00
G01 X22.3800 Y16.7210
G01 X22.4001 Y16.7510
G01 X21.0199 Y16.7510
G01 X20.9999 Y16.7810
G01 X22.4201 Y16.7810
G01 X22.4402 Y16.8110
G01 X20.9798 Y16.8110
G01 X20.9598 Y16.8410
G01 X22.4602 Y16.8410
G01 X22.4741 Y16.8710
G01 X20.9459 Y16.8710
G01 X20.9334 Y16.9010
G01 X22.4866 Y16.9010
G01 X22.4990 Y16.9310
G01 X20.9210 Y16.9310
G01 X20.9086 Y16.9610
G01 X22.5114 Y16.9610
G01 X22.5238 Y16.9910
G01 X20.8962 Y16.9910
G01 X20.8879 Y17.0210
G01 X22.5321 Y17.0210
G01 X22.5381 Y17.0510
G01 X20.8819 Y17.0510
G01 X20.8759 Y17.0810
G01 X22.5441 Y17.0810
G01 X22.5500 Y17.1110
G01 X20.8700 Y17.1110
G01 X20.8640 Y17.1410
G01 X22.5560 Y17.1410
G01 X22.5610 Y17.1710
G01 X20.8590 Y17.1710
G01 X20.8590 Y17.2010
G01 X22.5610 Y17.2010
G01 X22.5610 Y17.2310
G01 X20.8590 Y17.2310
G01 X20.8590 Y17.2610
G01 X22.5610 Y17.2610
G01 X22.5610 Y17.2910
G01 X20.8590 Y17.2910
G01 X20.8590 Y17.3210
G01 X22.5610 Y17.3210
G01 X22.5576 Y17.3510
G01 X20.8624 Y17.3510
G01 X20.8684 Y17.3810
G01 X22.5516 Y17.3810
G01 X22.5456 Y17.4110
G01 X20.8744 Y17.4110
G01 X20.8803 Y17.4410
G01 X22.5397 Y17.4410
G01 X22.5337 Y17.4710
G01 X20.8863 Y17.4710
G01 X20.8929 Y17.5010
G01 X22.5271 Y17.5010
G01 X22.5147 Y17.5310
G01 X20.9053 Y17.5310
G01 X20.9177 Y17.5610
G01 X22.5023 Y17.5610
G01 X22.4899 Y17.5910
G01 X20.9301 Y17.5910
G01 X20.9426 Y17.6210
G01 X22.4774 Y17.6210
G01 X22.4650 Y17.6510
G01 X20.9550 Y17.6510
G01 X20.9745 Y17.6810
G01 X22.4455 Y17.6810
G01 X22.4255 Y17.7110
G01 X20.9945 Y17.7110
G01 X21.0146 Y17.7410
G01 X22.4054 Y17.7410
G01 X22.3854 Y17.7710
G01 X21.0346 Y17.7710
G01 X21.0575 Y17.8010
G01 X22.3625 Y17.8010
G01 X22.3325 Y17.8310
G01 X21.0875 Y17.8310
G01 X21.1175 Y17.8610
G01 X22.3025 Y17.8610
G01 X22.2725 Y17.8910
G01 X21.1475 Y17.8910
G01 X21.1825 Y17.9210
G01 X22.2375 Y17.9210
G01 X22.1926 Y17.9510
G01 X21.2274 Y17.9510
G01 X21.2723 Y17.9810
G01 X22.1477 Y17.9810
G01 X22.0966 Y18.0110
G01 X21.3234 Y18.0110
G01 X21.3959 Y18.0410
G01 X22.0241 Y18.0410
G01 X21.9446 Y18.0710
G01 X21.4754 Y18.0710
G01 X21.6062 Y18.0970
G01 X21.6262 Y18.1010
G01 X21.7938 Y18.1010
G01 X21.9582 Y18.0683
G01 X22.1131 Y18.0041
G01 X22.2525 Y17.9110
G01 X22.3710 Y17.7925
G01 X22.4641 Y17.6531
G01 X22.5283 Y17.4982
G01 X22.5610 Y17.3338
G01 X22.5610 Y17.1662
G01 X22.5283 Y17.0018
G01 X22.4641 Y16.8469
G01 X22.3710 Y16.7075
G01 X22.2525 Y16.5890
G01 X22.1131 Y16.4959
G01 X21.9582 Y16.4317
G01 X21.7938 Y16.3990
G01 X21.6262 Y16.3990
G01 X21.4618 Y16.4317
G01 X21.3069 Y16.4959
G01 X21.1675 Y16.5890
G01 X21.0490 Y16.7075
G01 X20.9559 Y16.8469
G01 X20.8917 Y17.0018
G01 X20.8590 Y17.1662
G01 X20.8590 Y17.3338
G01 X20.8917 Y17.4982
G01 X20.9559 Y17.6531
G01 X21.0490 Y17.7925
G01 X21.1675 Y17.9110
G01 X21.3069 Y18.0041
G01 X21.4618 Y18.0683
G01 X21.6062 Y18.0970
G00 Z2.0000
G00 X21.0655 Y16.6910
G01 F800.00
G01 Z-0.0001
G01 F350.00
G01 X22.3545 Y16.6910
G01 X22.3245 Y16.6610
G01 X21.0955 Y16.6610
G01 X21.1255 Y16.6310
G01 X22.2945 Y16.6310
G01 X22.2645 Y16.6010
G01 X21.1555 Y16.6010
G01 X21.1944 Y16.5710
G01 X22.2256 Y16.5710
G01 X22.1807 Y16.5410
G01 X21.2393 Y16.5410
G01 X21.2842 Y16.5110
G01 X22.1358 Y16.5110
G01 X22.0772 Y16.4810
G01 X21.3428 Y16.4810
G01 X21.4152 Y16.4510
G01 X22.0048 Y16.4510
G01 X21.9044 Y16.4210
G01 X21.5156 Y16.4210
G00 Z2.0000
G00 X23.3990 Y16.4210
G01 F800.00
G01 Z-0.0001
G01 F350.00
G01 X25.1010 Y16.4210
G01 X25.1010 Y16.3990
G01 X23.3990 Y16.3990
G01 X23.3990 Y18.1010
G01 X25.1010 Y18.1010
G01 X25.1010 Y16.3990
G01 X25.1010 Y16.4510
G01 X23.3990 Y16.4510
G01 X23.3990 Y16.4810
G01 X25.1010 Y16.4810
G01 X25.1010 Y16.5110
G01 X23.3990 Y16.5110
G01 X23.3990 Y16.5410
G01 X25.1010 Y16.5410
G01 X25.1010 Y16.5710
G01 X23.3990 Y16.5710
G01 X23.3990 Y16.6010
G01 X25.1010 Y16.6010
G01 X25.1010 Y16.6310
G01 X23.3990 Y16.6310
G01 X23.3990 Y16.6610
G01 X25.1010 Y16.6610
G01 X25.1010 Y16.6910
G01 X23.3990 Y16.6910
G01 X23.3990 Y16.7210
G01 X25.1010 Y16.7210
G01 X25.1010 Y16.7510
G01 X23.3990 Y16.7510
G01 X23.3990 Y16.7810
G01 X25.1010 Y16.7810
G01 X25.1010 Y16.8110
G01 X23.3990 Y16.8110
G01 X23.3990 Y16.8410
G01 X25.1010 Y16.8410
G01 X25.1010 Y16.8710
G01 X23.3990 Y16.8710
G01 X23.3990 Y16.9010
G01 X25.1010 Y16.9010
G01 X25.1010 Y16.9310
G01 X23.3990 Y16.9310
G01 X23.3990 Y16.9610
G01 X25.1010 Y16.9610
G01 X25.1010 Y16.9910
G01 X23.3990 Y16.9910
G01 X23.3990 Y17.0210
G01 X25.1010 Y17.0210
G01 X25.1010 Y17.0510
G01 X23.3990 Y17.0510
G01 X23.3990 Y17.0810
G01 X25.1010 Y17.0810
G01 X25.1010 Y17.1110
G01 X23.3990 Y17.1110
G01 X23.3990 Y17.1410
G01 X25.1010 Y17.1410
G01 X25.1010 Y17.1710
G01 X23.3990 Y17.1710
G01 X23.3990 Y17.2010
G01 X25.1010 Y17.2010
G01 X25.1010 Y17.2310
G01 X23.3990 Y17.2310
G01 X23.3990 Y17.2610
G01 X25.1010 Y17.2610
G01 X25.1010 Y17.2910
G01 X23.3990 Y17.2910
G01 X23.3990 Y17.3210
G01 X25.1010 Y17.3210
G01 X25.1010 Y17.3510
G01 X23.3990 Y17.3510
G01 X23.3990 Y17.3810
G01 X25.1010 Y17.3810
G01 X25.1010 Y17.4110
G01 X23.3990 Y17.4110
G01 X23.3990 Y17.4410
G01 X25.1010 Y17.4410
G01 X25.1010 Y17.4710
G01 X23.3990 Y17.4710
G01 X23.3990 Y17.5010
G01 X25.1010 Y17.5010
G01 X25.1010 Y17.5310
G01 X23.3990 Y17.5310
G01 X23.3990 Y17.5610
G01 X25.1010 Y17.5610
G01 X25.1010 Y17.5910
G01 X23.3990 Y17.5910
G01 X23.3990 Y17.6210
G01 X25.1010 Y17.6210
G01 X25.1010 Y17.6510
G01 X23.3990 Y17.6510
G01 X23.3990 Y17.6810
G01 X25.1010 Y17.6810
G01 X25.1010 Y17.7110
G01 X23.3990 Y17.7110
G01 X23.3990 Y17.7410
G01 X25.1010 Y17.7410
G01 X25.1010 Y17.7710
G01 X23.3990 Y17.7710
G01 X23.3990 Y17.8010
G01 X25.1010 Y17.8010
G01 X25.1010 Y17.8310
G01 X23.3990 Y17.8310
G01 X23.3990 Y17.8610
G01 X25.1010 Y17.8610
G01 X25.1010 Y17.8910
G01 X23.3990 Y17.8910
G01 X23.3990 Y17.9210
G01 X25.1010 Y17.9210
G01 X25.1010 Y17.9510
G01 X23.3990 Y17.9510
G01 X23.3990 Y17.9810
G01 X25.1010 Y17.9810
G01 X25.1010 Y18.0110
G01 X23.3990 Y18.0110
G01 X23.3990 Y18.0410
G01 X25.1010 Y18.0410
G01 X25.1010 Y18.0710
G01 X23.3990 Y18.0710
G00 Z2.0000
G00 X22.4646 Y12.6554
G01 F800.00
G01 Z-0.0001
G01 F350.00
G01 X24.4478 Y12.6554
G01 X24.4478 Y12.6254
G01 X22.4646 Y12.6254
G01 X22.4646 Y12.5954
G01 X24.4478 Y12.5954
G01 X24.4478 Y12.5654
G01 X22.4646 Y12.5654
G01 X22.4646 Y12.5354
G01 X24.4478 Y12.5354
G01 X24.4478 Y12.5054
G01 X22.4646 Y12.5054
G01 X22.4646 Y12.4754
G01 X24.4478 Y12.4754
G01 X24.4478 Y12.4454
G01 X22.4646 Y12.4454
G01 X22.4646 Y12.4154
G01 X24.4478 Y12.4154
G01 X24.4478 Y12.3854
G01 X22.4646 Y12.3854
G01 X22.4646 Y12.3554
G01 X24.4478 Y12.3554
G01 X24.4478 Y12.3254
G01 X22.4646 Y12.3254
G01 X22.4646 Y12.2954
G01 X24.4478 Y12.2954
G01 X24.4478 Y12.2654
G01 X22.4646 Y12.2654
G01 X22.4646 Y12.2354
G01 X24.4478 Y12.2354
G01 X24.4478 Y12.2054
G01 X22.4646 Y12.2054
G01 X22.4646 Y12.1754
G01 X24.4478 Y12.1754
G01 X24.4478 Y12.1246
G01 X24.4478 Y12.6854
G01 X22.4646 Y12.6854
G01 X22.4646 Y12.1246
G01 X24.4478 Y12.1246
G01 X24.4478 Y12.1454
G01 X22.4646 Y12.1454
G00 Z2.0000
G00 X22.4646 Y11.3854
G01 F800.00
G01 Z-0.0001
G01 F350.00
G01 X24.4478 Y11.3854
G01 X24.4478 Y11.3554
G01 X22.4646 Y11.3554
G01 X22.4646 Y11.3254
G01 X24.4478 Y11.3254
G01 X24.4478 Y11.2954
G01 X22.4646 Y11.2954
G01 X22.4646 Y11.2654
G01 X24.4478 Y11.2654
G01 X24.4478 Y11.2354
G01 X22.4646 Y11.2354
G01 X22.4646 Y11.2054
G01 X24.4478 Y11.2054
G01 X24.4478 Y11.1754
G01 X22.4646 Y11.1754
G01 X22.4646 Y11.1454
G01 X24.4478 Y11.1454
G01 X24.4478 Y11.1154
G01 X22.4646 Y11.1154
G01 X22.4646 Y11.0854
G01 X24.4478 Y11.0854
G01 X24.4478 Y11.0554
G01 X22.4646 Y11.0554
G01 X22.4646 Y11.0254
G01 X24.4478 Y11.0254
G01 X24.4478 Y10.9954
G01 X22.4646 Y10.9954
G01 X22.4646 Y10.9654
G01 X24.4478 Y10.9654
G01 X24.4478 Y10.9354
G01 X22.4646 Y10.9354
G01 X22.4646 Y10.9054
G01 X24.4478 Y10.9054
G01 X24.4478 Y10.8546
G01 X24.4478 Y11.4154
G01 X22.4646 Y11.4154
G01 X22.4646 Y10.8546
G01 X24.4478 Y10.8546
G01 X24.4478 Y10.8754
G01 X22.4646 Y10.8754
G00 Z2.0000
G00 X22.4646 Y10.1154
G01 F800.00
G01 Z-0.0001
G01 F350.00
G01 X24.4478 Y10.1154
G01 X24.4478 Y10.0854
G01 X22.4646 Y10.0854
G01 X22.4646 Y10.0554
G01 X24.4478 Y10.0554
G01 X24.4478 Y10.0254
G01 X22.4646 Y10.0254
G01 X22.4646 Y9.9954
G01 X24.4478 Y9.9954
G01 X24.4478 Y9.9654
G01 X22.4646 Y9.9654
G01 X22.4646 Y9.9354
G01 X24.4478 Y9.9354
G01 X24.4478 Y9.9054
G01 X22.4646 Y9.9054
G01 X22.4646 Y9.8754
G01 X24.4478 Y9.8754
G01 X24.4478 Y9.8454
G01 X22.4646 Y9.8454
G01 X22.4646 Y9.8154
G01 X24.4478 Y9.8154
G01 X24.4478 Y9.7854
G01 X22.4646 Y9.7854
G01 X22.4646 Y9.7554
G01 X24.4478 Y9.7554
G01 X24.4478 Y9.7254
G01 X22.4646 Y9.7254
G01 X22.4646 Y9.6954
G01 X24.4478 Y9.6954
G01 X24.4478 Y9.6654
G01 X22.4646 Y9.6654
G01 X22.4646 Y9.6354
G01 X24.4478 Y9.6354
G01 X24.4478 Y9.5846
G01 X24.4478 Y10.1454
G01 X22.4646 Y10.1454
G01 X22.4646 Y9.5846
G01 X24.4478 Y9.5846
G01 X24.4478 Y9.6054
G01 X22.4646 Y9.6054
G00 Z2.0000
G00 X22.4646 Y8.8454
G01 F800.00
G01 Z-0.0001
G01 F350.00
G01 X24.4478 Y8.8454
G01 X24.4478 Y8.8154
G01 X22.4646 Y8.8154
G01 X22.4646 Y8.7854
G01 X24.4478 Y8.7854
G01 X24.4478 Y8.7554
G01 X22.4646 Y8.7554
G01 X22.4646 Y8.7254
G01 X24.4478 Y8.7254
G01 X24.4478 Y8.6954
G01 X22.4646 Y8.6954
G01 X22.4646 Y8.6654
G01 X24.4478 Y8.6654
G01 X24.4478 Y8.6354
G01 X22.4646 Y8.6354
G01 X22.4646 Y8.6054
G01 X24.4478 Y8.6054
G01 X24.4478 Y8.5754
G01 X22.4646 Y8.5754
G01 X22.4646 Y8.5454
G01 X24.4478 Y8.5454
G01 X24.4478 Y8.5154
G01 X22.4646 Y8.5154
G01 X22.4646 Y8.4854
G01 X24.4478 Y8.4854
G01 X24.4478 Y8.4554
G01 X22.4646 Y8.4554
G01 X22.4646 Y8.4254
G01 X24.4478 Y8.4254
G01 X24.4478 Y8.3954
G01 X22.4646 Y8.3954
G01 X22.4646 Y8.3654
G01 X24.4478 Y8.3654
G01 X24.4478 Y8.3146
G01 X24.4478 Y8.8754
G01 X22.4646 Y8.8754
G01 X22.4646 Y8.3146
G01 X24.4478 Y8.3146
G01 X24.4478 Y8.3354
G01 X22.4646 Y8.3354
G00 Z2.0000
G00 X21.9516 Y5.8123
G01 F800.00
G01 Z-0.0001
G01 F350.00
G01 X22.3863 Y5.8123
G01 X22.4852 Y5.7823
G01 X21.8527 Y5.7823
G01 X21.7835 Y5.7523
G01 X22.5544 Y5.7523
G01 X22.6105 Y5.7223
G01 X21.7274 Y5.7223
G01 X21.6712 Y5.6923
G01 X22.6667 Y5.6923
G01 X22.7051 Y5.6623
G01 X21.6328 Y5.6623
G01 X21.5963 Y5.6323
G01 X22.7416 Y5.6323
G01 X22.7782 Y5.6023
G01 X21.5597 Y5.6023
G01 X21.5250 Y5.5723
G01 X22.8129 Y5.5723
G01 X22.8375 Y5.5423
G01 X21.5004 Y5.5423
G01 X21.4758 Y5.5123
G01 X22.8621 Y5.5123
G01 X22.8868 Y5.4823
G01 X21.4511 Y5.4823
G01 X21.4265 Y5.4523
G01 X22.9114 Y5.4523
G01 X22.9310 Y5.4223
G01 X21.4069 Y5.4223
G01 X21.3908 Y5.3923
G01 X22.9471 Y5.3923
G01 X22.9631 Y5.3623
G01 X21.3748 Y5.3623
G01 X21.3588 Y5.3323
G01 X22.9791 Y5.3323
G01 X22.9952 Y5.3023
G01 X21.3427 Y5.3023
G01 X21.3292 Y5.2723
G01 X23.0087 Y5.2723
G01 X23.0178 Y5.2423
G01 X21.3201 Y5.2423
G01 X21.3110 Y5.2123
G01 X23.0269 Y5.2123
G01 X23.0360 Y5.1823
G01 X21.3019 Y5.1823
G01 X21.2928 Y5.1523
G01 X23.0451 Y5.1523
G01 X23.0542 Y5.1223
G01 X21.2837 Y5.1223
G01 X21.2789 Y5.0923
G01 X23.0590 Y5.0923
G01 X23.0619 Y5.0623
G01 X21.2760 Y5.0623
G01 X21.2730 Y5.0323
G01 X23.0649 Y5.0323
G01 X23.0678 Y5.0023
G01 X21.2700 Y5.0023
G01 X21.2679 Y4.9723
G01 X23.0699 Y4.9723
G01 X23.0699 Y4.9423
G01 X21.2679 Y4.9423
G01 X21.2679 Y4.9123
G01 X23.0699 Y4.9123
G01 X23.0699 Y4.8823
G01 X21.2679 Y4.8823
G01 X21.2679 Y4.8523
G01 X23.0699 Y4.8523
G01 X23.0699 Y4.8223
G01 X21.2679 Y4.8223
G01 X21.2679 Y4.7923
G01 X23.0699 Y4.7923
G01 X23.0699 Y4.7623
G01 X21.2679 Y4.7623
G01 X21.2679 Y4.7323
G01 X23.0699 Y4.7323
G01 X23.0699 Y4.7023
G01 X21.2679 Y4.7023
G01 X21.2679 Y4.6723
G01 X23.0699 Y4.6723
G01 X23.0699 Y4.6423
G01 X21.2679 Y4.6423
G01 X21.2679 Y4.6123
G01 X23.0699 Y4.6123
G01 X23.0699 Y4.5823
G01 X21.2679 Y4.5823
G01 X21.2679 Y4.5523
G01 X23.0699 Y4.5523
G01 X23.0699 Y4.5223
G01 X21.2679 Y4.5223
G01 X21.2679 Y4.4923
G01 X23.0699 Y4.4923
G01 X23.0699 Y4.4623
G01 X21.2679 Y4.4623
G01 X21.2679 Y4.4323
G01 X23.0699 Y4.4323
G01 X23.0699 Y4.4023
G01 X21.2679 Y4.4023
G01 X21.2679 Y4.3723
G01 X23.0699 Y4.3723
G01 X23.0699 Y4.3423
G01 X21.2679 Y4.3423
G01 X21.2679 Y4.3123
G01 X23.0699 Y4.3123
G01 X23.0699 Y4.2823
G01 X21.2679 Y4.2823
G01 X21.2679 Y4.2523
G01 X23.0699 Y4.2523
G01 X23.0699 Y4.2223
G01 X21.2679 Y4.2223
G01 X21.2679 Y4.1923
G01 X23.0699 Y4.1923
G01 X23.0699 Y4.1623
G01 X21.2679 Y4.1623
G01 X21.2679 Y4.1323
G01 X23.0699 Y4.1323
G01 X23.0699 Y4.1023
G01 X21.2679 Y4.1023
G01 X21.2679 Y4.0723
G01 X23.0699 Y4.0723
G01 X23.0699 Y4.0423
G01 X21.2679 Y4.0423
G01 X21.2679 Y4.0123
G01 X23.0699 Y4.0123
G01 X23.0699 Y3.9823
G01 X21.2679 Y3.9823
G01 X21.2679 Y3.9523
G01 X23.0699 Y3.9523
G01 X23.0699 Y3.9223
G01 X21.2679 Y3.9223
G01 X21.2679 Y3.8923
G01 X23.0699 Y3.8923
G01 X23.0699 Y3.8623
G01 X21.2679 Y3.8623
G01 X21.2679 Y3.8323
G01 X23.0699 Y3.8323
G01 X23.0699 Y3.8023
G01 X21.2679 Y3.8023
G01 X21.2679 Y3.7723
G01 X23.0699 Y3.7723
G01 X23.0699 Y3.7423
G01 X21.2679 Y3.7423
G01 X21.2679 Y3.7123
G01 X23.0699 Y3.7123
G01 X23.0699 Y3.6823
G01 X21.2679 Y3.6823
G01 X21.2679 Y3.6523
G01 X23.0699 Y3.6523
G01 X23.0699 Y3.6223
G01 X21.2679 Y3.6223
G01 X21.2679 Y3.5923
G01 X23.0699 Y3.5923
G01 X23.0699 Y3.5623
G01 X21.2679 Y3.5623
G01 X21.2679 Y3.5323
G01 X23.0699 Y3.5323
G01 X23.0699 Y3.5023
G01 X21.2679 Y3.5023
G01 X21.2679 Y3.4723
G01 X23.0699 Y3.4723
G01 X23.0699 Y3.4423
G01 X21.2679 Y3.4423
G01 X21.2679 Y3.4123
G01 X23.0699 Y3.4123
G01 X23.0699 Y3.3823
G01 X21.2679 Y3.3823
G01 X21.2679 Y3.3523
G01 X23.0699 Y3.3523
G01 X23.0699 Y3.3223
G01 X21.2679 Y3.3223
G01 X21.2679 Y3.2923
G01 X23.0699 Y3.2923
G01 X23.0699 Y3.2623
G01 X21.2679 Y3.2623
G01 X21.2679 Y3.2323
G01 X23.0699 Y3.2323
G01 X23.0699 Y3.2023
G01 X21.2679 Y3.2023
G01 X21.2679 Y3.1723
G01 X23.0699 Y3.1723
G01 X23.0699 Y3.1423
G01 X21.2679 Y3.1423
G01 X21.2679 Y3.1123
G01 X23.0699 Y3.1123
G01 X23.0689 Y3.0823
G01 X21.2689 Y3.0823
G01 X21.2719 Y3.0523
G01 X23.0660 Y3.0523
G01 X23.0630 Y3.0223
G01 X21.2749 Y3.0223
G01 X21.2778 Y2.9923
G01 X23.0601 Y2.9923
G01 X23.0571 Y2.9623
G01 X21.2808 Y2.9623
G01 X21.2810 Y2.9600
G01 X21.3325 Y2.7902
G01 X21.4162 Y2.6337
G01 X21.5288 Y2.4965
G01 X21.6660 Y2.3839
G01 X21.8225 Y2.3002
G01 X21.9923 Y2.2487
G01 X22.1689 Y2.2313
G01 X22.3456 Y2.2487
G01 X22.5154 Y2.3002
G01 X22.6719 Y2.3839
G01 X22.8091 Y2.4965
G01 X22.9217 Y2.6337
G01 X23.0054 Y2.7902
G01 X23.0569 Y2.9600
G01 X23.0699 Y3.0924
G01 X23.0699 Y4.9809
G01 X23.0569 Y5.1133
G01 X23.0054 Y5.2831
G01 X22.9217 Y5.4396
G01 X22.8091 Y5.5768
G01 X22.6719 Y5.6894
G01 X22.5154 Y5.7731
G01 X22.3456 Y5.8246
G01 X22.1689 Y5.8420
G01 X21.9923 Y5.8246
G01 X21.8225 Y5.7731
G01 X21.6660 Y5.6894
G01 X21.5288 Y5.5768
G01 X21.4162 Y5.4396
G01 X21.3325 Y5.2831
G01 X21.2810 Y5.1133
G01 X21.2679 Y4.9809
G01 X21.2679 Y3.0924
G01 X21.2810 Y2.9600
G00 Z2.0000
G00 X21.2894 Y2.9323
G01 F800.00
G01 Z-0.0001
G01 F350.00
G01 X23.0485 Y2.9323
G01 X23.0394 Y2.9023
G01 X21.2985 Y2.9023
G01 X21.3076 Y2.8723
G01 X23.0303 Y2.8723
G01 X23.0212 Y2.8423
G01 X21.3167 Y2.8423
G01 X21.3258 Y2.8123
G01 X23.0121 Y2.8123
G01 X23.0011 Y2.7823
G01 X21.3367 Y2.7823
G01 X21.3528 Y2.7523
G01 X22.9851 Y2.7523
G01 X22.9691 Y2.7223
G01 X21.3688 Y2.7223
G01 X21.3848 Y2.6923
G01 X22.9530 Y2.6923
G01 X22.9370 Y2.6623
G01 X21.4009 Y2.6623
G01 X21.4173 Y2.6323
G01 X22.9206 Y2.6323
G01 X22.8959 Y2.6023
G01 X21.4419 Y2.6023
G01 X21.4666 Y2.5723
G01 X22.8713 Y2.5723
G01 X22.8467 Y2.5423
G01 X21.4912 Y2.5423
G01 X21.5158 Y2.5123
G01 X22.8221 Y2.5123
G01 X22.7918 Y2.4823
G01 X21.5461 Y2.4823
G01 X21.5826 Y2.4523
G01 X22.7553 Y2.4523
G01 X22.7187 Y2.4223
G01 X21.6192 Y2.4223
G01 X21.6557 Y2.3923
G01 X22.6821 Y2.3923
G01 X22.6315 Y2.3623
G01 X21.7064 Y2.3623
G01 X21.7625 Y2.3323
G01 X22.5754 Y2.3323
G00 Z2.0000
G00 X22.5192 Y2.3023
G01 F800.00
G01 Z-0.0001
G01 F350.00
G01 X21.8187 Y2.3023
G01 X21.9146 Y2.2723
G01 X22.4232 Y2.2723
G01 X22.2802 Y2.2423
G01 X22.0577 Y2.2423
G00 Z2.0000
G00 X25.0910 Y2.9600
G01 F800.00
G01 Z-0.0001
G01 F350.00
G01 X25.0779 Y3.0924
G01 X25.0779 Y4.9809
G01 X25.0910 Y5.1133
G01 X25.1425 Y5.2831
G01 X25.2262 Y5.4396
G01 X25.3388 Y5.5768
G01 X25.4760 Y5.6894
G01 X25.6325 Y5.7731
G01 X25.8023 Y5.8246
G01 X25.9789 Y5.8420
G01 X26.1556 Y5.8246
G01 X26.3254 Y5.7731
G01 X26.4819 Y5.6894
G01 X26.6191 Y5.5768
G01 X26.7317 Y5.4396
G01 X26.8154 Y5.2831
G01 X26.8669 Y5.1133
G01 X26.8799 Y4.9809
G01 X26.8799 Y3.0924
G01 X26.8669 Y2.9600
G01 X26.8154 Y2.7902
G01 X26.7317 Y2.6337
G01 X26.6191 Y2.4965
G01 X26.4819 Y2.3839
G01 X26.3254 Y2.3002
G01 X26.1556 Y2.2487
G01 X25.9789 Y2.2313
G01 X25.8023 Y2.2487
G01 X25.6325 Y2.3002
G01 X25.4760 Y2.3839
G01 X25.3388 Y2.4965
G01 X25.2262 Y2.6337
G01 X25.1425 Y2.7902
G01 X25.0910 Y2.9600
G01 X25.0908 Y2.9623
G01 X26.8671 Y2.9623
G01 X26.8701 Y2.9923
G01 X25.0878 Y2.9923
G01 X25.0849 Y3.0223
G01 X26.8730 Y3.0223
G01 X26.8760 Y3.0523
G01 X25.0819 Y3.0523
G01 X25.0789 Y3.0823
G01 X26.8789 Y3.0823
G01 X26.8799 Y3.1123
G01 X25.0779 Y3.1123
G01 X25.0779 Y3.1423
G01 X26.8799 Y3.1423
G01 X26.8799 Y3.1723
G01 X25.0779 Y3.1723
G01 X25.0779 Y3.2023
G01 X26.8799 Y3.2023
G01 X26.8799 Y3.2323
G01 X25.0779 Y3.2323
G01 X25.0779 Y3.2623
G01 X26.8799 Y3.2623
G01 X26.8799 Y3.2923
G01 X25.0779 Y3.2923
G01 X25.0779 Y3.3223
G01 X26.8799 Y3.3223
G01 X26.8799 Y3.3523
G01 X25.0779 Y3.3523
G01 X25.0779 Y3.3823
G01 X26.8799 Y3.3823
G01 X26.8799 Y3.4123
G01 X25.0779 Y3.4123
G01 X25.0779 Y3.4423
G01 X26.8799 Y3.4423
G01 X26.8799 Y3.4723
G01 X25.0779 Y3.4723
G01 X25.0779 Y3.5023
G01 X26.8799 Y3.5023
G01 X26.8799 Y3.5323
G01 X25.0779 Y3.5323
G01 X25.0779 Y3.5623
G01 X26.8799 Y3.5623
G01 X26.8799 Y3.5923
G01 X25.0779 Y3.5923
G01 X25.0779 Y3.6223
G01 X26.8799 Y3.6223
G01 X26.8799 Y3.6523
G01 X25.0779 Y3.6523
G01 X25.0779 Y3.6823
G01 X26.8799 Y3.6823
G01 X26.8799 Y3.7123
G01 X25.0779 Y3.7123
G01 X25.0779 Y3.7423
G01 X26.8799 Y3.7423
G01 X26.8799 Y3.7723
G01 X25.0779 Y3.7723
G01 X25.0779 Y3.8023
G01 X26.8799 Y3.8023
G01 X26.8799 Y3.8323
G01 X25.0779 Y3.8323
G01 X25.0779 Y3.8623
G01 X26.8799 Y3.8623
G01 X26.8799 Y3.8923
G01 X25.0779 Y3.8923
G01 X25.0779 Y3.9223
G01 X26.8799 Y3.9223
G01 X26.8799 Y3.9523
G01 X25.0779 Y3.9523
G01 X25.0779 Y3.9823
G01 X26.8799 Y3.9823
G01 X26.8799 Y4.0123
G01 X25.0779 Y4.0123
G01 X25.0779 Y4.0423
G01 X26.8799 Y4.0423
G01 X26.8799 Y4.0723
G01 X25.0779 Y4.0723
G01 X25.0779 Y4.1023
G01 X26.8799 Y4.1023
G01 X26.8799 Y4.1323
G01 X25.0779 Y4.1323
G01 X25.0779 Y4.1623
G01 X26.8799 Y4.1623
G01 X26.8799 Y4.1923
G01 X25.0779 Y4.1923
G01 X25.0779 Y4.2223
G01 X26.8799 Y4.2223
G01 X26.8799 Y4.2523
G01 X25.0779 Y4.2523
G01 X25.0779 Y4.2823
G01 X26.8799 Y4.2823
G01 X26.8799 Y4.3123
G01 X25.0779 Y4.3123
G01 X25.0779 Y4.3423
G01 X26.8799 Y4.3423
G01 X26.8799 Y4.3723
G01 X25.0779 Y4.3723
G01 X25.0779 Y4.4023
G01 X26.8799 Y4.4023
G01 X26.8799 Y4.4323
G01 X25.0779 Y4.4323
G01 X25.0779 Y4.4623
G01 X26.8799 Y4.4623
G01 X26.8799 Y4.4923
G01 X25.0779 Y4.4923
G01 X25.0779 Y4.5223
G01 X26.8799 Y4.5223
G01 X26.8799 Y4.5523
G01 X25.0779 Y4.5523
G01 X25.0779 Y4.5823
G01 X26.8799 Y4.5823
G01 X26.8799 Y4.6123
G01 X25.0779 Y4.6123
G01 X25.0779 Y4.6423
G01 X26.8799 Y4.6423
G01 X26.8799 Y4.6723
G01 X25.0779 Y4.6723
G01 X25.0779 Y4.7023
G01 X26.8799 Y4.7023
G01 X26.8799 Y4.7323
G01 X25.0779 Y4.7323
G01 X25.0779 Y4.7623
G01 X26.8799 Y4.7623
G01 X26.8799 Y4.7923
G01 X25.0779 Y4.7923
G01 X25.0779 Y4.8223
G01 X26.8799 Y4.8223
G01 X26.8799 Y4.8523
G01 X25.0779 Y4.8523
G01 X25.0779 Y4.8823
G01 X26.8799 Y4.8823
G01 X26.8799 Y4.9123
G01 X25.0779 Y4.9123
G01 X25.0779 Y4.9423
G01 X26.8799 Y4.9423
G01 X26.8799 Y4.9723
G01 X25.0779 Y4.9723
G01 X25.0800 Y5.0023
G01 X26.8778 Y5.0023
G01 X26.8749 Y5.0323
G01 X25.0830 Y5.0323
G01 X25.0860 Y5.0623
G01 X26.8719 Y5.0623
G01 X26.8690 Y5.0923
G01 X25.0889 Y5.0923
G01 X25.0937 Y5.1223
G01 X26.8642 Y5.1223
G01 X26.8551 Y5.1523
G01 X25.1028 Y5.1523
G01 X25.1119 Y5.1823
G01 X26.8460 Y5.1823
G01 X26.8369 Y5.2123
G01 X25.1210 Y5.2123
G01 X25.1301 Y5.2423
G01 X26.8278 Y5.2423
G01 X26.8187 Y5.2723
G01 X25.1392 Y5.2723
G01 X25.1527 Y5.3023
G01 X26.8052 Y5.3023
G01 X26.7891 Y5.3323
G01 X25.1688 Y5.3323
G01 X25.1848 Y5.3623
G01 X26.7731 Y5.3623
G01 X26.7571 Y5.3923
G01 X25.2008 Y5.3923
G01 X25.2169 Y5.4223
G01 X26.7410 Y5.4223
G01 X26.7214 Y5.4523
G01 X25.2365 Y5.4523
G01 X25.2611 Y5.4823
G01 X26.6968 Y5.4823
G01 X26.6721 Y5.5123
G01 X25.2858 Y5.5123
G01 X25.3104 Y5.5423
G01 X26.6475 Y5.5423
G01 X26.6229 Y5.5723
G01 X25.3350 Y5.5723
G01 X25.3697 Y5.6023
G01 X26.5882 Y5.6023
G01 X26.5516 Y5.6323
G01 X25.4063 Y5.6323
G01 X25.4428 Y5.6623
G01 X26.5151 Y5.6623
G01 X26.4767 Y5.6923
G01 X25.4812 Y5.6923
G01 X25.5374 Y5.7223
G01 X26.4205 Y5.7223
G01 X26.3644 Y5.7523
G01 X25.5935 Y5.7523
G01 X25.6627 Y5.7823
G01 X26.2952 Y5.7823
G01 X26.1963 Y5.8123
G01 X25.7616 Y5.8123
G00 Z2.0000
G00 X25.0994 Y2.9323
G01 F800.00
G01 Z-0.0001
G01 F350.00
G01 X26.8585 Y2.9323
G01 X26.8494 Y2.9023
G01 X25.1085 Y2.9023
G01 X25.1176 Y2.8723
G01 X26.8403 Y2.8723
G01 X26.8312 Y2.8423
G01 X25.1267 Y2.8423
G01 X25.1358 Y2.8123
G01 X26.8221 Y2.8123
G01 X26.8111 Y2.7823
G01 X25.1467 Y2.7823
G01 X25.1628 Y2.7523
G01 X26.7951 Y2.7523
G01 X26.7791 Y2.7223
G01 X25.1788 Y2.7223
G01 X25.1948 Y2.6923
G01 X26.7630 Y2.6923
G01 X26.7470 Y2.6623
G01 X25.2109 Y2.6623
G01 X25.2273 Y2.6323
G01 X26.7306 Y2.6323
G01 X26.7059 Y2.6023
G01 X25.2519 Y2.6023
G01 X25.2766 Y2.5723
G01 X26.6813 Y2.5723
G01 X26.6567 Y2.5423
G01 X25.3012 Y2.5423
G01 X25.3258 Y2.5123
G01 X26.6321 Y2.5123
G01 X26.6018 Y2.4823
G01 X25.3561 Y2.4823
G01 X25.3926 Y2.4523
G01 X26.5653 Y2.4523
G01 X26.5287 Y2.4223
G01 X25.4292 Y2.4223
G01 X25.4657 Y2.3923
G01 X26.4921 Y2.3923
G01 X26.4415 Y2.3623
G01 X25.5164 Y2.3623
G01 X25.5725 Y2.3323
G01 X26.3854 Y2.3323
G00 Z2.0000
G00 X26.3292 Y2.3023
G01 F800.00
G01 Z-0.0001
G01 F350.00
G01 X25.6287 Y2.3023
G01 X25.7246 Y2.2723
G01 X26.2332 Y2.2723
G01 X26.0902 Y2.2423
G01 X25.8677 Y2.2423
G00 Z2.0000
G00 X28.8890 Y2.3577
G01 F800.00
G01 Z-0.0001
G01 F350.00
G01 X30.6889 Y2.3577
G01 X30.6899 Y2.3877
G01 X28.8879 Y2.3877
G01 X28.8879 Y2.4177
G01 X30.6899 Y2.4177
G01 X30.6899 Y2.4477
G01 X28.8879 Y2.4477
G01 X28.8879 Y2.4777
G01 X30.6899 Y2.4777
G01 X30.6899 Y2.5077
G01 X28.8879 Y2.5077
G01 X28.8879 Y2.5377
G01 X30.6899 Y2.5377
G01 X30.6899 Y2.5677
G01 X28.8879 Y2.5677
G01 X28.8879 Y2.5977
G01 X30.6899 Y2.5977
G01 X30.6899 Y2.6277
G01 X28.8879 Y2.6277
G01 X28.8879 Y2.6577
G01 X30.6899 Y2.6577
G01 X30.6899 Y2.6877
G01 X28.8879 Y2.6877
G01 X28.8879 Y2.7177
G01 X30.6899 Y2.7177
G01 X30.6899 Y2.7477
G01 X28.8879 Y2.7477
G01 X28.8879 Y2.7777
G01 X30.6899 Y2.7777
G01 X30.6899 Y2.8077
G01 X28.8879 Y2.8077
G01 X28.8879 Y2.8377
G01 X30.6899 Y2.8377
G01 X30.6899 Y2.8677
G01 X28.8879 Y2.8677
G01 X28.8879 Y2.8977
G01 X30.6899 Y2.8977
G01 X30.6899 Y2.9277
G01 X28.8879 Y2.9277
G01 X28.8879 Y2.9577
G01 X30.6899 Y2.9577
G01 X30.6899 Y2.9877
G01 X28.8879 Y2.9877
G01 X28.8879 Y3.0177
G01 X30.6899 Y3.0177
G01 X30.6899 Y3.0477
G01 X28.8879 Y3.0477
G01 X28.8879 Y3.0777
G01 X30.6899 Y3.0777
G01 X30.6899 Y3.1077
G01 X28.8879 Y3.1077
G01 X28.8879 Y3.1377
G01 X30.6899 Y3.1377
G01 X30.6899 Y3.1677
G01 X28.8879 Y3.1677
G01 X28.8879 Y3.1977
G01 X30.6899 Y3.1977
G01 X30.6899 Y3.2277
G01 X28.8879 Y3.2277
G01 X28.8879 Y3.2577
G01 X30.6899 Y3.2577
G01 X30.6899 Y3.2877
G01 X28.8879 Y3.2877
G01 X28.8879 Y3.3177
G01 X30.6899 Y3.3177
G01 X30.6899 Y3.3477
G01 X28.8879 Y3.3477
G01 X28.8879 Y3.3777
G01 X30.6899 Y3.3777
G01 X30.6899 Y3.4077
G01 X28.8879 Y3.4077
G01 X28.8879 Y3.4377
G01 X30.6899 Y3.4377
G01 X30.6899 Y3.4677
G01 X28.8879 Y3.4677
G01 X28.8879 Y3.4977
G01 X30.6899 Y3.4977
G01 X30.6899 Y3.5277
G01 X28.8879 Y3.5277
G01 X28.8879 Y3.5577
G01 X30.6899 Y3.5577
G01 X30.6899 Y3.5877
G01 X28.8879 Y3.5877
G01 X28.8879 Y3.6177
G01 X30.6899 Y3.6177
G01 X30.6899 Y3.6477
G01 X28.8879 Y3.6477
G01 X28.8879 Y3.6777
G01 X30.6899 Y3.6777
G01 X30.6899 Y3.7077
G01 X28.8879 Y3.7077
G01 X28.8879 Y3.7377
G01 X30.6899 Y3.7377
G01 X30.6899 Y3.7677
G01 X28.8879 Y3.7677
G01 X28.8879 Y3.7977
G01 X30.6899 Y3.7977
G01 X30.6899 Y3.8277
G01 X28.8879 Y3.8277
G01 X28.8879 Y3.8577
G01 X30.6899 Y3.8577
G01 X30.6899 Y3.8877
G01 X28.8879 Y3.8877
G01 X28.8879 Y3.9177
G01 X30.6899 Y3.9177
G01 X30.6899 Y3.9477
G01 X28.8879 Y3.9477
G01 X28.8879 Y3.9777
G01 X30.6899 Y3.9777
G01 X30.6899 Y4.0077
G01 X28.8879 Y4.0077
G01 X28.8879 Y4.0377
G01 X30.6899 Y4.0377
G01 X30.6899 Y4.0677
G01 X28.8879 Y4.0677
G01 X28.8879 Y4.0977
G01 X30.6899 Y4.0977
G01 X30.6899 Y4.1277
G01 X28.8879 Y4.1277
G01 X28.8879 Y4.1577
G01 X30.6899 Y4.1577
G01 X30.6899 Y4.1877
G01 X28.8879 Y4.1877
G01 X28.8879 Y4.2177
G01 X30.6899 Y4.2177
G01 X30.6899 Y4.2477
G01 X28.8879 Y4.2477
G01 X28.8879 Y4.2777
G01 X30.6899 Y4.2777
G01 X30.6899 Y4.3077
G01 X28.8879 Y4.3077
G01 X28.8879 Y4.3377
G01 X30.6899 Y4.3377
G01 X30.6899 Y4.3677
G01 X28.8879 Y4.3677
G01 X28.8879 Y4.3977
G01 X30.6899 Y4.3977
G01 X30.6899 Y4.4277
G01 X28.8879 Y4.4277
G01 X28.8879 Y4.4577
G01 X30.6899 Y4.4577
G01 X30.6899 Y4.4877
G01 X28.8879 Y4.4877
G01 X28.8879 Y4.5177
G01 X30.6899 Y4.5177
G01 X30.6899 Y4.5477
G01 X28.8879 Y4.5477
G01 X28.8879 Y4.5777
G01 X30.6899 Y4.5777
G01 X30.6899 Y4.6077
G01 X28.8879 Y4.6077
G01 X28.8879 Y4.6377
G01 X30.6899 Y4.6377
G01 X30.6899 Y4.6677
G01 X28.8879 Y4.6677
G01 X28.8879 Y4.6977
G01 X30.6899 Y4.6977
G01 X30.6899 Y4.7277
G01 X28.8879 Y4.7277
G01 X28.8879 Y4.7577
G01 X30.6899 Y4.7577
G01 X30.6899 Y4.7877
G01 X28.8879 Y4.7877
G01 X28.8879 Y4.8177
G01 X30.6899 Y4.8177
G01 X30.6899 Y4.8477
G01 X28.8879 Y4.8477
G01 X28.8879 Y4.8777
G01 X30.6899 Y4.8777
G01 X30.6899 Y4.9077
G01 X28.8879 Y4.9077
G01 X28.8879 Y4.9377
G01 X30.6899 Y4.9377
G01 X30.6899 Y4.9677
G01 X28.8879 Y4.9677
G01 X28.8879 Y4.9977
G01 X30.6899 Y4.9977
G01 X30.6899 Y5.0277
G01 X28.8879 Y5.0277
G01 X28.8879 Y5.0577
G01 X30.6899 Y5.0577
G01 X30.6899 Y5.0877
G01 X28.8879 Y5.0877
G01 X28.8879 Y5.1177
G01 X30.6899 Y5.1177
G01 X30.6899 Y5.1477
G01 X28.8879 Y5.1477
G01 X28.8879 Y5.1777
G01 X30.6899 Y5.1777
G01 X30.6899 Y5.2077
G01 X28.8879 Y5.2077
G01 X28.8879 Y5.2377
G01 X30.6899 Y5.2377
G01 X30.6899 Y5.2677
G01 X28.8879 Y5.2677
G01 X28.8879 Y5.2977
G01 X30.6899 Y5.2977
G01 X30.6899 Y5.3277
G01 X28.8879 Y5.3277
G01 X28.8879 Y5.3577
G01 X30.6899 Y5.3577
G01 X30.6899 Y5.3877
G01 X28.8879 Y5.3877
G01 X28.8879 Y5.4177
G01 X30.6899 Y5.4177
G01 X30.6899 Y5.4477
G01 X28.8879 Y5.4477
G01 X28.8879 Y5.4777
G01 X30.6899 Y5.4777
G01 X30.6899 Y5.5077
G01 X28.8879 Y5.5077
G01 X28.8879 Y5.5377
G01 X30.6899 Y5.5377
G01 X30.6899 Y5.5677
G01 X28.8879 Y5.5677
G01 X28.8879 Y5.5977
G01 X30.6899 Y5.5977
G01 X30.6899 Y5.6277
G01 X28.8879 Y5.6277
G01 X28.8879 Y5.6577
G01 X30.6899 Y5.6577
G01 X30.6899 Y5.6877
G01 X28.8879 Y5.6877
G01 X28.8892 Y5.7177
G01 X30.6887 Y5.7177
G01 X30.6837 Y5.7477
G01 X28.8942 Y5.7477
G01 X28.9071 Y5.7777
G01 X30.6708 Y5.7777
G01 X30.6447 Y5.8077
G01 X28.9332 Y5.8077
G01 X28.9878 Y5.8344
G01 X29.0204 Y5.8377
G01 X30.5575 Y5.8377
G01 X30.5901 Y5.8344
G01 X30.6131 Y5.8274
G01 X30.6344 Y5.8161
G01 X30.6531 Y5.8008
G01 X30.6684 Y5.7821
G01 X30.6797 Y5.7608
G01 X30.6867 Y5.7378
G01 X30.6899 Y5.7052
G01 X30.6899 Y2.3681
G01 X30.6867 Y2.3355
G01 X30.6797 Y2.3125
G01 X30.6684 Y2.2912
G01 X30.6531 Y2.2725
G01 X30.6344 Y2.2572
G01 X30.6131 Y2.2459
G01 X30.5901 Y2.2389
G01 X30.5575 Y2.2357
G01 X29.0204 Y2.2357
G01 X28.9878 Y2.2389
G01 X28.9647 Y2.2459
G01 X28.9435 Y2.2572
G01 X28.9248 Y2.2725
G01 X28.9095 Y2.2912
G01 X28.8982 Y2.3125
G01 X28.8912 Y2.3355
G01 X28.8879 Y2.3681
G01 X28.8879 Y5.7052
G01 X28.8912 Y5.7378
G01 X28.8982 Y5.7608
G01 X28.9095 Y5.7821
G01 X28.9248 Y5.8008
G01 X28.9435 Y5.8161
G01 X28.9647 Y5.8274
G01 X28.9878 Y5.8344
G00 Z2.0000
G00 X27.3922 Y8.3354
G01 F800.00
G01 Z-0.0001
G01 F350.00
G01 X29.3754 Y8.3354
G01 X29.3754 Y8.3146
G01 X27.3922 Y8.3146
G01 X27.3922 Y8.8754
G01 X29.3754 Y8.8754
G01 X29.3754 Y8.3146
G01 X29.3754 Y8.3654
G01 X27.3922 Y8.3654
G01 X27.3922 Y8.3954
G01 X29.3754 Y8.3954
G01 X29.3754 Y8.4254
G01 X27.3922 Y8.4254
G01 X27.3922 Y8.4554
G01 X29.3754 Y8.4554
G01 X29.3754 Y8.4854
G01 X27.3922 Y8.4854
G01 X27.3922 Y8.5154
G01 X29.3754 Y8.5154
G01 X29.3754 Y8.5454
G01 X27.3922 Y8.5454
G01 X27.3922 Y8.5754
G01 X29.3754 Y8.5754
G01 X29.3754 Y8.6054
G01 X27.3922 Y8.6054
G01 X27.3922 Y8.6354
G01 X29.3754 Y8.6354
G01 X29.3754 Y8.6654
G01 X27.3922 Y8.6654
G01 X27.3922 Y8.6954
G01 X29.3754 Y8.6954
G01 X29.3754 Y8.7254
G01 X27.3922 Y8.7254
G01 X27.3922 Y8.7554
G01 X29.3754 Y8.7554
G01 X29.3754 Y8.7854
G01 X27.3922 Y8.7854
G01 X27.3922 Y8.8154
G01 X29.3754 Y8.8154
G01 X29.3754 Y8.8454
G01 X27.3922 Y8.8454
G00 Z2.0000
G00 X27.3922 Y9.6054
G01 F800.00
G01 Z-0.0001
G01 F350.00
G01 X29.3754 Y9.6054
G01 X29.3754 Y9.5846
G01 X27.3922 Y9.5846
G01 X27.3922 Y10.1454
G01 X29.3754 Y10.1454
G01 X29.3754 Y9.5846
G01 X29.3754 Y9.6354
G01 X27.3922 Y9.6354
G01 X27.3922 Y9.6654
G01 X29.3754 Y9.6654
G01 X29.3754 Y9.6954
G01 X27.3922 Y9.6954
G01 X27.3922 Y9.7254
G01 X29.3754 Y9.7254
G01 X29.3754 Y9.7554
G01 X27.3922 Y9.7554
G01 X27.3922 Y9.7854
G01 X29.3754 Y9.7854
G01 X29.3754 Y9.8154
G01 X27.3922 Y9.8154
G01 X27.3922 Y9.8454
G01 X29.3754 Y9.8454
G01 X29.3754 Y9.8754
G01 X27.3922 Y9.8754
G01 X27.3922 Y9.9054
G01 X29.3754 Y9.9054
G01 X29.3754 Y9.9354
G01 X27.3922 Y9.9354
G01 X27.3922 Y9.9654
G01 X29.3754 Y9.9654
G01 X29.3754 Y9.9954
G01 X27.3922 Y9.9954
G01 X27.3922 Y10.0254
G01 X29.3754 Y10.0254
G01 X29.3754 Y10.0554
G01 X27.3922 Y10.0554
G01 X27.3922 Y10.0854
G01 X29.3754 Y10.0854
G01 X29.3754 Y10.1154
G01 X27.3922 Y10.1154
G00 Z2.0000
G00 X27.3922 Y10.8754
G01 F800.00
G01 Z-0.0001
G01 F350.00
G01 X29.3754 Y10.8754
G01 X29.3754 Y10.8546
G01 X27.3922 Y10.8546
G01 X27.3922 Y11.4154
G01 X29.3754 Y11.4154
G01 X29.3754 Y10.8546
G01 X29.3754 Y10.9054
G01 X27.3922 Y10.9054
G01 X27.3922 Y10.9354
G01 X29.3754 Y10.9354
G01 X29.3754 Y10.9654
G01 X27.3922 Y10.9654
G01 X27.3922 Y10.9954
G01 X29.3754 Y10.9954
G01 X29.3754 Y11.0254
G01 X27.3922 Y11.0254
G01 X27.3922 Y11.0554
G01 X29.3754 Y11.0554
G01 X29.3754 Y11.0854
G01 X27.3922 Y11.0854
G01 X27.3922 Y11.1154
G01 X29.3754 Y11.1154
G01 X29.3754 Y11.1454
G01 X27.3922 Y11.1454
G01 X27.3922 Y11.1754
G01 X29.3754 Y11.1754
G01 X29.3754 Y11.2054
G01 X27.3922 Y11.2054
G01 X27.3922 Y11.2354
G01 X29.3754 Y11.2354
G01 X29.3754 Y11.2654
G01 X27.3922 Y11.2654
G01 X27.3922 Y11.2954
G01 X29.3754 Y11.2954
G01 X29.3754 Y11.3254
G01 X27.3922 Y11.3254
G01 X27.3922 Y11.3554
G01 X29.3754 Y11.3554
G01 X29.3754 Y11.3854
G01 X27.3922 Y11.3854
G00 Z2.0000
G00 X27.3922 Y12.1454
G01 F800.00
G01 Z-0.0001
G01 F350.00
G01 X29.3754 Y12.1454
G01 X29.3754 Y12.1246
G01 X27.3922 Y12.1246
G01 X27.3922 Y12.6854
G01 X29.3754 Y12.6854
G01 X29.3754 Y12.1246
G01 X29.3754 Y12.1754
G01 X27.3922 Y12.1754
G01 X27.3922 Y12.2054
G01 X29.3754 Y12.2054
G01 X29.3754 Y12.2354
G01 X27.3922 Y12.2354
G01 X27.3922 Y12.2654
G01 X29.3754 Y12.2654
G01 X29.3754 Y12.2954
G01 X27.3922 Y12.2954
G01 X27.3922 Y12.3254
G01 X29.3754 Y12.3254
G01 X29.3754 Y12.3554
G01 X27.3922 Y12.3554
G01 X27.3922 Y12.3854
G01 X29.3754 Y12.3854
G01 X29.3754 Y12.4154
G01 X27.3922 Y12.4154
G01 X27.3922 Y12.4454
G01 X29.3754 Y12.4454
G01 X29.3754 Y12.4754
G01 X27.3922 Y12.4754
G01 X27.3922 Y12.5054
G01 X29.3754 Y12.5054
G01 X29.3754 Y12.5354
G01 X27.3922 Y12.5354
G01 X27.3922 Y12.5654
G01 X29.3754 Y12.5654
G01 X29.3754 Y12.5954
G01 X27.3922 Y12.5954
G01 X27.3922 Y12.6254
G01 X29.3754 Y12.6254
G01 X29.3754 Y12.6554
G01 X27.3922 Y12.6554
G00 Z2.0000
G00 X30.4058 Y11.8110
G01 F800.00
G01 Z-0.0001
G01 F350.00
G01 X31.5442 Y11.8110
G01 X31.5492 Y11.8410
G01 X30.4008 Y11.8410
G01 X30.3990 Y11.8710
G01 X31.5510 Y11.8710
G01 X31.5510 Y11.9010
G01 X30.3990 Y11.9010
G01 X30.3990 Y11.9310
G01 X31.5510 Y11.9310
G01 X31.5510 Y11.9610
G01 X30.3990 Y11.9610
G01 X30.3990 Y11.9910
G01 X31.5510 Y11.9910
G01 X31.5510 Y12.0210
G01 X30.3990 Y12.0210
G01 X30.3990 Y12.0510
G01 X31.5510 Y12.0510
G01 X31.5510 Y12.0810
G01 X30.3990 Y12.0810
G01 X30.3990 Y12.1110
G01 X31.5510 Y12.1110
G01 X31.5510 Y12.1410
G01 X30.3990 Y12.1410
G01 X30.3990 Y12.1710
G01 X31.5510 Y12.1710
G01 X31.5510 Y12.2010
G01 X30.3990 Y12.2010
G01 X30.3990 Y12.2310
G01 X31.5510 Y12.2310
G01 X31.5510 Y12.2610
G01 X30.3990 Y12.2610
G01 X30.3990 Y12.2910
G01 X31.5510 Y12.2910
G01 X31.5510 Y12.3210
G01 X30.3990 Y12.3210
G01 X30.3990 Y12.3510
G01 X31.5510 Y12.3510
G01 X31.5510 Y12.3810
G01 X30.3990 Y12.3810
G01 X30.3990 Y12.4110
G01 X31.5510 Y12.4110
G01 X31.5510 Y12.4410
G01 X30.3990 Y12.4410
G01 X30.3990 Y12.4710
G01 X31.5510 Y12.4710
G01 X31.5510 Y12.5010
G01 X30.3990 Y12.5010
G01 X30.3990 Y12.5310
G01 X31.5510 Y12.5310
G01 X31.5510 Y12.5610
G01 X30.3990 Y12.5610
G01 X30.3990 Y12.5910
G01 X31.5510 Y12.5910
G01 X31.5510 Y12.6210
G01 X30.3990 Y12.6210
G01 X30.3990 Y12.6510
G01 X31.5510 Y12.6510
G01 X31.5510 Y12.6810
G01 X30.3990 Y12.6810
G01 X30.3990 Y12.7110
G01 X31.5510 Y12.7110
G01 X31.5510 Y12.7410
G01 X30.3990 Y12.7410
G01 X30.3990 Y12.7710
G01 X31.5510 Y12.7710
G01 X31.5510 Y12.8010
G01 X30.3990 Y12.8010
G01 X30.3990 Y12.8310
G01 X31.5510 Y12.8310
G01 X31.5510 Y12.8610
G01 X30.3990 Y12.8610
G01 X30.3990 Y12.8910
G01 X31.5510 Y12.8910
G01 X31.5510 Y12.9210
G01 X30.3990 Y12.9210
G01 X30.4000 Y12.9510
G01 X31.5500 Y12.9510
G01 X31.5466 Y12.9810
G01 X30.4034 Y12.9810
G01 X30.4134 Y13.0110
G01 X31.5366 Y13.0110
G01 X31.5183 Y13.0410
G01 X30.4317 Y13.0410
G01 X30.4622 Y13.0710
G01 X31.4878 Y13.0710
G01 X30.5211 Y13.0973
G01 X30.5591 Y13.1010
G01 X31.3909 Y13.1010
G01 X31.4289 Y13.0973
G01 X31.4571 Y13.0887
G01 X31.4832 Y13.0748
G01 X31.5060 Y13.0560
G01 X31.5248 Y13.0332
G01 X31.5387 Y13.0071
G01 X31.5473 Y12.9789
G01 X31.5510 Y12.9409
G01 X31.5510 Y11.8591
G01 X31.5473 Y11.8211
G01 X31.5387 Y11.7929
G01 X31.5248 Y11.7668
G01 X31.5060 Y11.7440
G01 X31.4832 Y11.7252
G01 X31.4571 Y11.7113
G01 X31.4289 Y11.7027
G01 X31.3909 Y11.6990
G01 X30.5591 Y11.6990
G01 X30.5211 Y11.7027
G01 X30.4929 Y11.7113
G01 X30.4668 Y11.7252
G01 X30.4440 Y11.7440
G01 X30.4252 Y11.7668
G01 X30.4113 Y11.7929
G01 X30.4027 Y11.8211
G01 X30.3990 Y11.8591
G01 X30.3990 Y12.9409
G01 X30.4027 Y12.9789
G01 X30.4113 Y13.0071
G01 X30.4252 Y13.0332
G01 X30.4440 Y13.0560
G01 X30.4668 Y13.0748
G01 X30.4929 Y13.0887
G01 X30.5211 Y13.0973
G00 Z2.0000
G00 X30.4177 Y11.7810
G01 F800.00
G01 Z-0.0001
G01 F350.00
G01 X31.5323 Y11.7810
G01 X31.5118 Y11.7510
G01 X30.4382 Y11.7510
G01 X30.4747 Y11.7210
G01 X31.4753 Y11.7210
G00 Z2.0000
G00 X32.4558 Y11.8110
G01 F800.00
G01 Z-0.0001
G01 F350.00
G01 X33.5942 Y11.8110
G01 X33.5992 Y11.8410
G01 X32.4508 Y11.8410
G01 X32.4490 Y11.8710
G01 X33.6010 Y11.8710
G01 X33.6010 Y11.9010
G01 X32.4490 Y11.9010
G01 X32.4490 Y11.9310
G01 X33.6010 Y11.9310
G01 X33.6010 Y11.9610
G01 X32.4490 Y11.9610
G01 X32.4490 Y11.9910
G01 X33.6010 Y11.9910
G01 X33.6010 Y12.0210
G01 X32.4490 Y12.0210
G01 X32.4490 Y12.0510
G01 X33.6010 Y12.0510
G01 X33.6010 Y12.0810
G01 X32.4490 Y12.0810
G01 X32.4490 Y12.1110
G01 X33.6010 Y12.1110
G01 X33.6010 Y12.1410
G01 X32.4490 Y12.1410
G01 X32.4490 Y12.1710
G01 X33.6010 Y12.1710
G01 X33.6010 Y12.2010
G01 X32.4490 Y12.2010
G01 X32.4490 Y12.2310
G01 X33.6010 Y12.2310
G01 X33.6010 Y12.2610
G01 X32.4490 Y12.2610
G01 X32.4490 Y12.2910
G01 X33.6010 Y12.2910
G01 X33.6010 Y12.3210
G01 X32.4490 Y12.3210
G01 X32.4490 Y12.3510
G01 X33.6010 Y12.3510
G01 X33.6010 Y12.3810
G01 X32.4490 Y12.3810
G01 X32.4490 Y12.4110
G01 X33.6010 Y12.4110
G01 X33.6010 Y12.4410
G01 X32.4490 Y12.4410
G01 X32.4490 Y12.4710
G01 X33.6010 Y12.4710
G01 X33.6010 Y12.5010
G01 X32.4490 Y12.5010
G01 X32.4490 Y12.5310
G01 X33.6010 Y12.5310
G01 X33.6010 Y12.5610
G01 X32.4490 Y12.5610
G01 X32.4490 Y12.5910
G01 X33.6010 Y12.5910
G01 X33.6010 Y12.6210
G01 X32.4490 Y12.6210
G01 X32.4490 Y12.6510
G01 X33.6010 Y12.6510
G01 X33.6010 Y12.6810
G01 X32.4490 Y12.6810
G01 X32.4490 Y12.7110
G01 X33.6010 Y12.7110
G01 X33.6010 Y12.7410
G01 X32.4490 Y12.7410
G01 X32.4490 Y12.7710
G01 X33.6010 Y12.7710
G01 X33.6010 Y12.8010
G01 X32.4490 Y12.8010
G01 X32.4490 Y12.8310
G01 X33.6010 Y12.8310
G01 X33.6010 Y12.8610
G01 X32.4490 Y12.8610
G01 X32.4490 Y12.8910
G01 X33.6010 Y12.8910
G01 X33.6010 Y12.9210
G01 X32.4490 Y12.9210
G01 X32.4500 Y12.9510
G01 X33.6000 Y12.9510
G01 X33.5966 Y12.9810
G01 X32.4534 Y12.9810
G01 X32.4634 Y13.0110
G01 X33.5866 Y13.0110
G01 X33.5683 Y13.0410
G01 X32.4817 Y13.0410
G01 X32.5122 Y13.0710
G01 X33.5378 Y13.0710
G01 X32.5711 Y13.0973
G01 X32.6091 Y13.1010
G01 X33.4409 Y13.1010
G01 X33.4789 Y13.0973
G01 X33.5071 Y13.0887
G01 X33.5332 Y13.0748
G01 X33.5560 Y13.0560
G01 X33.5748 Y13.0332
G01 X33.5887 Y13.0071
G01 X33.5973 Y12.9789
G01 X33.6010 Y12.9409
G01 X33.6010 Y11.8591
G01 X33.5973 Y11.8211
G01 X33.5887 Y11.7929
G01 X33.5748 Y11.7668
G01 X33.5560 Y11.7440
G01 X33.5332 Y11.7252
G01 X33.5071 Y11.7113
G01 X33.4789 Y11.7027
G01 X33.4409 Y11.6990
G01 X32.6091 Y11.6990
G01 X32.5711 Y11.7027
G01 X32.5429 Y11.7113
G01 X32.5168 Y11.7252
G01 X32.4940 Y11.7440
G01 X32.4752 Y11.7668
G01 X32.4613 Y11.7929
G01 X32.4527 Y11.8211
G01 X32.4490 Y11.8591
G01 X32.4490 Y12.9409
G01 X32.4527 Y12.9789
G01 X32.4613 Y13.0071
G01 X32.4752 Y13.0332
G01 X32.4940 Y13.0560
G01 X32.5168 Y13.0748
G01 X32.5429 Y13.0887
G01 X32.5711 Y13.0973
G00 Z2.0000
G00 X32.4677 Y11.7810
G01 F800.00
G01 Z-0.0001
G01 F350.00
G01 X33.5823 Y11.7810
G01 X33.5618 Y11.7510
G01 X32.4882 Y11.7510
G01 X32.5247 Y11.7210
G01 X33.5253 Y11.7210
G00 Z2.0000
G00 X35.5046 Y11.3854
G01 F800.00
G01 Z-0.0001
G01 F350.00
G01 X37.4878 Y11.3854
G01 X37.4878 Y11.3554
G01 X35.5046 Y11.3554
G01 X35.5046 Y11.3254
G01 X37.4878 Y11.3254
G01 X37.4878 Y11.2954
G01 X35.5046 Y11.2954
G01 X35.5046 Y11.2654
G01 X37.4878 Y11.2654
G01 X37.4878 Y11.2354
G01 X35.5046 Y11.2354
G01 X35.5046 Y11.2054
G01 X37.4878 Y11.2054
G01 X37.4878 Y11.1754
G01 X35.5046 Y11.1754
G01 X35.5046 Y11.1454
G01 X37.4878 Y11.1454
G01 X37.4878 Y11.1154
G01 X35.5046 Y11.1154
G01 X35.5046 Y11.0854
G01 X37.4878 Y11.0854
G01 X37.4878 Y11.0554
G01 X35.5046 Y11.0554
G01 X35.5046 Y11.0254
G01 X37.4878 Y11.0254
G01 X37.4878 Y10.9954
G01 X35.5046 Y10.9954
G01 X35.5046 Y10.9654
G01 X37.4878 Y10.9654
G01 X37.4878 Y10.9354
G01 X35.5046 Y10.9354
G01 X35.5046 Y10.9054
G01 X37.4878 Y10.9054
G01 X37.4878 Y10.8546
G01 X37.4878 Y11.4154
G01 X35.5046 Y11.4154
G01 X35.5046 Y10.8546
G01 X37.4878 Y10.8546
G01 X37.4878 Y10.8754
G01 X35.5046 Y10.8754
G00 Z2.0000
G00 X35.5046 Y10.1154
G01 F800.00
G01 Z-0.0001
G01 F350.00
G01 X37.4878 Y10.1154
G01 X37.4878 Y10.0854
G01 X35.5046 Y10.0854
G01 X35.5046 Y10.0554
G01 X37.4878 Y10.0554
G01 X37.4878 Y10.0254
G01 X35.5046 Y10.0254
G01 X35.5046 Y9.9954
G01 X37.4878 Y9.9954
G01 X37.4878 Y9.9654
G01 X35.5046 Y9.9654
G01 X35.5046 Y9.9354
G01 X37.4878 Y9.9354
G01 X37.4878 Y9.9054
G01 X35.5046 Y9.9054
G01 X35.5046 Y9.8754
G01 X37.4878 Y9.8754
G01 X37.4878 Y9.8454
G01 X35.5046 Y9.8454
G01 X35.5046 Y9.8154
G01 X37.4878 Y9.8154
G01 X37.4878 Y9.7854
G01 X35.5046 Y9.7854
G01 X35.5046 Y9.7554
G01 X37.4878 Y9.7554
G01 X37.4878 Y9.7254
G01 X35.5046 Y9.7254
G01 X35.5046 Y9.6954
G01 X37.4878 Y9.6954
G01 X37.4878 Y9.6654
G01 X35.5046 Y9.6654
G01 X35.5046 Y9.6354
G01 X37.4878 Y9.6354
G01 X37.4878 Y9.5846
G01 X37.4878 Y10.1454
G01 X35.5046 Y10.1454
G01 X35.5046 Y9.5846
G01 X37.4878 Y9.5846
G01 X37.4878 Y9.6054
G01 X35.5046 Y9.6054
G00 Z2.0000
G00 X35.5046 Y8.8454
G01 F800.00
G01 Z-0.0001
G01 F350.00
G01 X37.4878 Y8.8454
G01 X37.4878 Y8.8154
G01 X35.5046 Y8.8154
G01 X35.5046 Y8.7854
G01 X37.4878 Y8.7854
G01 X37.4878 Y8.7554
G01 X35.5046 Y8.7554
G01 X35.5046 Y8.7254
G01 X37.4878 Y8.7254
G01 X37.4878 Y8.6954
G01 X35.5046 Y8.6954
G01 X35.5046 Y8.6654
G01 X37.4878 Y8.6654
G01 X37.4878 Y8.6354
G01 X35.5046 Y8.6354
G01 X35.5046 Y8.6054
G01 X37.4878 Y8.6054
G01 X37.4878 Y8.5754
G01 X35.5046 Y8.5754
G01 X35.5046 Y8.5454
G01 X37.4878 Y8.5454
G01 X37.4878 Y8.5154
G01 X35.5046 Y8.5154
G01 X35.5046 Y8.4854
G01 X37.4878 Y8.4854
G01 X37.4878 Y8.4554
G01 X35.5046 Y8.4554
G01 X35.5046 Y8.4254
G01 X37.4878 Y8.4254
G01 X37.4878 Y8.3954
G01 X35.5046 Y8.3954
G01 X35.5046 Y8.3654
G01 X37.4878 Y8.3654
G01 X37.4878 Y8.3146
G01 X37.4878 Y8.8754
G01 X35.5046 Y8.8754
G01 X35.5046 Y8.3146
G01 X37.4878 Y8.3146
G01 X37.4878 Y8.3354
G01 X35.5046 Y8.3354
G00 Z2.0000
G00 X34.9916 Y5.8123
G01 F800.00
G01 Z-0.0001
G01 F350.00
G01 X35.4263 Y5.8123
G01 X35.5252 Y5.7823
G01 X34.8927 Y5.7823
G01 X34.8235 Y5.7523
G01 X35.5944 Y5.7523
G01 X35.6505 Y5.7223
G01 X34.7674 Y5.7223
G01 X34.7112 Y5.6923
G01 X35.7067 Y5.6923
G01 X35.7451 Y5.6623
G01 X34.6728 Y5.6623
G01 X34.6363 Y5.6323
G01 X35.7816 Y5.6323
G01 X35.8182 Y5.6023
G01 X34.5997 Y5.6023
G01 X34.5650 Y5.5723
G01 X35.8529 Y5.5723
G01 X35.8775 Y5.5423
G01 X34.5404 Y5.5423
G01 X34.5158 Y5.5123
G01 X35.9021 Y5.5123
G01 X35.9268 Y5.4823
G01 X34.4911 Y5.4823
G01 X34.4665 Y5.4523
G01 X35.9514 Y5.4523
G01 X35.9710 Y5.4223
G01 X34.4469 Y5.4223
G01 X34.4308 Y5.3923
G01 X35.9871 Y5.3923
G01 X36.0031 Y5.3623
G01 X34.4148 Y5.3623
G01 X34.3988 Y5.3323
G01 X36.0191 Y5.3323
G01 X36.0352 Y5.3023
G01 X34.3827 Y5.3023
G01 X34.3692 Y5.2723
G01 X36.0487 Y5.2723
G01 X36.0578 Y5.2423
G01 X34.3601 Y5.2423
G01 X34.3510 Y5.2123
G01 X36.0669 Y5.2123
G01 X36.0760 Y5.1823
G01 X34.3419 Y5.1823
G01 X34.3328 Y5.1523
G01 X36.0851 Y5.1523
G01 X36.0942 Y5.1223
G01 X34.3237 Y5.1223
G01 X34.3189 Y5.0923
G01 X36.0990 Y5.0923
G01 X36.1019 Y5.0623
G01 X34.3160 Y5.0623
G01 X34.3130 Y5.0323
G01 X36.1049 Y5.0323
G01 X36.1078 Y5.0023
G01 X34.3100 Y5.0023
G01 X34.3079 Y4.9723
G01 X36.1099 Y4.9723
G01 X36.1099 Y4.9423
G01 X34.3079 Y4.9423
G01 X34.3079 Y4.9123
G01 X36.1099 Y4.9123
G01 X36.1099 Y4.8823
G01 X34.3079 Y4.8823
G01 X34.3079 Y4.8523
G01 X36.1099 Y4.8523
G01 X36.1099 Y4.8223
G01 X34.3079 Y4.8223
G01 X34.3079 Y4.7923
G01 X36.1099 Y4.7923
G01 X36.1099 Y4.7623
G01 X34.3079 Y4.7623
G01 X34.3079 Y4.7323
G01 X36.1099 Y4.7323
G01 X36.1099 Y4.7023
G01 X34.3079 Y4.7023
G01 X34.3079 Y4.6723
G01 X36.1099 Y4.6723
G01 X36.1099 Y4.6423
G01 X34.3079 Y4.6423
G01 X34.3079 Y4.6123
G01 X36.1099 Y4.6123
G01 X36.1099 Y4.5823
G01 X34.3079 Y4.5823
G01 X34.3079 Y4.5523
G01 X36.1099 Y4.5523
G01 X36.1099 Y4.5223
G01 X34.3079 Y4.5223
G01 X34.3079 Y4.4923
G01 X36.1099 Y4.4923
G01 X36.1099 Y4.4623
G01 X34.3079 Y4.4623
G01 X34.3079 Y4.4323
G01 X36.1099 Y4.4323
G01 X36.1099 Y4.4023
G01 X34.3079 Y4.4023
G01 X34.3079 Y4.3723
G01 X36.1099 Y4.3723
G01 X36.1099 Y4.3423
G01 X34.3079 Y4.3423
G01 X34.3079 Y4.3123
G01 X36.1099 Y4.3123
G01 X36.1099 Y4.2823
G01 X34.3079 Y4.2823
G01 X34.3079 Y4.2523
G01 X36.1099 Y4.2523
G01 X36.1099 Y4.2223
G01 X34.3079 Y4.2223
G01 X34.3079 Y4.1923
G01 X36.1099 Y4.1923
G01 X36.1099 Y4.1623
G01 X34.3079 Y4.1623
G01 X34.3079 Y4.1323
G01 X36.1099 Y4.1323
G01 X36.1099 Y4.1023
G01 X34.3079 Y4.1023
G01 X34.3079 Y4.0723
G01 X36.1099 Y4.0723
G01 X36.1099 Y4.0423
G01 X34.3079 Y4.0423
G01 X34.3079 Y4.0123
G01 X36.1099 Y4.0123
G01 X36.1099 Y3.9823
G01 X34.3079 Y3.9823
G01 X34.3079 Y3.9523
G01 X36.1099 Y3.9523
G01 X36.1099 Y3.9223
G01 X34.3079 Y3.9223
G01 X34.3079 Y3.8923
G01 X36.1099 Y3.8923
G01 X36.1099 Y3.8623
G01 X34.3079 Y3.8623
G01 X34.3079 Y3.8323
G01 X36.1099 Y3.8323
G01 X36.1099 Y3.8023
G01 X34.3079 Y3.8023
G01 X34.3079 Y3.7723
G01 X36.1099 Y3.7723
G01 X36.1099 Y3.7423
G01 X34.3079 Y3.7423
G01 X34.3079 Y3.7123
G01 X36.1099 Y3.7123
G01 X36.1099 Y3.6823
G01 X34.3079 Y3.6823
G01 X34.3079 Y3.6523
G01 X36.1099 Y3.6523
G01 X36.1099 Y3.6223
G01 X34.3079 Y3.6223
G01 X34.3079 Y3.5923
G01 X36.1099 Y3.5923
G01 X36.1099 Y3.5623
G01 X34.3079 Y3.5623
G01 X34.3079 Y3.5323
G01 X36.1099 Y3.5323
G01 X36.1099 Y3.5023
G01 X34.3079 Y3.5023
G01 X34.3079 Y3.4723
G01 X36.1099 Y3.4723
G01 X36.1099 Y3.4423
G01 X34.3079 Y3.4423
G01 X34.3079 Y3.4123
G01 X36.1099 Y3.4123
G01 X36.1099 Y3.3823
G01 X34.3079 Y3.3823
G01 X34.3079 Y3.3523
G01 X36.1099 Y3.3523
G01 X36.1099 Y3.3223
G01 X34.3079 Y3.3223
G01 X34.3079 Y3.2923
G01 X36.1099 Y3.2923
G01 X36.1099 Y3.2623
G01 X34.3079 Y3.2623
G01 X34.3079 Y3.2323
G01 X36.1099 Y3.2323
G01 X36.1099 Y3.2023
G01 X34.3079 Y3.2023
G01 X34.3079 Y3.1723
G01 X36.1099 Y3.1723
G01 X36.1099 Y3.1423
G01 X34.3079 Y3.1423
G01 X34.3079 Y3.1123
G01 X36.1099 Y3.1123
G01 X36.1089 Y3.0823
G01 X34.3089 Y3.0823
G00 Z2.0000
G00 X34.3119 Y3.0523
G01 F800.00
G01 Z-0.0001
G01 F350.00
G01 X36.1060 Y3.0523
G01 X36.1030 Y3.0223
G01 X34.3149 Y3.0223
G01 X34.3178 Y2.9923
G01 X36.1001 Y2.9923
G01 X36.0971 Y2.9623
G01 X34.3208 Y2.9623
G01 X34.3210 Y2.9600
G01 X34.3079 Y3.0924
G01 X34.3079 Y4.9809
G01 X34.3210 Y5.1133
G01 X34.3725 Y5.2831
G01 X34.4562 Y5.4396
G01 X34.5688 Y5.5768
G01 X34.7060 Y5.6894
G01 X34.8625 Y5.7731
G01 X35.0323 Y5.8246
G01 X35.2089 Y5.8420
G01 X35.3856 Y5.8246
G01 X35.5554 Y5.7731
G01 X35.7119 Y5.6894
G01 X35.8491 Y5.5768
G01 X35.9617 Y5.4396
G01 X36.0454 Y5.2831
G01 X36.0969 Y5.1133
G01 X36.1099 Y4.9809
G01 X36.1099 Y3.0924
G01 X36.0969 Y2.9600
G01 X36.0454 Y2.7902
G01 X35.9617 Y2.6337
G01 X35.8491 Y2.4965
G01 X35.7119 Y2.3839
G01 X35.5554 Y2.3002
G01 X35.3856 Y2.2487
G01 X35.2089 Y2.2313
G01 X35.0323 Y2.2487
G01 X34.8625 Y2.3002
G01 X34.7060 Y2.3839
G01 X34.5688 Y2.4965
G01 X34.4562 Y2.6337
G01 X34.3725 Y2.7902
G01 X34.3210 Y2.9600
G01 X34.3294 Y2.9323
G01 X36.0885 Y2.9323
G01 X36.0794 Y2.9023
G01 X34.3385 Y2.9023
G01 X34.3476 Y2.8723
G01 X36.0703 Y2.8723
G01 X36.0612 Y2.8423
G01 X34.3567 Y2.8423
G01 X34.3658 Y2.8123
G01 X36.0521 Y2.8123
G01 X36.0411 Y2.7823
G01 X34.3767 Y2.7823
G01 X34.3928 Y2.7523
G01 X36.0251 Y2.7523
G01 X36.0091 Y2.7223
G01 X34.4088 Y2.7223
G01 X34.4248 Y2.6923
G01 X35.9930 Y2.6923
G01 X35.9770 Y2.6623
G01 X34.4409 Y2.6623
G01 X34.4573 Y2.6323
G01 X35.9606 Y2.6323
G01 X35.9359 Y2.6023
G01 X34.4819 Y2.6023
G01 X34.5066 Y2.5723
G01 X35.9113 Y2.5723
G01 X35.8867 Y2.5423
G01 X34.5312 Y2.5423
G01 X34.5558 Y2.5123
G01 X35.8621 Y2.5123
G01 X35.8318 Y2.4823
G01 X34.5861 Y2.4823
G01 X34.6226 Y2.4523
G01 X35.7953 Y2.4523
G01 X35.7587 Y2.4223
G01 X34.6592 Y2.4223
G01 X34.6957 Y2.3923
G01 X35.7221 Y2.3923
G01 X35.6715 Y2.3623
G01 X34.7464 Y2.3623
G01 X34.8025 Y2.3323
G01 X35.6154 Y2.3323
G00 Z2.0000
G00 X35.5592 Y2.3023
G01 F800.00
G01 Z-0.0001
G01 F350.00
G01 X34.8587 Y2.3023
G01 X34.9546 Y2.2723
G01 X35.4632 Y2.2723
G01 X35.3202 Y2.2423
G01 X35.0977 Y2.2423
G00 Z2.0000
G00 X38.1219 Y3.0523
G01 F800.00
G01 Z-0.0001
G01 F350.00
G01 X39.9160 Y3.0523
G01 X39.9130 Y3.0223
G01 X38.1249 Y3.0223
G01 X38.1278 Y2.9923
G01 X39.9101 Y2.9923
G01 X39.9071 Y2.9623
G01 X38.1308 Y2.9623
G01 X38.1310 Y2.9600
G01 X38.1179 Y3.0924
G01 X38.1179 Y4.9809
G01 X38.1310 Y5.1133
G01 X38.1825 Y5.2831
G01 X38.2662 Y5.4396
G01 X38.3788 Y5.5768
G01 X38.5160 Y5.6894
G01 X38.6725 Y5.7731
G01 X38.8423 Y5.8246
G01 X39.0189 Y5.8420
G01 X39.1956 Y5.8246
G01 X39.3654 Y5.7731
G01 X39.5219 Y5.6894
G01 X39.6591 Y5.5768
G01 X39.7717 Y5.4396
G01 X39.8554 Y5.2831
G01 X39.9069 Y5.1133
G01 X39.9199 Y4.9809
G01 X39.9199 Y3.0924
G01 X39.9069 Y2.9600
G01 X39.8554 Y2.7902
G01 X39.7717 Y2.6337
G01 X39.6591 Y2.4965
G01 X39.5219 Y2.3839
G01 X39.3654 Y2.3002
G01 X39.1956 Y2.2487
G01 X39.0189 Y2.2313
G01 X38.8423 Y2.2487
G01 X38.6725 Y2.3002
G01 X38.5160 Y2.3839
G01 X38.3788 Y2.4965
G01 X38.2662 Y2.6337
G01 X38.1825 Y2.7902
G01 X38.1310 Y2.9600
G01 X38.1394 Y2.9323
G01 X39.8985 Y2.9323
G01 X39.8894 Y2.9023
G01 X38.1485 Y2.9023
G01 X38.1576 Y2.8723
G01 X39.8803 Y2.8723
G01 X39.8712 Y2.8423
G01 X38.1667 Y2.8423
G01 X38.1758 Y2.8123
G01 X39.8621 Y2.8123
G01 X39.8511 Y2.7823
G01 X38.1867 Y2.7823
G01 X38.2028 Y2.7523
G01 X39.8351 Y2.7523
G01 X39.8191 Y2.7223
G01 X38.2188 Y2.7223
G01 X38.2348 Y2.6923
G01 X39.8030 Y2.6923
G01 X39.7870 Y2.6623
G01 X38.2509 Y2.6623
G01 X38.2673 Y2.6323
G01 X39.7706 Y2.6323
G01 X39.7459 Y2.6023
G01 X38.2919 Y2.6023
G01 X38.3166 Y2.5723
G01 X39.7213 Y2.5723
G01 X39.6967 Y2.5423
G01 X38.3412 Y2.5423
G01 X38.3658 Y2.5123
G01 X39.6721 Y2.5123
G01 X39.6418 Y2.4823
G01 X38.3961 Y2.4823
G01 X38.4326 Y2.4523
G01 X39.6053 Y2.4523
G01 X39.5687 Y2.4223
G01 X38.4692 Y2.4223
G01 X38.5057 Y2.3923
G01 X39.5321 Y2.3923
G01 X39.4815 Y2.3623
G01 X38.5564 Y2.3623
G01 X38.6125 Y2.3323
G01 X39.4254 Y2.3323
G00 Z2.0000
G00 X39.3692 Y2.3023
G01 F800.00
G01 Z-0.0001
G01 F350.00
G01 X38.6687 Y2.3023
G01 X38.7646 Y2.2723
G01 X39.2732 Y2.2723
G01 X39.1302 Y2.2423
G01 X38.9077 Y2.2423
G00 Z2.0000
G00 X38.1189 Y3.0823
G01 F800.00
G01 Z-0.0001
G01 F350.00
G01 X39.9189 Y3.0823
G01 X39.9199 Y3.1123
G01 X38.1179 Y3.1123
G01 X38.1179 Y3.1423
G01 X39.9199 Y3.1423
G01 X39.9199 Y3.1723
G01 X38.1179 Y3.1723
G01 X38.1179 Y3.2023
G01 X39.9199 Y3.2023
G01 X39.9199 Y3.2323
G01 X38.1179 Y3.2323
G01 X38.1179 Y3.2623
G01 X39.9199 Y3.2623
G01 X39.9199 Y3.2923
G01 X38.1179 Y3.2923
G01 X38.1179 Y3.3223
G01 X39.9199 Y3.3223
G01 X39.9199 Y3.3523
G01 X38.1179 Y3.3523
G01 X38.1179 Y3.3823
G01 X39.9199 Y3.3823
G01 X39.9199 Y3.4123
G01 X38.1179 Y3.4123
G01 X38.1179 Y3.4423
G01 X39.9199 Y3.4423
G01 X39.9199 Y3.4723
G01 X38.1179 Y3.4723
G01 X38.1179 Y3.5023
G01 X39.9199 Y3.5023
G01 X39.9199 Y3.5323
G01 X38.1179 Y3.5323
G01 X38.1179 Y3.5623
G01 X39.9199 Y3.5623
G01 X39.9199 Y3.5923
G01 X38.1179 Y3.5923
G01 X38.1179 Y3.6223
G01 X39.9199 Y3.6223
G01 X39.9199 Y3.6523
G01 X38.1179 Y3.6523
G01 X38.1179 Y3.6823
G01 X39.9199 Y3.6823
G01 X39.9199 Y3.7123
G01 X38.1179 Y3.7123
G01 X38.1179 Y3.7423
G01 X39.9199 Y3.7423
G01 X39.9199 Y3.7723
G01 X38.1179 Y3.7723
G01 X38.1179 Y3.8023
G01 X39.9199 Y3.8023
G01 X39.9199 Y3.8323
G01 X38.1179 Y3.8323
G01 X38.1179 Y3.8623
G01 X39.9199 Y3.8623
G01 X39.9199 Y3.8923
G01 X38.1179 Y3.8923
G01 X38.1179 Y3.9223
G01 X39.9199 Y3.9223
G01 X39.9199 Y3.9523
G01 X38.1179 Y3.9523
G01 X38.1179 Y3.9823
G01 X39.9199 Y3.9823
G01 X39.9199 Y4.0123
G01 X38.1179 Y4.0123
G01 X38.1179 Y4.0423
G01 X39.9199 Y4.0423
G01 X39.9199 Y4.0723
G01 X38.1179 Y4.0723
G01 X38.1179 Y4.1023
G01 X39.9199 Y4.1023
G01 X39.9199 Y4.1323
G01 X38.1179 Y4.1323
G01 X38.1179 Y4.1623
G01 X39.9199 Y4.1623
G01 X39.9199 Y4.1923
G01 X38.1179 Y4.1923
G01 X38.1179 Y4.2223
G01 X39.9199 Y4.2223
G01 X39.9199 Y4.2523
G01 X38.1179 Y4.2523
G01 X38.1179 Y4.2823
G01 X39.9199 Y4.2823
G01 X39.9199 Y4.3123
G01 X38.1179 Y4.3123
G01 X38.1179 Y4.3423
G01 X39.9199 Y4.3423
G01 X39.9199 Y4.3723
G01 X38.1179 Y4.3723
G01 X38.1179 Y4.4023
G01 X39.9199 Y4.4023
G01 X39.9199 Y4.4323
G01 X38.1179 Y4.4323
G01 X38.1179 Y4.4623
G01 X39.9199 Y4.4623
G01 X39.9199 Y4.4923
G01 X38.1179 Y4.4923
G01 X38.1179 Y4.5223
G01 X39.9199 Y4.5223
G01 X39.9199 Y4.5523
G01 X38.1179 Y4.5523
G01 X38.1179 Y4.5823
G01 X39.9199 Y4.5823
G01 X39.9199 Y4.6123
G01 X38.1179 Y4.6123
G01 X38.1179 Y4.6423
G01 X39.9199 Y4.6423
G01 X39.9199 Y4.6723
G01 X38.1179 Y4.6723
G01 X38.1179 Y4.7023
G01 X39.9199 Y4.7023
G01 X39.9199 Y4.7323
G01 X38.1179 Y4.7323
G01 X38.1179 Y4.7623
G01 X39.9199 Y4.7623
G01 X39.9199 Y4.7923
G01 X38.1179 Y4.7923
G01 X38.1179 Y4.8223
G01 X39.9199 Y4.8223
G01 X39.9199 Y4.8523
G01 X38.1179 Y4.8523
G01 X38.1179 Y4.8823
G01 X39.9199 Y4.8823
G01 X39.9199 Y4.9123
G01 X38.1179 Y4.9123
G01 X38.1179 Y4.9423
G01 X39.9199 Y4.9423
G01 X39.9199 Y4.9723
G01 X38.1179 Y4.9723
G01 X38.1200 Y5.0023
G01 X39.9178 Y5.0023
G01 X39.9149 Y5.0323
G01 X38.1230 Y5.0323
G01 X38.1260 Y5.0623
G01 X39.9119 Y5.0623
G01 X39.9090 Y5.0923
G01 X38.1289 Y5.0923
G01 X38.1337 Y5.1223
G01 X39.9042 Y5.1223
G01 X39.8951 Y5.1523
G01 X38.1428 Y5.1523
G01 X38.1519 Y5.1823
G01 X39.8860 Y5.1823
G01 X39.8769 Y5.2123
G01 X38.1610 Y5.2123
G01 X38.1701 Y5.2423
G01 X39.8678 Y5.2423
G01 X39.8587 Y5.2723
G01 X38.1792 Y5.2723
G01 X38.1927 Y5.3023
G01 X39.8452 Y5.3023
G01 X39.8291 Y5.3323
G01 X38.2088 Y5.3323
G01 X38.2248 Y5.3623
G01 X39.8131 Y5.3623
G01 X39.7971 Y5.3923
G01 X38.2408 Y5.3923
G01 X38.2569 Y5.4223
G01 X39.7810 Y5.4223
G01 X39.7614 Y5.4523
G01 X38.2765 Y5.4523
G01 X38.3011 Y5.4823
G01 X39.7368 Y5.4823
G01 X39.7121 Y5.5123
G01 X38.3258 Y5.5123
G01 X38.3504 Y5.5423
G01 X39.6875 Y5.5423
G01 X39.6629 Y5.5723
G01 X38.3750 Y5.5723
G01 X38.4097 Y5.6023
G01 X39.6282 Y5.6023
G01 X39.5916 Y5.6323
G01 X38.4463 Y5.6323
G01 X38.4828 Y5.6623
G01 X39.5551 Y5.6623
G01 X39.5167 Y5.6923
G01 X38.5212 Y5.6923
G01 X38.5774 Y5.7223
G01 X39.4605 Y5.7223
G01 X39.4044 Y5.7523
G01 X38.6335 Y5.7523
G01 X38.7027 Y5.7823
G01 X39.3352 Y5.7823
G01 X39.2363 Y5.8123
G01 X38.8016 Y5.8123
G00 Z2.0000
G00 X40.4322 Y8.3354
G01 F800.00
G01 Z-0.0001
G01 F350.00
G01 X42.4154 Y8.3354
G01 X42.4154 Y8.3146
G01 X40.4322 Y8.3146
G01 X40.4322 Y8.8754
G01 X42.4154 Y8.8754
G01 X42.4154 Y8.3146
G01 X42.4154 Y8.3654
G01 X40.4322 Y8.3654
G01 X40.4322 Y8.3954
G01 X42.4154 Y8.3954
G01 X42.4154 Y8.4254
G01 X40.4322 Y8.4254
G01 X40.4322 Y8.4554
G01 X42.4154 Y8.4554
G01 X42.4154 Y8.4854
G01 X40.4322 Y8.4854
G01 X40.4322 Y8.5154
G01 X42.4154 Y8.5154
G01 X42.4154 Y8.5454
G01 X40.4322 Y8.5454
G01 X40.4322 Y8.5754
G01 X42.4154 Y8.5754
G01 X42.4154 Y8.6054
G01 X40.4322 Y8.6054
G01 X40.4322 Y8.6354
G01 X42.4154 Y8.6354
G01 X42.4154 Y8.6654
G01 X40.4322 Y8.6654
G01 X40.4322 Y8.6954
G01 X42.4154 Y8.6954
G01 X42.4154 Y8.7254
G01 X40.4322 Y8.7254
G01 X40.4322 Y8.7554
G01 X42.4154 Y8.7554
G01 X42.4154 Y8.7854
G01 X40.4322 Y8.7854
G01 X40.4322 Y8.8154
G01 X42.4154 Y8.8154
G01 X42.4154 Y8.8454
G01 X40.4322 Y8.8454
G00 Z2.0000
G00 X40.4322 Y9.6054
G01 F800.00
G01 Z-0.0001
G01 F350.00
G01 X42.4154 Y9.6054
G01 X42.4154 Y9.5846
G01 X40.4322 Y9.5846
G01 X40.4322 Y10.1454
G01 X42.4154 Y10.1454
G01 X42.4154 Y9.5846
G01 X42.4154 Y9.6354
G01 X40.4322 Y9.6354
G01 X40.4322 Y9.6654
G01 X42.4154 Y9.6654
G01 X42.4154 Y9.6954
G01 X40.4322 Y9.6954
G01 X40.4322 Y9.7254
G01 X42.4154 Y9.7254
G01 X42.4154 Y9.7554
G01 X40.4322 Y9.7554
G01 X40.4322 Y9.7854
G01 X42.4154 Y9.7854
G01 X42.4154 Y9.8154
G01 X40.4322 Y9.8154
G01 X40.4322 Y9.8454
G01 X42.4154 Y9.8454
G01 X42.4154 Y9.8754
G01 X40.4322 Y9.8754
G01 X40.4322 Y9.9054
G01 X42.4154 Y9.9054
G01 X42.4154 Y9.9354
G01 X40.4322 Y9.9354
G01 X40.4322 Y9.9654
G01 X42.4154 Y9.9654
G01 X42.4154 Y9.9954
G01 X40.4322 Y9.9954
G01 X40.4322 Y10.0254
G01 X42.4154 Y10.0254
G01 X42.4154 Y10.0554
G01 X40.4322 Y10.0554
G01 X40.4322 Y10.0854
G01 X42.4154 Y10.0854
G01 X42.4154 Y10.1154
G01 X40.4322 Y10.1154
G00 Z2.0000
G00 X40.4322 Y10.8754
G01 F800.00
G01 Z-0.0001
G01 F350.00
G01 X42.4154 Y10.8754
G01 X42.4154 Y10.8546
G01 X40.4322 Y10.8546
G01 X40.4322 Y11.4154
G01 X42.4154 Y11.4154
G01 X42.4154 Y10.8546
G01 X42.4154 Y10.9054
G01 X40.4322 Y10.9054
G01 X40.4322 Y10.9354
G01 X42.4154 Y10.9354
G01 X42.4154 Y10.9654
G01 X40.4322 Y10.9654
G01 X40.4322 Y10.9954
G01 X42.4154 Y10.9954
G01 X42.4154 Y11.0254
G01 X40.4322 Y11.0254
G01 X40.4322 Y11.0554
G01 X42.4154 Y11.0554
G01 X42.4154 Y11.0854
G01 X40.4322 Y11.0854
G01 X40.4322 Y11.1154
G01 X42.4154 Y11.1154
G01 X42.4154 Y11.1454
G01 X40.4322 Y11.1454
G01 X40.4322 Y11.1754
G01 X42.4154 Y11.1754
G01 X42.4154 Y11.2054
G01 X40.4322 Y11.2054
G01 X40.4322 Y11.2354
G01 X42.4154 Y11.2354
G01 X42.4154 Y11.2654
G01 X40.4322 Y11.2654
G01 X40.4322 Y11.2954
G01 X42.4154 Y11.2954
G01 X42.4154 Y11.3254
G01 X40.4322 Y11.3254
G01 X40.4322 Y11.3554
G01 X42.4154 Y11.3554
G01 X42.4154 Y11.3854
G01 X40.4322 Y11.3854
G00 Z2.0000
G00 X40.4322 Y12.1454
G01 F800.00
G01 Z-0.0001
G01 F350.00
G01 X42.4154 Y12.1454
G01 X42.4154 Y12.1246
G01 X40.4322 Y12.1246
G01 X40.4322 Y12.6854
G01 X42.4154 Y12.6854
G01 X42.4154 Y12.1246
G01 X42.4154 Y12.1754
G01 X40.4322 Y12.1754
G01 X40.4322 Y12.2054
G01 X42.4154 Y12.2054
G01 X42.4154 Y12.2354
G01 X40.4322 Y12.2354
G01 X40.4322 Y12.2654
G01 X42.4154 Y12.2654
G01 X42.4154 Y12.2954
G01 X40.4322 Y12.2954
G01 X40.4322 Y12.3254
G01 X42.4154 Y12.3254
G01 X42.4154 Y12.3554
G01 X40.4322 Y12.3554
G01 X40.4322 Y12.3854
G01 X42.4154 Y12.3854
G01 X42.4154 Y12.4154
G01 X40.4322 Y12.4154
G01 X40.4322 Y12.4454
G01 X42.4154 Y12.4454
G01 X42.4154 Y12.4754
G01 X40.4322 Y12.4754
G01 X40.4322 Y12.5054
G01 X42.4154 Y12.5054
G01 X42.4154 Y12.5354
G01 X40.4322 Y12.5354
G01 X40.4322 Y12.5654
G01 X42.4154 Y12.5654
G01 X42.4154 Y12.5954
G01 X40.4322 Y12.5954
G01 X40.4322 Y12.6254
G01 X42.4154 Y12.6254
G01 X42.4154 Y12.6554
G01 X40.4322 Y12.6554
G00 Z2.0000
G00 X43.4308 Y11.8110
G01 F800.00
G01 Z-0.0001
G01 F350.00
G01 X44.5692 Y11.8110
G01 X44.5742 Y11.8410
G01 X43.4258 Y11.8410
G01 X43.4240 Y11.8710
G01 X44.5760 Y11.8710
G01 X44.5760 Y11.9010
G01 X43.4240 Y11.9010
G01 X43.4240 Y11.9310
G01 X44.5760 Y11.9310
G01 X44.5760 Y11.9610
G01 X43.4240 Y11.9610
G01 X43.4240 Y11.9910
G01 X44.5760 Y11.9910
G01 X44.5760 Y12.0210
G01 X43.4240 Y12.0210
G01 X43.4240 Y12.0510
G01 X44.5760 Y12.0510
G01 X44.5760 Y12.0810
G01 X43.4240 Y12.0810
G01 X43.4240 Y12.1110
G01 X44.5760 Y12.1110
G01 X44.5760 Y12.1410
G01 X43.4240 Y12.1410
G01 X43.4240 Y12.1710
G01 X44.5760 Y12.1710
G01 X44.5760 Y12.2010
G01 X43.4240 Y12.2010
G01 X43.4240 Y12.2310
G01 X44.5760 Y12.2310
G01 X44.5760 Y12.2610
G01 X43.4240 Y12.2610
G01 X43.4240 Y12.2910
G01 X44.5760 Y12.2910
G01 X44.5760 Y12.3210
G01 X43.4240 Y12.3210
G01 X43.4240 Y12.3510
G01 X44.5760 Y12.3510
G01 X44.5760 Y12.3810
G01 X43.4240 Y12.3810
G01 X43.4240 Y12.4110
G01 X44.5760 Y12.4110
G01 X44.5760 Y12.4410
G01 X43.4240 Y12.4410
G01 X43.4240 Y12.4710
G01 X44.5760 Y12.4710
G01 X44.5760 Y12.5010
G01 X43.4240 Y12.5010
G01 X43.4240 Y12.5310
G01 X44.5760 Y12.5310
G01 X44.5760 Y12.5610
G01 X43.4240 Y12.5610
G01 X43.4240 Y12.5910
G01 X44.5760 Y12.5910
G01 X44.5760 Y12.6210
G01 X43.4240 Y12.6210
G01 X43.4240 Y12.6510
G01 X44.5760 Y12.6510
G01 X44.5760 Y12.6810
G01 X43.4240 Y12.6810
G01 X43.4240 Y12.7110
G01 X44.5760 Y12.7110
G01 X44.5760 Y12.7410
G01 X43.4240 Y12.7410
G01 X43.4240 Y12.7710
G01 X44.5760 Y12.7710
G01 X44.5760 Y12.8010
G01 X43.4240 Y12.8010
G01 X43.4240 Y12.8310
G01 X44.5760 Y12.8310
G01 X44.5760 Y12.8610
G01 X43.4240 Y12.8610
G01 X43.4240 Y12.8910
G01 X44.5760 Y12.8910
G01 X44.5760 Y12.9210
G01 X43.4240 Y12.9210
G01 X43.4250 Y12.9510
G01 X44.5750 Y12.9510
G01 X44.5716 Y12.9810
G01 X43.4284 Y12.9810
G01 X43.4384 Y13.0110
G01 X44.5616 Y13.0110
G01 X44.5433 Y13.0410
G01 X43.4567 Y13.0410
G01 X43.4872 Y13.0710
G01 X44.5128 Y13.0710
G01 X43.5461 Y13.0973
G01 X43.5841 Y13.1010
G01 X44.4159 Y13.1010
G01 X44.4539 Y13.0973
G01 X44.4821 Y13.0887
G01 X44.5082 Y13.0748
G01 X44.5310 Y13.0560
G01 X44.5498 Y13.0332
G01 X44.5637 Y13.0071
G01 X44.5723 Y12.9789
G01 X44.5760 Y12.9409
G01 X44.5760 Y11.8591
G01 X44.5723 Y11.8211
G01 X44.5637 Y11.7929
G01 X44.5498 Y11.7668
G01 X44.5310 Y11.7440
G01 X44.5082 Y11.7252
G01 X44.4821 Y11.7113
G01 X44.4539 Y11.7027
G01 X44.4159 Y11.6990
G01 X43.5841 Y11.6990
G01 X43.5461 Y11.7027
G01 X43.5179 Y11.7113
G01 X43.4918 Y11.7252
G01 X43.4690 Y11.7440
G01 X43.4502 Y11.7668
G01 X43.4363 Y11.7929
G01 X43.4277 Y11.8211
G01 X43.4240 Y11.8591
G01 X43.4240 Y12.9409
G01 X43.4277 Y12.9789
G01 X43.4363 Y13.0071
G01 X43.4502 Y13.0332
G01 X43.4690 Y13.0560
G01 X43.4918 Y13.0748
G01 X43.5179 Y13.0887
G01 X43.5461 Y13.0973
G00 Z2.0000
G00 X43.4427 Y11.7810
G01 F800.00
G01 Z-0.0001
G01 F350.00
G01 X44.5573 Y11.7810
G01 X44.5368 Y11.7510
G01 X43.4632 Y11.7510
G01 X43.4997 Y11.7210
G01 X44.5003 Y11.7210
G00 Z2.0000
G00 X45.4808 Y11.8110
G01 F800.00
G01 Z-0.0001
G01 F350.00
G01 X46.6192 Y11.8110
G01 X46.6242 Y11.8410
G01 X45.4758 Y11.8410
G01 X45.4740 Y11.8710
G01 X46.6260 Y11.8710
G01 X46.6260 Y11.9010
G01 X45.4740 Y11.9010
G01 X45.4740 Y11.9310
G01 X46.6260 Y11.9310
G01 X46.6260 Y11.9610
G01 X45.4740 Y11.9610
G01 X45.4740 Y11.9910
G01 X46.6260 Y11.9910
G01 X46.6260 Y12.0210
G01 X45.4740 Y12.0210
G01 X45.4740 Y12.0510
G01 X46.6260 Y12.0510
G01 X46.6260 Y12.0810
G01 X45.4740 Y12.0810
G01 X45.4740 Y12.1110
G01 X46.6260 Y12.1110
G01 X46.6260 Y12.1410
G01 X45.4740 Y12.1410
G01 X45.4740 Y12.1710
G01 X46.6260 Y12.1710
G01 X46.6260 Y12.2010
G01 X45.4740 Y12.2010
G01 X45.4740 Y12.2310
G01 X46.6260 Y12.2310
G01 X46.6260 Y12.2610
G01 X45.4740 Y12.2610
G01 X45.4740 Y12.2910
G01 X46.6260 Y12.2910
G01 X46.6260 Y12.3210
G01 X45.4740 Y12.3210
G01 X45.4740 Y12.3510
G01 X46.6260 Y12.3510
G01 X46.6260 Y12.3810
G01 X45.4740 Y12.3810
G01 X45.4740 Y12.4110
G01 X46.6260 Y12.4110
G01 X46.6260 Y12.4410
G01 X45.4740 Y12.4410
G01 X45.4740 Y12.4710
G01 X46.6260 Y12.4710
G01 X46.6260 Y12.5010
G01 X45.4740 Y12.5010
G01 X45.4740 Y12.5310
G01 X46.6260 Y12.5310
G01 X46.6260 Y12.5610
G01 X45.4740 Y12.5610
G01 X45.4740 Y12.5910
G01 X46.6260 Y12.5910
G01 X46.6260 Y12.6210
G01 X45.4740 Y12.6210
G01 X45.4740 Y12.6510
G01 X46.6260 Y12.6510
G01 X46.6260 Y12.6810
G01 X45.4740 Y12.6810
G01 X45.4740 Y12.7110
G01 X46.6260 Y12.7110
G01 X46.6260 Y12.7410
G01 X45.4740 Y12.7410
G01 X45.4740 Y12.7710
G01 X46.6260 Y12.7710
G01 X46.6260 Y12.8010
G01 X45.4740 Y12.8010
G01 X45.4740 Y12.8310
G01 X46.6260 Y12.8310
G01 X46.6260 Y12.8610
G01 X45.4740 Y12.8610
G01 X45.4740 Y12.8910
G01 X46.6260 Y12.8910
G01 X46.6260 Y12.9210
G01 X45.4740 Y12.9210
G01 X45.4750 Y12.9510
G01 X46.6250 Y12.9510
G01 X46.6216 Y12.9810
G01 X45.4784 Y12.9810
G01 X45.4884 Y13.0110
G01 X46.6116 Y13.0110
G01 X46.5933 Y13.0410
G01 X45.5067 Y13.0410
G01 X45.5372 Y13.0710
G01 X46.5628 Y13.0710
G01 X45.5961 Y13.0973
G01 X45.6341 Y13.1010
G01 X46.4659 Y13.1010
G01 X46.5039 Y13.0973
G01 X46.5321 Y13.0887
G01 X46.5582 Y13.0748
G01 X46.5810 Y13.0560
G01 X46.5998 Y13.0332
G01 X46.6137 Y13.0071
G01 X46.6223 Y12.9789
G01 X46.6260 Y12.9409
G01 X46.6260 Y11.8591
G01 X46.6223 Y11.8211
G01 X46.6137 Y11.7929
G01 X46.5998 Y11.7668
G01 X46.5810 Y11.7440
G01 X46.5582 Y11.7252
G01 X46.5321 Y11.7113
G01 X46.5039 Y11.7027
G01 X46.4659 Y11.6990
G01 X45.6341 Y11.6990
G01 X45.5961 Y11.7027
G01 X45.5679 Y11.7113
G01 X45.5418 Y11.7252
G01 X45.5190 Y11.7440
G01 X45.5002 Y11.7668
G01 X45.4863 Y11.7929
G01 X45.4777 Y11.8211
G01 X45.4740 Y11.8591
G01 X45.4740 Y12.9409
G01 X45.4777 Y12.9789
G01 X45.4863 Y13.0071
G01 X45.5002 Y13.0332
G01 X45.5190 Y13.0560
G01 X45.5418 Y13.0748
G01 X45.5679 Y13.0887
G01 X45.5961 Y13.0973
G00 Z2.0000
G00 X45.4927 Y11.7810
G01 F800.00
G01 Z-0.0001
G01 F350.00
G01 X46.6073 Y11.7810
G01 X46.5868 Y11.7510
G01 X45.5132 Y11.7510
G01 X45.5497 Y11.7210
G01 X46.5503 Y11.7210
G00 Z2.0000
G00 X48.5446 Y11.3854
G01 F800.00
G01 Z-0.0001
G01 F350.00
G01 X50.5278 Y11.3854
G01 X50.5278 Y11.3554
G01 X48.5446 Y11.3554
G01 X48.5446 Y11.3254
G01 X50.5278 Y11.3254
G01 X50.5278 Y11.2954
G01 X48.5446 Y11.2954
G01 X48.5446 Y11.2654
G01 X50.5278 Y11.2654
G01 X50.5278 Y11.2354
G01 X48.5446 Y11.2354
G01 X48.5446 Y11.2054
G01 X50.5278 Y11.2054
G01 X50.5278 Y11.1754
G01 X48.5446 Y11.1754
G01 X48.5446 Y11.1454
G01 X50.5278 Y11.1454
G01 X50.5278 Y11.1154
G01 X48.5446 Y11.1154
G01 X48.5446 Y11.0854
G01 X50.5278 Y11.0854
G01 X50.5278 Y11.0554
G01 X48.5446 Y11.0554
G01 X48.5446 Y11.0254
G01 X50.5278 Y11.0254
G01 X50.5278 Y10.9954
G01 X48.5446 Y10.9954
G01 X48.5446 Y10.9654
G01 X50.5278 Y10.9654
G01 X50.5278 Y10.9354
G01 X48.5446 Y10.9354
G01 X48.5446 Y10.9054
G01 X50.5278 Y10.9054
G01 X50.5278 Y10.8546
G01 X50.5278 Y11.4154
G01 X48.5446 Y11.4154
G01 X48.5446 Y10.8546
G01 X50.5278 Y10.8546
G01 X50.5278 Y10.8754
G01 X48.5446 Y10.8754
G00 Z2.0000
G00 X48.5446 Y10.1154
G01 F800.00
G01 Z-0.0001
G01 F350.00
G01 X50.5278 Y10.1154
G01 X50.5278 Y10.0854
G01 X48.5446 Y10.0854
G01 X48.5446 Y10.0554
G01 X50.5278 Y10.0554
G01 X50.5278 Y10.0254
G01 X48.5446 Y10.0254
G01 X48.5446 Y9.9954
G01 X50.5278 Y9.9954
G01 X50.5278 Y9.9654
G01 X48.5446 Y9.9654
G01 X48.5446 Y9.9354
G01 X50.5278 Y9.9354
G01 X50.5278 Y9.9054
G01 X48.5446 Y9.9054
G01 X48.5446 Y9.8754
G01 X50.5278 Y9.8754
G01 X50.5278 Y9.8454
G01 X48.5446 Y9.8454
G01 X48.5446 Y9.8154
G01 X50.5278 Y9.8154
G01 X50.5278 Y9.7854
G01 X48.5446 Y9.7854
G01 X48.5446 Y9.7554
G01 X50.5278 Y9.7554
G01 X50.5278 Y9.7254
G01 X48.5446 Y9.7254
G01 X48.5446 Y9.6954
G01 X50.5278 Y9.6954
G01 X50.5278 Y9.6654
G01 X48.5446 Y9.6654
G01 X48.5446 Y9.6354
G01 X50.5278 Y9.6354
G01 X50.5278 Y9.5846
G01 X50.5278 Y10.1454
G01 X48.5446 Y10.1454
G01 X48.5446 Y9.5846
G01 X50.5278 Y9.5846
G01 X50.5278 Y9.6054
G01 X48.5446 Y9.6054
G00 Z2.0000
G00 X48.5446 Y8.8454
G01 F800.00
G01 Z-0.0001
G01 F350.00
G01 X50.5278 Y8.8454
G01 X50.5278 Y8.8154
G01 X48.5446 Y8.8154
G01 X48.5446 Y8.7854
G01 X50.5278 Y8.7854
G01 X50.5278 Y8.7554
G01 X48.5446 Y8.7554
G01 X48.5446 Y8.7254
G01 X50.5278 Y8.7254
G01 X50.5278 Y8.6954
G01 X48.5446 Y8.6954
G01 X48.5446 Y8.6654
G01 X50.5278 Y8.6654
G01 X50.5278 Y8.6354
G01 X48.5446 Y8.6354
G01 X48.5446 Y8.6054
G01 X50.5278 Y8.6054
G01 X50.5278 Y8.5754
G01 X48.5446 Y8.5754
G01 X48.5446 Y8.5454
G01 X50.5278 Y8.5454
G01 X50.5278 Y8.5154
G01 X48.5446 Y8.5154
G01 X48.5446 Y8.4854
G01 X50.5278 Y8.4854
G01 X50.5278 Y8.4554
G01 X48.5446 Y8.4554
G01 X48.5446 Y8.4254
G01 X50.5278 Y8.4254
G01 X50.5278 Y8.3954
G01 X48.5446 Y8.3954
G01 X48.5446 Y8.3654
G01 X50.5278 Y8.3654
G01 X50.5278 Y8.3146
G01 X50.5278 Y8.8754
G01 X48.5446 Y8.8754
G01 X48.5446 Y8.3146
G01 X50.5278 Y8.3146
G01 X50.5278 Y8.3354
G01 X48.5446 Y8.3354
G00 Z2.0000
G00 X48.0316 Y5.8123
G01 F800.00
G01 Z-0.0001
G01 F350.00
G01 X48.4663 Y5.8123
G01 X48.5652 Y5.7823
G01 X47.9327 Y5.7823
G01 X47.8635 Y5.7523
G01 X48.6344 Y5.7523
G01 X48.6905 Y5.7223
G01 X47.8074 Y5.7223
G01 X47.7512 Y5.6923
G01 X48.7467 Y5.6923
G01 X48.7851 Y5.6623
G01 X47.7128 Y5.6623
G01 X47.6763 Y5.6323
G01 X48.8216 Y5.6323
G01 X48.8582 Y5.6023
G01 X47.6397 Y5.6023
G01 X47.6050 Y5.5723
G01 X48.8929 Y5.5723
G01 X48.9175 Y5.5423
G01 X47.5804 Y5.5423
G01 X47.5558 Y5.5123
G01 X48.9421 Y5.5123
G01 X48.9668 Y5.4823
G01 X47.5311 Y5.4823
G01 X47.5065 Y5.4523
G01 X48.9914 Y5.4523
G01 X49.0110 Y5.4223
G01 X47.4869 Y5.4223
G01 X47.4708 Y5.3923
G01 X49.0271 Y5.3923
G01 X49.0431 Y5.3623
G01 X47.4548 Y5.3623
G01 X47.4388 Y5.3323
G01 X49.0591 Y5.3323
G01 X49.0752 Y5.3023
G01 X47.4227 Y5.3023
G01 X47.4092 Y5.2723
G01 X49.0887 Y5.2723
G01 X49.0978 Y5.2423
G01 X47.4001 Y5.2423
G01 X47.3910 Y5.2123
G01 X49.1069 Y5.2123
G01 X49.1160 Y5.1823
G01 X47.3819 Y5.1823
G01 X47.3728 Y5.1523
G01 X49.1251 Y5.1523
G01 X49.1342 Y5.1223
G01 X47.3637 Y5.1223
G01 X47.3589 Y5.0923
G01 X49.1390 Y5.0923
G01 X49.1419 Y5.0623
G01 X47.3560 Y5.0623
G01 X47.3530 Y5.0323
G01 X49.1449 Y5.0323
G01 X49.1478 Y5.0023
G01 X47.3500 Y5.0023
G01 X47.3479 Y4.9723
G01 X49.1499 Y4.9723
G01 X49.1499 Y4.9423
G01 X47.3479 Y4.9423
G01 X47.3479 Y4.9123
G01 X49.1499 Y4.9123
G01 X49.1499 Y4.8823
G01 X47.3479 Y4.8823
G01 X47.3479 Y4.8523
G01 X49.1499 Y4.8523
G01 X49.1499 Y4.8223
G01 X47.3479 Y4.8223
G01 X47.3479 Y4.7923
G01 X49.1499 Y4.7923
G01 X49.1499 Y4.7623
G01 X47.3479 Y4.7623
G01 X47.3479 Y4.7323
G01 X49.1499 Y4.7323
G01 X49.1499 Y4.7023
G01 X47.3479 Y4.7023
G01 X47.3479 Y4.6723
G01 X49.1499 Y4.6723
G01 X49.1499 Y4.6423
G01 X47.3479 Y4.6423
G01 X47.3479 Y4.6123
G01 X49.1499 Y4.6123
G01 X49.1499 Y4.5823
G01 X47.3479 Y4.5823
G01 X47.3479 Y4.5523
G01 X49.1499 Y4.5523
G01 X49.1499 Y4.5223
G01 X47.3479 Y4.5223
G01 X47.3479 Y4.4923
G01 X49.1499 Y4.4923
G01 X49.1499 Y4.4623
G01 X47.3479 Y4.4623
G01 X47.3479 Y4.4323
G01 X49.1499 Y4.4323
G01 X49.1499 Y4.4023
G01 X47.3479 Y4.4023
G01 X47.3479 Y4.3723
G01 X49.1499 Y4.3723
G01 X49.1499 Y4.3423
G01 X47.3479 Y4.3423
G01 X47.3479 Y4.3123
G01 X49.1499 Y4.3123
G01 X49.1499 Y4.2823
G01 X47.3479 Y4.2823
G01 X47.3479 Y4.2523
G01 X49.1499 Y4.2523
G01 X49.1499 Y4.2223
G01 X47.3479 Y4.2223
G01 X47.3479 Y4.1923
G01 X49.1499 Y4.1923
G01 X49.1499 Y4.1623
G01 X47.3479 Y4.1623
G01 X47.3479 Y4.1323
G01 X49.1499 Y4.1323
G01 X49.1499 Y4.1023
G01 X47.3479 Y4.1023
G01 X47.3479 Y4.0723
G01 X49.1499 Y4.0723
G01 X49.1499 Y4.0423
G01 X47.3479 Y4.0423
G01 X47.3479 Y4.0123
G01 X49.1499 Y4.0123
G01 X49.1499 Y3.9823
G01 X47.3479 Y3.9823
G01 X47.3479 Y3.9523
G01 X49.1499 Y3.9523
G01 X49.1499 Y3.9223
G01 X47.3479 Y3.9223
G01 X47.3479 Y3.8923
G01 X49.1499 Y3.8923
G01 X49.1499 Y3.8623
G01 X47.3479 Y3.8623
G01 X47.3479 Y3.8323
G01 X49.1499 Y3.8323
G01 X49.1499 Y3.8023
G01 X47.3479 Y3.8023
G01 X47.3479 Y3.7723
G01 X49.1499 Y3.7723
G01 X49.1499 Y3.7423
G01 X47.3479 Y3.7423
G01 X47.3479 Y3.7123
G01 X49.1499 Y3.7123
G01 X49.1499 Y3.6823
G01 X47.3479 Y3.6823
G01 X47.3479 Y3.6523
G01 X49.1499 Y3.6523
G01 X49.1499 Y3.6223
G01 X47.3479 Y3.6223
G01 X47.3479 Y3.5923
G01 X49.1499 Y3.5923
G01 X49.1499 Y3.5623
G01 X47.3479 Y3.5623
G01 X47.3479 Y3.5323
G01 X49.1499 Y3.5323
G01 X49.1499 Y3.5023
G01 X47.3479 Y3.5023
G01 X47.3479 Y3.4723
G01 X49.1499 Y3.4723
G01 X49.1499 Y3.4423
G01 X47.3479 Y3.4423
G01 X47.3479 Y3.4123
G01 X49.1499 Y3.4123
G01 X49.1499 Y3.3823
G01 X47.3479 Y3.3823
G01 X47.3479 Y3.3523
G01 X49.1499 Y3.3523
G01 X49.1499 Y3.3223
G01 X47.3479 Y3.3223
G01 X47.3479 Y3.2923
G01 X49.1499 Y3.2923
G01 X49.1499 Y3.2623
G01 X47.3479 Y3.2623
G01 X47.3479 Y3.2323
G01 X49.1499 Y3.2323
G01 X49.1499 Y3.2023
G01 X47.3479 Y3.2023
G01 X47.3479 Y3.1723
G01 X49.1499 Y3.1723
G01 X49.1499 Y3.1423
G01 X47.3479 Y3.1423
G01 X47.3479 Y3.1123
G01 X49.1499 Y3.1123
G01 X49.1489 Y3.0823
G01 X47.3489 Y3.0823
G00 Z2.0000
G00 X47.3519 Y3.0523
G01 F800.00
G01 Z-0.0001
G01 F350.00
G01 X49.1460 Y3.0523
G01 X49.1430 Y3.0223
G01 X47.3549 Y3.0223
G01 X47.3578 Y2.9923
G01 X49.1401 Y2.9923
G01 X49.1371 Y2.9623
G01 X47.3608 Y2.9623
G01 X47.3610 Y2.9600
G01 X47.3479 Y3.0924
G01 X47.3479 Y4.9809
G01 X47.3610 Y5.1133
G01 X47.4125 Y5.2831
G01 X47.4962 Y5.4396
G01 X47.6088 Y5.5768
G01 X47.7460 Y5.6894
G01 X47.9025 Y5.7731
G01 X48.0723 Y5.8246
G01 X48.2489 Y5.8420
G01 X48.4256 Y5.8246
G01 X48.5954 Y5.7731
G01 X48.7519 Y5.6894
G01 X48.8891 Y5.5768
G01 X49.0017 Y5.4396
G01 X49.0854 Y5.2831
G01 X49.1369 Y5.1133
G01 X49.1499 Y4.9809
G01 X49.1499 Y3.0924
G01 X49.1369 Y2.9600
G01 X49.0854 Y2.7902
G01 X49.0017 Y2.6337
G01 X48.8891 Y2.4965
G01 X48.7519 Y2.3839
G01 X48.5954 Y2.3002
G01 X48.4256 Y2.2487
G01 X48.2489 Y2.2313
G01 X48.0723 Y2.2487
G01 X47.9025 Y2.3002
G01 X47.7460 Y2.3839
G01 X47.6088 Y2.4965
G01 X47.4962 Y2.6337
G01 X47.4125 Y2.7902
G01 X47.3610 Y2.9600
G01 X47.3694 Y2.9323
G01 X49.1285 Y2.9323
G01 X49.1194 Y2.9023
G01 X47.3785 Y2.9023
G01 X47.3876 Y2.8723
G01 X49.1103 Y2.8723
G01 X49.1012 Y2.8423
G01 X47.3967 Y2.8423
G01 X47.4058 Y2.8123
G01 X49.0921 Y2.8123
G01 X49.0811 Y2.7823
G01 X47.4167 Y2.7823
G01 X47.4328 Y2.7523
G01 X49.0651 Y2.7523
G01 X49.0491 Y2.7223
G01 X47.4488 Y2.7223
G01 X47.4648 Y2.6923
G01 X49.0330 Y2.6923
G01 X49.0170 Y2.6623
G01 X47.4809 Y2.6623
G01 X47.4973 Y2.6323
G01 X49.0006 Y2.6323
G01 X48.9759 Y2.6023
G01 X47.5219 Y2.6023
G01 X47.5466 Y2.5723
G01 X48.9513 Y2.5723
G01 X48.9267 Y2.5423
