(G-CODE GENERATED BY FLATCAM v8.991 - www.flatcam.org - Version Date: 2019/12/27)

(Name: 04 - 1mm Endmill Mill Holes)
(Type: G-code from Geometry)
(Units: MM)

(Created on Monday, 16 March 2020 at 11:58)

(TOOL DIAMETER: 1.0 mm)
(Feedrate: 350.0 mm/min)
(Feedrate_Z: 800.0 mm/min)
(Feedrate rapids 1500.0 mm/min)

(Z_Cut: -1.8 mm)
(DepthPerCut: 0.9 mm <=>2 passes)
(Z_Move: 2.0 mm)
(Z Toolchange: 15.0 mm)
(X,Y Toolchange: 0.0000, 0.0000 mm)
(Z Start: None mm)
(Z End: 15.0 mm)
(Steps per circle: 64)
(Preprocessor Geometry: default)

(X range:    1.8509 ...   63.1505  mm)
(Y range:    3.8866 ...   17.2995  mm)

(Spindle Speed: 24000 RPM)
G21
G90
G94

M08


G01 F350.00
G00 Z2.0000

M03 S24000
G00 X9.2796 Y4.0361
G01 F800.00
G01 Z-0.9000
G01 F350.00
G01 X9.2789 Y4.0214
G01 X9.2767 Y4.0069
G01 X9.2732 Y3.9927
G01 X9.2682 Y3.9789
G01 X9.2620 Y3.9656
G01 X9.2544 Y3.9530
G01 X9.2457 Y3.9413
G01 X9.2358 Y3.9304
G01 X9.2250 Y3.9205
G01 X9.2132 Y3.9118
G01 X9.2006 Y3.9043
G01 X9.1873 Y3.8980
G01 X9.1735 Y3.8931
G01 X9.1593 Y3.8895
G01 X9.1448 Y3.8873
G01 X9.1302 Y3.8866
G01 X9.1155 Y3.8873
G01 X9.1010 Y3.8895
G01 X9.0868 Y3.8931
G01 X9.0730 Y3.8980
G01 X9.0597 Y3.9043
G01 X9.0471 Y3.9118
G01 X9.0354 Y3.9205
G01 X9.0245 Y3.9304
G01 X9.0146 Y3.9413
G01 X9.0059 Y3.9530
G01 X8.9984 Y3.9656
G01 X8.9921 Y3.9789
G01 X8.9872 Y3.9927
G01 X8.9836 Y4.0069
G01 X8.9814 Y4.0214
G01 X8.9807 Y4.0361
G01 X8.9814 Y4.0507
G01 X8.9836 Y4.0652
G01 X8.9872 Y4.0794
G01 X8.9921 Y4.0932
G01 X8.9984 Y4.1065
G01 X9.0059 Y4.1191
G01 X9.0146 Y4.1309
G01 X9.0245 Y4.1417
G01 X9.0354 Y4.1516
G01 X9.0471 Y4.1603
G01 X9.0597 Y4.1679
G01 X9.0730 Y4.1741
G01 X9.0868 Y4.1791
G01 X9.1010 Y4.1826
G01 X9.1155 Y4.1848
G01 X9.1302 Y4.1855
G01 X9.1448 Y4.1848
G01 X9.1593 Y4.1826
G01 X9.1735 Y4.1791
G01 X9.1873 Y4.1741
G01 X9.2006 Y4.1679
G01 X9.2132 Y4.1603
G01 X9.2250 Y4.1516
G01 X9.2358 Y4.1417
G01 X9.2457 Y4.1309
G01 X9.2544 Y4.1191
G01 X9.2620 Y4.1065
G01 X9.2682 Y4.0932
G01 X9.2732 Y4.0794
G01 X9.2767 Y4.0652
G01 X9.2789 Y4.0507
G01 X9.2796 Y4.0361
G00 X9.2796 Y4.0361
G01 F800.00
G01 Z-1.8000
G01 F350.00
G01 X9.2789 Y4.0214
G01 X9.2767 Y4.0069
G01 X9.2732 Y3.9927
G01 X9.2682 Y3.9789
G01 X9.2620 Y3.9656
G01 X9.2544 Y3.9530
G01 X9.2457 Y3.9413
G01 X9.2358 Y3.9304
G01 X9.2250 Y3.9205
G01 X9.2132 Y3.9118
G01 X9.2006 Y3.9043
G01 X9.1873 Y3.8980
G01 X9.1735 Y3.8931
G01 X9.1593 Y3.8895
G01 X9.1448 Y3.8873
G01 X9.1302 Y3.8866
G01 X9.1155 Y3.8873
G01 X9.1010 Y3.8895
G01 X9.0868 Y3.8931
G01 X9.0730 Y3.8980
G01 X9.0597 Y3.9043
G01 X9.0471 Y3.9118
G01 X9.0354 Y3.9205
G01 X9.0245 Y3.9304
G01 X9.0146 Y3.9413
G01 X9.0059 Y3.9530
G01 X8.9984 Y3.9656
G01 X8.9921 Y3.9789
G01 X8.9872 Y3.9927
G01 X8.9836 Y4.0069
G01 X8.9814 Y4.0214
G01 X8.9807 Y4.0361
G01 X8.9814 Y4.0507
G01 X8.9836 Y4.0652
G01 X8.9872 Y4.0794
G01 X8.9921 Y4.0932
G01 X8.9984 Y4.1065
G01 X9.0059 Y4.1191
G01 X9.0146 Y4.1309
G01 X9.0245 Y4.1417
G01 X9.0354 Y4.1516
G01 X9.0471 Y4.1603
G01 X9.0597 Y4.1679
G01 X9.0730 Y4.1741
G01 X9.0868 Y4.1791
G01 X9.1010 Y4.1826
G01 X9.1155 Y4.1848
G01 X9.1302 Y4.1855
G01 X9.1448 Y4.1848
G01 X9.1593 Y4.1826
G01 X9.1735 Y4.1791
G01 X9.1873 Y4.1741
G01 X9.2006 Y4.1679
G01 X9.2132 Y4.1603
G01 X9.2250 Y4.1516
G01 X9.2358 Y4.1417
G01 X9.2457 Y4.1309
G01 X9.2544 Y4.1191
G01 X9.2620 Y4.1065
G01 X9.2682 Y4.0932
G01 X9.2732 Y4.0794
G01 X9.2767 Y4.0652
G01 X9.2789 Y4.0507
G01 X9.2796 Y4.0361
G00 Z2.0000
G00 X13.0896 Y4.0361
G01 F800.00
G01 Z-0.9000
G01 F350.00
G01 X13.0889 Y4.0214
G01 X13.0867 Y4.0069
G01 X13.0832 Y3.9927
G01 X13.0782 Y3.9789
G01 X13.0720 Y3.9656
G01 X13.0644 Y3.9530
G01 X13.0557 Y3.9413
G01 X13.0458 Y3.9304
G01 X13.0350 Y3.9205
G01 X13.0232 Y3.9118
G01 X13.0106 Y3.9043
G01 X12.9973 Y3.8980
G01 X12.9835 Y3.8931
G01 X12.9693 Y3.8895
G01 X12.9548 Y3.8873
G01 X12.9402 Y3.8866
G01 X12.9255 Y3.8873
G01 X12.9110 Y3.8895
G01 X12.8968 Y3.8931
G01 X12.8830 Y3.8980
G01 X12.8697 Y3.9043
G01 X12.8571 Y3.9118
G01 X12.8454 Y3.9205
G01 X12.8345 Y3.9304
G01 X12.8246 Y3.9413
G01 X12.8159 Y3.9530
G01 X12.8084 Y3.9656
G01 X12.8021 Y3.9789
G01 X12.7972 Y3.9927
G01 X12.7936 Y4.0069
G01 X12.7914 Y4.0214
G01 X12.7907 Y4.0361
G01 X12.7914 Y4.0507
G01 X12.7936 Y4.0652
G01 X12.7972 Y4.0794
G01 X12.8021 Y4.0932
G01 X12.8084 Y4.1065
G01 X12.8159 Y4.1191
G01 X12.8246 Y4.1309
G01 X12.8345 Y4.1417
G01 X12.8454 Y4.1516
G01 X12.8571 Y4.1603
G01 X12.8697 Y4.1679
G01 X12.8830 Y4.1741
G01 X12.8968 Y4.1791
G01 X12.9110 Y4.1826
G01 X12.9255 Y4.1848
G01 X12.9402 Y4.1855
G01 X12.9548 Y4.1848
G01 X12.9693 Y4.1826
G01 X12.9835 Y4.1791
G01 X12.9973 Y4.1741
G01 X13.0106 Y4.1679
G01 X13.0232 Y4.1603
G01 X13.0350 Y4.1516
G01 X13.0458 Y4.1417
G01 X13.0557 Y4.1309
G01 X13.0644 Y4.1191
G01 X13.0720 Y4.1065
G01 X13.0782 Y4.0932
G01 X13.0832 Y4.0794
G01 X13.0867 Y4.0652
G01 X13.0889 Y4.0507
G01 X13.0896 Y4.0361
G00 X13.0896 Y4.0361
G01 F800.00
G01 Z-1.8000
G01 F350.00
G01 X13.0889 Y4.0214
G01 X13.0867 Y4.0069
G01 X13.0832 Y3.9927
G01 X13.0782 Y3.9789
G01 X13.0720 Y3.9656
G01 X13.0644 Y3.9530
G01 X13.0557 Y3.9413
G01 X13.0458 Y3.9304
G01 X13.0350 Y3.9205
G01 X13.0232 Y3.9118
G01 X13.0106 Y3.9043
G01 X12.9973 Y3.8980
G01 X12.9835 Y3.8931
G01 X12.9693 Y3.8895
G01 X12.9548 Y3.8873
G01 X12.9402 Y3.8866
G01 X12.9255 Y3.8873
G01 X12.9110 Y3.8895
G01 X12.8968 Y3.8931
G01 X12.8830 Y3.8980
G01 X12.8697 Y3.9043
G01 X12.8571 Y3.9118
G01 X12.8454 Y3.9205
G01 X12.8345 Y3.9304
G01 X12.8246 Y3.9413
G01 X12.8159 Y3.9530
G01 X12.8084 Y3.9656
G01 X12.8021 Y3.9789
G01 X12.7972 Y3.9927
G01 X12.7936 Y4.0069
G01 X12.7914 Y4.0214
G01 X12.7907 Y4.0361
G01 X12.7914 Y4.0507
G01 X12.7936 Y4.0652
G01 X12.7972 Y4.0794
G01 X12.8021 Y4.0932
G01 X12.8084 Y4.1065
G01 X12.8159 Y4.1191
G01 X12.8246 Y4.1309
G01 X12.8345 Y4.1417
G01 X12.8454 Y4.1516
G01 X12.8571 Y4.1603
G01 X12.8697 Y4.1679
G01 X12.8830 Y4.1741
G01 X12.8968 Y4.1791
G01 X12.9110 Y4.1826
G01 X12.9255 Y4.1848
G01 X12.9402 Y4.1855
G01 X12.9548 Y4.1848
G01 X12.9693 Y4.1826
G01 X12.9835 Y4.1791
G01 X12.9973 Y4.1741
G01 X13.0106 Y4.1679
G01 X13.0232 Y4.1603
G01 X13.0350 Y4.1516
G01 X13.0458 Y4.1417
G01 X13.0557 Y4.1309
G01 X13.0644 Y4.1191
G01 X13.0720 Y4.1065
G01 X13.0782 Y4.0932
G01 X13.0832 Y4.0794
G01 X13.0867 Y4.0652
G01 X13.0889 Y4.0507
G01 X13.0896 Y4.0361
G00 Z2.0000
G00 X16.8996 Y4.0361
G01 F800.00
G01 Z-0.9000
G01 F350.00
G01 X16.8989 Y4.0214
G01 X16.8967 Y4.0069
G01 X16.8932 Y3.9927
G01 X16.8882 Y3.9789
G01 X16.8820 Y3.9656
G01 X16.8744 Y3.9530
G01 X16.8657 Y3.9413
G01 X16.8558 Y3.9304
G01 X16.8450 Y3.9205
G01 X16.8332 Y3.9118
G01 X16.8206 Y3.9043
G01 X16.8073 Y3.8980
G01 X16.7935 Y3.8931
G01 X16.7793 Y3.8895
G01 X16.7648 Y3.8873
G01 X16.7502 Y3.8866
G01 X16.7355 Y3.8873
G01 X16.7210 Y3.8895
G01 X16.7068 Y3.8931
G01 X16.6930 Y3.8980
G01 X16.6797 Y3.9043
G01 X16.6671 Y3.9118
G01 X16.6554 Y3.9205
G01 X16.6445 Y3.9304
G01 X16.6346 Y3.9413
G01 X16.6259 Y3.9530
G01 X16.6184 Y3.9656
G01 X16.6121 Y3.9789
G01 X16.6072 Y3.9927
G01 X16.6036 Y4.0069
G01 X16.6014 Y4.0214
G01 X16.6007 Y4.0361
G01 X16.6014 Y4.0507
G01 X16.6036 Y4.0652
G01 X16.6072 Y4.0794
G01 X16.6121 Y4.0932
G01 X16.6184 Y4.1065
G01 X16.6259 Y4.1191
G01 X16.6346 Y4.1309
G01 X16.6445 Y4.1417
G01 X16.6554 Y4.1516
G01 X16.6671 Y4.1603
G01 X16.6797 Y4.1679
G01 X16.6930 Y4.1741
G01 X16.7068 Y4.1791
G01 X16.7210 Y4.1826
G01 X16.7355 Y4.1848
G01 X16.7502 Y4.1855
G01 X16.7648 Y4.1848
G01 X16.7793 Y4.1826
G01 X16.7935 Y4.1791
G01 X16.8073 Y4.1741
G01 X16.8206 Y4.1679
G01 X16.8332 Y4.1603
G01 X16.8450 Y4.1516
G01 X16.8558 Y4.1417
G01 X16.8657 Y4.1309
G01 X16.8744 Y4.1191
G01 X16.8820 Y4.1065
G01 X16.8882 Y4.0932
G01 X16.8932 Y4.0794
G01 X16.8967 Y4.0652
G01 X16.8989 Y4.0507
G01 X16.8996 Y4.0361
G00 X16.8996 Y4.0361
G01 F800.00
G01 Z-1.8000
G01 F350.00
G01 X16.8989 Y4.0214
G01 X16.8967 Y4.0069
G01 X16.8932 Y3.9927
G01 X16.8882 Y3.9789
G01 X16.8820 Y3.9656
G01 X16.8744 Y3.9530
G01 X16.8657 Y3.9413
G01 X16.8558 Y3.9304
G01 X16.8450 Y3.9205
G01 X16.8332 Y3.9118
G01 X16.8206 Y3.9043
G01 X16.8073 Y3.8980
G01 X16.7935 Y3.8931
G01 X16.7793 Y3.8895
G01 X16.7648 Y3.8873
G01 X16.7502 Y3.8866
G01 X16.7355 Y3.8873
G01 X16.7210 Y3.8895
G01 X16.7068 Y3.8931
G01 X16.6930 Y3.8980
G01 X16.6797 Y3.9043
G01 X16.6671 Y3.9118
G01 X16.6554 Y3.9205
G01 X16.6445 Y3.9304
G01 X16.6346 Y3.9413
G01 X16.6259 Y3.9530
G01 X16.6184 Y3.9656
G01 X16.6121 Y3.9789
G01 X16.6072 Y3.9927
G01 X16.6036 Y4.0069
G01 X16.6014 Y4.0214
G01 X16.6007 Y4.0361
G01 X16.6014 Y4.0507
G01 X16.6036 Y4.0652
G01 X16.6072 Y4.0794
G01 X16.6121 Y4.0932
G01 X16.6184 Y4.1065
G01 X16.6259 Y4.1191
G01 X16.6346 Y4.1309
G01 X16.6445 Y4.1417
G01 X16.6554 Y4.1516
G01 X16.6671 Y4.1603
G01 X16.6797 Y4.1679
G01 X16.6930 Y4.1741
G01 X16.7068 Y4.1791
G01 X16.7210 Y4.1826
G01 X16.7355 Y4.1848
G01 X16.7502 Y4.1855
G01 X16.7648 Y4.1848
G01 X16.7793 Y4.1826
G01 X16.7935 Y4.1791
G01 X16.8073 Y4.1741
G01 X16.8206 Y4.1679
G01 X16.8332 Y4.1603
G01 X16.8450 Y4.1516
G01 X16.8558 Y4.1417
G01 X16.8657 Y4.1309
G01 X16.8744 Y4.1191
G01 X16.8820 Y4.1065
G01 X16.8882 Y4.0932
G01 X16.8932 Y4.0794
G01 X16.8967 Y4.0652
G01 X16.8989 Y4.0507
G01 X16.8996 Y4.0361
G00 Z2.0000
G00 X22.3174 Y4.0361
G01 F800.00
G01 Z-0.9000
G01 F350.00
G01 X22.3167 Y4.0214
G01 X22.3145 Y4.0069
G01 X22.3110 Y3.9927
G01 X22.3060 Y3.9789
G01 X22.2998 Y3.9656
G01 X22.2922 Y3.9530
G01 X22.2835 Y3.9413
G01 X22.2737 Y3.9304
G01 X22.2628 Y3.9205
G01 X22.2510 Y3.9118
G01 X22.2384 Y3.9043
G01 X22.2252 Y3.8980
G01 X22.2114 Y3.8931
G01 X22.1971 Y3.8895
G01 X22.1826 Y3.8873
G01 X22.1680 Y3.8866
G01 X22.1533 Y3.8873
G01 X22.1388 Y3.8895
G01 X22.1246 Y3.8931
G01 X22.1108 Y3.8980
G01 X22.0975 Y3.9043
G01 X22.0850 Y3.9118
G01 X22.0732 Y3.9205
G01 X22.0623 Y3.9304
G01 X22.0525 Y3.9413
G01 X22.0437 Y3.9530
G01 X22.0362 Y3.9656
G01 X22.0299 Y3.9789
G01 X22.0250 Y3.9927
G01 X22.0214 Y4.0069
G01 X22.0193 Y4.0214
G01 X22.0185 Y4.0361
G01 X22.0193 Y4.0507
G01 X22.0214 Y4.0652
G01 X22.0250 Y4.0794
G01 X22.0299 Y4.0932
G01 X22.0362 Y4.1065
G01 X22.0437 Y4.1191
G01 X22.0525 Y4.1309
G01 X22.0623 Y4.1417
G01 X22.0732 Y4.1516
G01 X22.0850 Y4.1603
G01 X22.0975 Y4.1679
G01 X22.1108 Y4.1741
G01 X22.1246 Y4.1791
G01 X22.1388 Y4.1826
G01 X22.1533 Y4.1848
G01 X22.1680 Y4.1855
G01 X22.1826 Y4.1848
G01 X22.1971 Y4.1826
G01 X22.2114 Y4.1791
G01 X22.2252 Y4.1741
G01 X22.2384 Y4.1679
G01 X22.2510 Y4.1603
G01 X22.2628 Y4.1516
G01 X22.2737 Y4.1417
G01 X22.2835 Y4.1309
G01 X22.2922 Y4.1191
G01 X22.2998 Y4.1065
G01 X22.3060 Y4.0932
G01 X22.3110 Y4.0794
G01 X22.3145 Y4.0652
G01 X22.3167 Y4.0507
G01 X22.3174 Y4.0361
G00 X22.3174 Y4.0361
G01 F800.00
G01 Z-1.8000
G01 F350.00
G01 X22.3167 Y4.0214
G01 X22.3145 Y4.0069
G01 X22.3110 Y3.9927
G01 X22.3060 Y3.9789
G01 X22.2998 Y3.9656
G01 X22.2922 Y3.9530
G01 X22.2835 Y3.9413
G01 X22.2737 Y3.9304
G01 X22.2628 Y3.9205
G01 X22.2510 Y3.9118
G01 X22.2384 Y3.9043
G01 X22.2252 Y3.8980
G01 X22.2114 Y3.8931
G01 X22.1971 Y3.8895
G01 X22.1826 Y3.8873
G01 X22.1680 Y3.8866
G01 X22.1533 Y3.8873
G01 X22.1388 Y3.8895
G01 X22.1246 Y3.8931
G01 X22.1108 Y3.8980
G01 X22.0975 Y3.9043
G01 X22.0850 Y3.9118
G01 X22.0732 Y3.9205
G01 X22.0623 Y3.9304
G01 X22.0525 Y3.9413
G01 X22.0437 Y3.9530
G01 X22.0362 Y3.9656
G01 X22.0299 Y3.9789
G01 X22.0250 Y3.9927
G01 X22.0214 Y4.0069
G01 X22.0193 Y4.0214
G01 X22.0185 Y4.0361
G01 X22.0193 Y4.0507
G01 X22.0214 Y4.0652
G01 X22.0250 Y4.0794
G01 X22.0299 Y4.0932
G01 X22.0362 Y4.1065
G01 X22.0437 Y4.1191
G01 X22.0525 Y4.1309
G01 X22.0623 Y4.1417
G01 X22.0732 Y4.1516
G01 X22.0850 Y4.1603
G01 X22.0975 Y4.1679
G01 X22.1108 Y4.1741
G01 X22.1246 Y4.1791
G01 X22.1388 Y4.1826
G01 X22.1533 Y4.1848
G01 X22.1680 Y4.1855
G01 X22.1826 Y4.1848
G01 X22.1971 Y4.1826
G01 X22.2114 Y4.1791
G01 X22.2252 Y4.1741
G01 X22.2384 Y4.1679
G01 X22.2510 Y4.1603
G01 X22.2628 Y4.1516
G01 X22.2737 Y4.1417
G01 X22.2835 Y4.1309
G01 X22.2922 Y4.1191
G01 X22.2998 Y4.1065
G01 X22.3060 Y4.0932
G01 X22.3110 Y4.0794
G01 X22.3145 Y4.0652
G01 X22.3167 Y4.0507
G01 X22.3174 Y4.0361
G00 Z2.0000
G00 X26.1274 Y4.0361
G01 F800.00
G01 Z-0.9000
G01 F350.00
G01 X26.1267 Y4.0214
G01 X26.1245 Y4.0069
G01 X26.1210 Y3.9927
G01 X26.1160 Y3.9789
G01 X26.1098 Y3.9656
G01 X26.1022 Y3.9530
G01 X26.0935 Y3.9413
G01 X26.0837 Y3.9304
G01 X26.0728 Y3.9205
G01 X26.0610 Y3.9118
G01 X26.0484 Y3.9043
G01 X26.0352 Y3.8980
G01 X26.0214 Y3.8931
G01 X26.0071 Y3.8895
G01 X25.9926 Y3.8873
G01 X25.9780 Y3.8866
G01 X25.9633 Y3.8873
G01 X25.9488 Y3.8895
G01 X25.9346 Y3.8931
G01 X25.9208 Y3.8980
G01 X25.9075 Y3.9043
G01 X25.8950 Y3.9118
G01 X25.8832 Y3.9205
G01 X25.8723 Y3.9304
G01 X25.8625 Y3.9413
G01 X25.8537 Y3.9530
G01 X25.8462 Y3.9656
G01 X25.8399 Y3.9789
G01 X25.8350 Y3.9927
G01 X25.8314 Y4.0069
G01 X25.8293 Y4.0214
G01 X25.8285 Y4.0361
G01 X25.8293 Y4.0507
G01 X25.8314 Y4.0652
G01 X25.8350 Y4.0794
G01 X25.8399 Y4.0932
G01 X25.8462 Y4.1065
G01 X25.8537 Y4.1191
G01 X25.8625 Y4.1309
G01 X25.8723 Y4.1417
G01 X25.8832 Y4.1516
G01 X25.8950 Y4.1603
G01 X25.9075 Y4.1679
G01 X25.9208 Y4.1741
G01 X25.9346 Y4.1791
G01 X25.9488 Y4.1826
G01 X25.9633 Y4.1848
G01 X25.9780 Y4.1855
G01 X25.9926 Y4.1848
G01 X26.0071 Y4.1826
G01 X26.0214 Y4.1791
G01 X26.0352 Y4.1741
G01 X26.0484 Y4.1679
G01 X26.0610 Y4.1603
G01 X26.0728 Y4.1516
G01 X26.0837 Y4.1417
G01 X26.0935 Y4.1309
G01 X26.1022 Y4.1191
G01 X26.1098 Y4.1065
G01 X26.1160 Y4.0932
G01 X26.1210 Y4.0794
G01 X26.1245 Y4.0652
G01 X26.1267 Y4.0507
G01 X26.1274 Y4.0361
G00 X26.1274 Y4.0361
G01 F800.00
G01 Z-1.8000
G01 F350.00
G01 X26.1267 Y4.0214
G01 X26.1245 Y4.0069
G01 X26.1210 Y3.9927
G01 X26.1160 Y3.9789
G01 X26.1098 Y3.9656
G01 X26.1022 Y3.9530
G01 X26.0935 Y3.9413
G01 X26.0837 Y3.9304
G01 X26.0728 Y3.9205
G01 X26.0610 Y3.9118
G01 X26.0484 Y3.9043
G01 X26.0352 Y3.8980
G01 X26.0214 Y3.8931
G01 X26.0071 Y3.8895
G01 X25.9926 Y3.8873
G01 X25.9780 Y3.8866
G01 X25.9633 Y3.8873
G01 X25.9488 Y3.8895
G01 X25.9346 Y3.8931
G01 X25.9208 Y3.8980
G01 X25.9075 Y3.9043
G01 X25.8950 Y3.9118
G01 X25.8832 Y3.9205
G01 X25.8723 Y3.9304
G01 X25.8625 Y3.9413
G01 X25.8537 Y3.9530
G01 X25.8462 Y3.9656
G01 X25.8399 Y3.9789
G01 X25.8350 Y3.9927
G01 X25.8314 Y4.0069
G01 X25.8293 Y4.0214
G01 X25.8285 Y4.0361
G01 X25.8293 Y4.0507
G01 X25.8314 Y4.0652
G01 X25.8350 Y4.0794
G01 X25.8399 Y4.0932
G01 X25.8462 Y4.1065
G01 X25.8537 Y4.1191
G01 X25.8625 Y4.1309
G01 X25.8723 Y4.1417
G01 X25.8832 Y4.1516
G01 X25.8950 Y4.1603
G01 X25.9075 Y4.1679
G01 X25.9208 Y4.1741
G01 X25.9346 Y4.1791
G01 X25.9488 Y4.1826
G01 X25.9633 Y4.1848
G01 X25.9780 Y4.1855
G01 X25.9926 Y4.1848
G01 X26.0071 Y4.1826
G01 X26.0214 Y4.1791
G01 X26.0352 Y4.1741
G01 X26.0484 Y4.1679
G01 X26.0610 Y4.1603
G01 X26.0728 Y4.1516
G01 X26.0837 Y4.1417
G01 X26.0935 Y4.1309
G01 X26.1022 Y4.1191
G01 X26.1098 Y4.1065
G01 X26.1160 Y4.0932
G01 X26.1210 Y4.0794
G01 X26.1245 Y4.0652
G01 X26.1267 Y4.0507
G01 X26.1274 Y4.0361
G00 Z2.0000
G00 X29.9374 Y4.0361
G01 F800.00
G01 Z-0.9000
G01 F350.00
G01 X29.9367 Y4.0214
G01 X29.9345 Y4.0069
G01 X29.9310 Y3.9927
G01 X29.9260 Y3.9789
G01 X29.9198 Y3.9656
G01 X29.9122 Y3.9530
G01 X29.9035 Y3.9413
G01 X29.8937 Y3.9304
G01 X29.8828 Y3.9205
G01 X29.8710 Y3.9118
G01 X29.8584 Y3.9043
G01 X29.8452 Y3.8980
G01 X29.8314 Y3.8931
G01 X29.8171 Y3.8895
G01 X29.8026 Y3.8873
G01 X29.7880 Y3.8866
G01 X29.7733 Y3.8873
G01 X29.7588 Y3.8895
G01 X29.7446 Y3.8931
G01 X29.7308 Y3.8980
G01 X29.7175 Y3.9043
G01 X29.7050 Y3.9118
G01 X29.6932 Y3.9205
G01 X29.6823 Y3.9304
G01 X29.6725 Y3.9413
G01 X29.6637 Y3.9530
G01 X29.6562 Y3.9656
G01 X29.6499 Y3.9789
G01 X29.6450 Y3.9927
G01 X29.6414 Y4.0069
G01 X29.6393 Y4.0214
G01 X29.6385 Y4.0361
G01 X29.6393 Y4.0507
G01 X29.6414 Y4.0652
G01 X29.6450 Y4.0794
G01 X29.6499 Y4.0932
G01 X29.6562 Y4.1065
G01 X29.6637 Y4.1191
G01 X29.6725 Y4.1309
G01 X29.6823 Y4.1417
G01 X29.6932 Y4.1516
G01 X29.7050 Y4.1603
G01 X29.7175 Y4.1679
G01 X29.7308 Y4.1741
G01 X29.7446 Y4.1791
G01 X29.7588 Y4.1826
G01 X29.7733 Y4.1848
G01 X29.7880 Y4.1855
G01 X29.8026 Y4.1848
G01 X29.8171 Y4.1826
G01 X29.8314 Y4.1791
G01 X29.8452 Y4.1741
G01 X29.8584 Y4.1679
G01 X29.8710 Y4.1603
G01 X29.8828 Y4.1516
G01 X29.8937 Y4.1417
G01 X29.9035 Y4.1309
G01 X29.9122 Y4.1191
G01 X29.9198 Y4.1065
G01 X29.9260 Y4.0932
G01 X29.9310 Y4.0794
G01 X29.9345 Y4.0652
G01 X29.9367 Y4.0507
G01 X29.9374 Y4.0361
G00 X29.9374 Y4.0361
G01 F800.00
G01 Z-1.8000
G01 F350.00
G01 X29.9367 Y4.0214
G01 X29.9345 Y4.0069
G01 X29.9310 Y3.9927
G01 X29.9260 Y3.9789
G01 X29.9198 Y3.9656
G01 X29.9122 Y3.9530
G01 X29.9035 Y3.9413
G01 X29.8937 Y3.9304
G01 X29.8828 Y3.9205
G01 X29.8710 Y3.9118
G01 X29.8584 Y3.9043
G01 X29.8452 Y3.8980
G01 X29.8314 Y3.8931
G01 X29.8171 Y3.8895
G01 X29.8026 Y3.8873
G01 X29.7880 Y3.8866
G01 X29.7733 Y3.8873
G01 X29.7588 Y3.8895
G01 X29.7446 Y3.8931
G01 X29.7308 Y3.8980
G01 X29.7175 Y3.9043
G01 X29.7050 Y3.9118
G01 X29.6932 Y3.9205
G01 X29.6823 Y3.9304
G01 X29.6725 Y3.9413
G01 X29.6637 Y3.9530
G01 X29.6562 Y3.9656
G01 X29.6499 Y3.9789
G01 X29.6450 Y3.9927
G01 X29.6414 Y4.0069
G01 X29.6393 Y4.0214
G01 X29.6385 Y4.0361
G01 X29.6393 Y4.0507
G01 X29.6414 Y4.0652
G01 X29.6450 Y4.0794
G01 X29.6499 Y4.0932
G01 X29.6562 Y4.1065
G01 X29.6637 Y4.1191
G01 X29.6725 Y4.1309
G01 X29.6823 Y4.1417
G01 X29.6932 Y4.1516
G01 X29.7050 Y4.1603
G01 X29.7175 Y4.1679
G01 X29.7308 Y4.1741
G01 X29.7446 Y4.1791
G01 X29.7588 Y4.1826
G01 X29.7733 Y4.1848
G01 X29.7880 Y4.1855
G01 X29.8026 Y4.1848
G01 X29.8171 Y4.1826
G01 X29.8314 Y4.1791
G01 X29.8452 Y4.1741
G01 X29.8584 Y4.1679
G01 X29.8710 Y4.1603
G01 X29.8828 Y4.1516
G01 X29.8937 Y4.1417
G01 X29.9035 Y4.1309
G01 X29.9122 Y4.1191
G01 X29.9198 Y4.1065
G01 X29.9260 Y4.0932
G01 X29.9310 Y4.0794
G01 X29.9345 Y4.0652
G01 X29.9367 Y4.0507
G01 X29.9374 Y4.0361
G00 Z2.0000
G00 X35.3578 Y4.0361
G01 F800.00
G01 Z-0.9000
G01 F350.00
G01 X35.3571 Y4.0214
G01 X35.3549 Y4.0069
G01 X35.3513 Y3.9927
G01 X35.3464 Y3.9789
G01 X35.3401 Y3.9656
G01 X35.3326 Y3.9530
G01 X35.3239 Y3.9413
G01 X35.3140 Y3.9304
G01 X35.3031 Y3.9205
G01 X35.2914 Y3.9118
G01 X35.2788 Y3.9043
G01 X35.2655 Y3.8980
G01 X35.2517 Y3.8931
G01 X35.2375 Y3.8895
G01 X35.2230 Y3.8873
G01 X35.2083 Y3.8866
G01 X35.1937 Y3.8873
G01 X35.1792 Y3.8895
G01 X35.1650 Y3.8931
G01 X35.1512 Y3.8980
G01 X35.1379 Y3.9043
G01 X35.1253 Y3.9118
G01 X35.1135 Y3.9205
G01 X35.1027 Y3.9304
G01 X35.0928 Y3.9413
G01 X35.0841 Y3.9530
G01 X35.0765 Y3.9656
G01 X35.0703 Y3.9789
G01 X35.0653 Y3.9927
G01 X35.0618 Y4.0069
G01 X35.0596 Y4.0214
G01 X35.0589 Y4.0361
G01 X35.0596 Y4.0507
G01 X35.0618 Y4.0652
G01 X35.0653 Y4.0794
G01 X35.0703 Y4.0932
G01 X35.0765 Y4.1065
G01 X35.0841 Y4.1191
G01 X35.0928 Y4.1309
G01 X35.1027 Y4.1417
G01 X35.1135 Y4.1516
G01 X35.1253 Y4.1603
G01 X35.1379 Y4.1679
G01 X35.1512 Y4.1741
G01 X35.1650 Y4.1791
G01 X35.1792 Y4.1826
G01 X35.1937 Y4.1848
G01 X35.2083 Y4.1855
G01 X35.2230 Y4.1848
G01 X35.2375 Y4.1826
G01 X35.2517 Y4.1791
G01 X35.2655 Y4.1741
G01 X35.2788 Y4.1679
G01 X35.2914 Y4.1603
G01 X35.3031 Y4.1516
G01 X35.3140 Y4.1417
G01 X35.3239 Y4.1309
G01 X35.3326 Y4.1191
G01 X35.3401 Y4.1065
G01 X35.3464 Y4.0932
G01 X35.3513 Y4.0794
G01 X35.3549 Y4.0652
G01 X35.3571 Y4.0507
G01 X35.3578 Y4.0361
G00 X35.3578 Y4.0361
G01 F800.00
G01 Z-1.8000
G01 F350.00
G01 X35.3571 Y4.0214
G01 X35.3549 Y4.0069
G01 X35.3513 Y3.9927
G01 X35.3464 Y3.9789
G01 X35.3401 Y3.9656
G01 X35.3326 Y3.9530
G01 X35.3239 Y3.9413
G01 X35.3140 Y3.9304
G01 X35.3031 Y3.9205
G01 X35.2914 Y3.9118
G01 X35.2788 Y3.9043
G01 X35.2655 Y3.8980
G01 X35.2517 Y3.8931
G01 X35.2375 Y3.8895
G01 X35.2230 Y3.8873
G01 X35.2083 Y3.8866
G01 X35.1937 Y3.8873
G01 X35.1792 Y3.8895
G01 X35.1650 Y3.8931
G01 X35.1512 Y3.8980
G01 X35.1379 Y3.9043
G01 X35.1253 Y3.9118
G01 X35.1135 Y3.9205
G01 X35.1027 Y3.9304
G01 X35.0928 Y3.9413
G01 X35.0841 Y3.9530
G01 X35.0765 Y3.9656
G01 X35.0703 Y3.9789
G01 X35.0653 Y3.9927
G01 X35.0618 Y4.0069
G01 X35.0596 Y4.0214
G01 X35.0589 Y4.0361
G01 X35.0596 Y4.0507
G01 X35.0618 Y4.0652
G01 X35.0653 Y4.0794
G01 X35.0703 Y4.0932
G01 X35.0765 Y4.1065
G01 X35.0841 Y4.1191
G01 X35.0928 Y4.1309
G01 X35.1027 Y4.1417
G01 X35.1135 Y4.1516
G01 X35.1253 Y4.1603
G01 X35.1379 Y4.1679
G01 X35.1512 Y4.1741
G01 X35.1650 Y4.1791
G01 X35.1792 Y4.1826
G01 X35.1937 Y4.1848
G01 X35.2083 Y4.1855
G01 X35.2230 Y4.1848
G01 X35.2375 Y4.1826
G01 X35.2517 Y4.1791
G01 X35.2655 Y4.1741
G01 X35.2788 Y4.1679
G01 X35.2914 Y4.1603
G01 X35.3031 Y4.1516
G01 X35.3140 Y4.1417
G01 X35.3239 Y4.1309
G01 X35.3326 Y4.1191
G01 X35.3401 Y4.1065
G01 X35.3464 Y4.0932
G01 X35.3513 Y4.0794
G01 X35.3549 Y4.0652
G01 X35.3571 Y4.0507
G01 X35.3578 Y4.0361
G00 Z2.0000
G00 X39.1678 Y4.0361
G01 F800.00
G01 Z-0.9000
G01 F350.00
G01 X39.1671 Y4.0214
G01 X39.1649 Y4.0069
G01 X39.1613 Y3.9927
G01 X39.1564 Y3.9789
G01 X39.1501 Y3.9656
G01 X39.1426 Y3.9530
G01 X39.1339 Y3.9413
G01 X39.1240 Y3.9304
G01 X39.1131 Y3.9205
G01 X39.1014 Y3.9118
G01 X39.0888 Y3.9043
G01 X39.0755 Y3.8980
G01 X39.0617 Y3.8931
G01 X39.0475 Y3.8895
G01 X39.0330 Y3.8873
G01 X39.0183 Y3.8866
G01 X39.0037 Y3.8873
G01 X38.9892 Y3.8895
G01 X38.9750 Y3.8931
G01 X38.9612 Y3.8980
G01 X38.9479 Y3.9043
G01 X38.9353 Y3.9118
G01 X38.9235 Y3.9205
G01 X38.9127 Y3.9304
G01 X38.9028 Y3.9413
G01 X38.8941 Y3.9530
G01 X38.8865 Y3.9656
G01 X38.8803 Y3.9789
G01 X38.8753 Y3.9927
G01 X38.8718 Y4.0069
G01 X38.8696 Y4.0214
G01 X38.8689 Y4.0361
G01 X38.8696 Y4.0507
G01 X38.8718 Y4.0652
G01 X38.8753 Y4.0794
G01 X38.8803 Y4.0932
G01 X38.8865 Y4.1065
G01 X38.8941 Y4.1191
G01 X38.9028 Y4.1309
G01 X38.9127 Y4.1417
G01 X38.9235 Y4.1516
G01 X38.9353 Y4.1603
G01 X38.9479 Y4.1679
G01 X38.9612 Y4.1741
G01 X38.9750 Y4.1791
G01 X38.9892 Y4.1826
G01 X39.0037 Y4.1848
G01 X39.0183 Y4.1855
G01 X39.0330 Y4.1848
G01 X39.0475 Y4.1826
G01 X39.0617 Y4.1791
G01 X39.0755 Y4.1741
G01 X39.0888 Y4.1679
G01 X39.1014 Y4.1603
G01 X39.1131 Y4.1516
G01 X39.1240 Y4.1417
G01 X39.1339 Y4.1309
G01 X39.1426 Y4.1191
G01 X39.1501 Y4.1065
G01 X39.1564 Y4.0932
G01 X39.1613 Y4.0794
G01 X39.1649 Y4.0652
G01 X39.1671 Y4.0507
G01 X39.1678 Y4.0361
G00 X39.1678 Y4.0361
G01 F800.00
G01 Z-1.8000
G01 F350.00
G01 X39.1671 Y4.0214
G01 X39.1649 Y4.0069
G01 X39.1613 Y3.9927
G01 X39.1564 Y3.9789
G01 X39.1501 Y3.9656
G01 X39.1426 Y3.9530
G01 X39.1339 Y3.9413
G01 X39.1240 Y3.9304
G01 X39.1131 Y3.9205
G01 X39.1014 Y3.9118
G01 X39.0888 Y3.9043
G01 X39.0755 Y3.8980
G01 X39.0617 Y3.8931
G01 X39.0475 Y3.8895
G01 X39.0330 Y3.8873
G01 X39.0183 Y3.8866
G01 X39.0037 Y3.8873
G01 X38.9892 Y3.8895
G01 X38.9750 Y3.8931
G01 X38.9612 Y3.8980
G01 X38.9479 Y3.9043
G01 X38.9353 Y3.9118
G01 X38.9235 Y3.9205
G01 X38.9127 Y3.9304
G01 X38.9028 Y3.9413
G01 X38.8941 Y3.9530
G01 X38.8865 Y3.9656
G01 X38.8803 Y3.9789
G01 X38.8753 Y3.9927
G01 X38.8718 Y4.0069
G01 X38.8696 Y4.0214
G01 X38.8689 Y4.0361
G01 X38.8696 Y4.0507
G01 X38.8718 Y4.0652
G01 X38.8753 Y4.0794
G01 X38.8803 Y4.0932
G01 X38.8865 Y4.1065
G01 X38.8941 Y4.1191
G01 X38.9028 Y4.1309
G01 X38.9127 Y4.1417
G01 X38.9235 Y4.1516
G01 X38.9353 Y4.1603
G01 X38.9479 Y4.1679
G01 X38.9612 Y4.1741
G01 X38.9750 Y4.1791
G01 X38.9892 Y4.1826
G01 X39.0037 Y4.1848
G01 X39.0183 Y4.1855
G01 X39.0330 Y4.1848
G01 X39.0475 Y4.1826
G01 X39.0617 Y4.1791
G01 X39.0755 Y4.1741
G01 X39.0888 Y4.1679
G01 X39.1014 Y4.1603
G01 X39.1131 Y4.1516
G01 X39.1240 Y4.1417
G01 X39.1339 Y4.1309
G01 X39.1426 Y4.1191
G01 X39.1501 Y4.1065
G01 X39.1564 Y4.0932
G01 X39.1613 Y4.0794
G01 X39.1649 Y4.0652
G01 X39.1671 Y4.0507
G01 X39.1678 Y4.0361
G00 Z2.0000
G00 X42.9778 Y4.0361
G01 F800.00
G01 Z-0.9000
G01 F350.00
G01 X42.9771 Y4.0214
G01 X42.9749 Y4.0069
G01 X42.9713 Y3.9927
G01 X42.9664 Y3.9789
G01 X42.9601 Y3.9656
G01 X42.9526 Y3.9530
G01 X42.9439 Y3.9413
G01 X42.9340 Y3.9304
G01 X42.9231 Y3.9205
G01 X42.9114 Y3.9118
G01 X42.8988 Y3.9043
G01 X42.8855 Y3.8980
G01 X42.8717 Y3.8931
G01 X42.8575 Y3.8895
G01 X42.8430 Y3.8873
G01 X42.8283 Y3.8866
G01 X42.8137 Y3.8873
G01 X42.7992 Y3.8895
G01 X42.7850 Y3.8931
G01 X42.7712 Y3.8980
G01 X42.7579 Y3.9043
G01 X42.7453 Y3.9118
G01 X42.7335 Y3.9205
G01 X42.7227 Y3.9304
G01 X42.7128 Y3.9413
G01 X42.7041 Y3.9530
G01 X42.6965 Y3.9656
G01 X42.6903 Y3.9789
G01 X42.6853 Y3.9927
G01 X42.6818 Y4.0069
G01 X42.6796 Y4.0214
G01 X42.6789 Y4.0361
G01 X42.6796 Y4.0507
G01 X42.6818 Y4.0652
G01 X42.6853 Y4.0794
G01 X42.6903 Y4.0932
G01 X42.6965 Y4.1065
G01 X42.7041 Y4.1191
G01 X42.7128 Y4.1309
G01 X42.7227 Y4.1417
G01 X42.7335 Y4.1516
G01 X42.7453 Y4.1603
G01 X42.7579 Y4.1679
G01 X42.7712 Y4.1741
G01 X42.7850 Y4.1791
G01 X42.7992 Y4.1826
G01 X42.8137 Y4.1848
G01 X42.8283 Y4.1855
G01 X42.8430 Y4.1848
G01 X42.8575 Y4.1826
G01 X42.8717 Y4.1791
G01 X42.8855 Y4.1741
G01 X42.8988 Y4.1679
G01 X42.9114 Y4.1603
G01 X42.9231 Y4.1516
G01 X42.9340 Y4.1417
G01 X42.9439 Y4.1309
G01 X42.9526 Y4.1191
G01 X42.9601 Y4.1065
G01 X42.9664 Y4.0932
G01 X42.9713 Y4.0794
G01 X42.9749 Y4.0652
G01 X42.9771 Y4.0507
G01 X42.9778 Y4.0361
G00 X42.9778 Y4.0361
G01 F800.00
G01 Z-1.8000
G01 F350.00
G01 X42.9771 Y4.0214
G01 X42.9749 Y4.0069
G01 X42.9713 Y3.9927
G01 X42.9664 Y3.9789
G01 X42.9601 Y3.9656
G01 X42.9526 Y3.9530
G01 X42.9439 Y3.9413
G01 X42.9340 Y3.9304
G01 X42.9231 Y3.9205
G01 X42.9114 Y3.9118
G01 X42.8988 Y3.9043
G01 X42.8855 Y3.8980
G01 X42.8717 Y3.8931
G01 X42.8575 Y3.8895
G01 X42.8430 Y3.8873
G01 X42.8283 Y3.8866
G01 X42.8137 Y3.8873
G01 X42.7992 Y3.8895
G01 X42.7850 Y3.8931
G01 X42.7712 Y3.8980
G01 X42.7579 Y3.9043
G01 X42.7453 Y3.9118
G01 X42.7335 Y3.9205
G01 X42.7227 Y3.9304
G01 X42.7128 Y3.9413
G01 X42.7041 Y3.9530
G01 X42.6965 Y3.9656
G01 X42.6903 Y3.9789
G01 X42.6853 Y3.9927
G01 X42.6818 Y4.0069
G01 X42.6796 Y4.0214
G01 X42.6789 Y4.0361
G01 X42.6796 Y4.0507
G01 X42.6818 Y4.0652
G01 X42.6853 Y4.0794
G01 X42.6903 Y4.0932
G01 X42.6965 Y4.1065
G01 X42.7041 Y4.1191
G01 X42.7128 Y4.1309
G01 X42.7227 Y4.1417
G01 X42.7335 Y4.1516
G01 X42.7453 Y4.1603
G01 X42.7579 Y4.1679
G01 X42.7712 Y4.1741
G01 X42.7850 Y4.1791
G01 X42.7992 Y4.1826
G01 X42.8137 Y4.1848
G01 X42.8283 Y4.1855
G01 X42.8430 Y4.1848
G01 X42.8575 Y4.1826
G01 X42.8717 Y4.1791
G01 X42.8855 Y4.1741
G01 X42.8988 Y4.1679
G01 X42.9114 Y4.1603
G01 X42.9231 Y4.1516
G01 X42.9340 Y4.1417
G01 X42.9439 Y4.1309
G01 X42.9526 Y4.1191
G01 X42.9601 Y4.1065
G01 X42.9664 Y4.0932
G01 X42.9713 Y4.0794
G01 X42.9749 Y4.0652
G01 X42.9771 Y4.0507
G01 X42.9778 Y4.0361
G00 Z2.0000
G00 X48.3981 Y4.0361
G01 F800.00
G01 Z-0.9000
G01 F350.00
G01 X48.3974 Y4.0214
G01 X48.3953 Y4.0069
G01 X48.3917 Y3.9927
G01 X48.3868 Y3.9789
G01 X48.3805 Y3.9656
G01 X48.3730 Y3.9530
G01 X48.3642 Y3.9413
G01 X48.3544 Y3.9304
G01 X48.3435 Y3.9205
G01 X48.3317 Y3.9118
G01 X48.3191 Y3.9043
G01 X48.3059 Y3.8980
G01 X48.2921 Y3.8931
G01 X48.2779 Y3.8895
G01 X48.2633 Y3.8873
G01 X48.2487 Y3.8866
G01 X48.2341 Y3.8873
G01 X48.2195 Y3.8895
G01 X48.2053 Y3.8931
G01 X48.1915 Y3.8980
G01 X48.1783 Y3.9043
G01 X48.1657 Y3.9118
G01 X48.1539 Y3.9205
G01 X48.1430 Y3.9304
G01 X48.1332 Y3.9413
G01 X48.1244 Y3.9530
G01 X48.1169 Y3.9656
G01 X48.1106 Y3.9789
G01 X48.1057 Y3.9927
G01 X48.1021 Y4.0069
G01 X48.1000 Y4.0214
G01 X48.0993 Y4.0361
G01 X48.1000 Y4.0507
G01 X48.1021 Y4.0652
G01 X48.1057 Y4.0794
G01 X48.1106 Y4.0932
G01 X48.1169 Y4.1065
G01 X48.1244 Y4.1191
G01 X48.1332 Y4.1309
G01 X48.1430 Y4.1417
G01 X48.1539 Y4.1516
G01 X48.1657 Y4.1603
G01 X48.1783 Y4.1679
G01 X48.1915 Y4.1741
G01 X48.2053 Y4.1791
G01 X48.2195 Y4.1826
G01 X48.2341 Y4.1848
G01 X48.2487 Y4.1855
G01 X48.2633 Y4.1848
G01 X48.2779 Y4.1826
G01 X48.2921 Y4.1791
G01 X48.3059 Y4.1741
G01 X48.3191 Y4.1679
G01 X48.3317 Y4.1603
G01 X48.3435 Y4.1516
G01 X48.3544 Y4.1417
G01 X48.3642 Y4.1309
G01 X48.3730 Y4.1191
G01 X48.3805 Y4.1065
G01 X48.3868 Y4.0932
G01 X48.3917 Y4.0794
G01 X48.3953 Y4.0652
G01 X48.3974 Y4.0507
G01 X48.3981 Y4.0361
G00 X48.3981 Y4.0361
G01 F800.00
G01 Z-1.8000
G01 F350.00
G01 X48.3974 Y4.0214
G01 X48.3953 Y4.0069
G01 X48.3917 Y3.9927
G01 X48.3868 Y3.9789
G01 X48.3805 Y3.9656
G01 X48.3730 Y3.9530
G01 X48.3642 Y3.9413
G01 X48.3544 Y3.9304
G01 X48.3435 Y3.9205
G01 X48.3317 Y3.9118
G01 X48.3191 Y3.9043
G01 X48.3059 Y3.8980
G01 X48.2921 Y3.8931
G01 X48.2779 Y3.8895
G01 X48.2633 Y3.8873
G01 X48.2487 Y3.8866
G01 X48.2341 Y3.8873
G01 X48.2195 Y3.8895
G01 X48.2053 Y3.8931
G01 X48.1915 Y3.8980
G01 X48.1783 Y3.9043
G01 X48.1657 Y3.9118
G01 X48.1539 Y3.9205
G01 X48.1430 Y3.9304
G01 X48.1332 Y3.9413
G01 X48.1244 Y3.9530
G01 X48.1169 Y3.9656
G01 X48.1106 Y3.9789
G01 X48.1057 Y3.9927
G01 X48.1021 Y4.0069
G01 X48.1000 Y4.0214
G01 X48.0993 Y4.0361
G01 X48.1000 Y4.0507
G01 X48.1021 Y4.0652
G01 X48.1057 Y4.0794
G01 X48.1106 Y4.0932
G01 X48.1169 Y4.1065
G01 X48.1244 Y4.1191
G01 X48.1332 Y4.1309
G01 X48.1430 Y4.1417
G01 X48.1539 Y4.1516
G01 X48.1657 Y4.1603
G01 X48.1783 Y4.1679
G01 X48.1915 Y4.1741
G01 X48.2053 Y4.1791
G01 X48.2195 Y4.1826
G01 X48.2341 Y4.1848
G01 X48.2487 Y4.1855
G01 X48.2633 Y4.1848
G01 X48.2779 Y4.1826
G01 X48.2921 Y4.1791
G01 X48.3059 Y4.1741
G01 X48.3191 Y4.1679
G01 X48.3317 Y4.1603
G01 X48.3435 Y4.1516
G01 X48.3544 Y4.1417
G01 X48.3642 Y4.1309
G01 X48.3730 Y4.1191
G01 X48.3805 Y4.1065
G01 X48.3868 Y4.0932
G01 X48.3917 Y4.0794
G01 X48.3953 Y4.0652
G01 X48.3974 Y4.0507
G01 X48.3981 Y4.0361
G00 Z2.0000
G00 X52.2081 Y4.0361
G01 F800.00
G01 Z-0.9000
G01 F350.00
G01 X52.2074 Y4.0214
G01 X52.2053 Y4.0069
G01 X52.2017 Y3.9927
G01 X52.1968 Y3.9789
G01 X52.1905 Y3.9656
G01 X52.1830 Y3.9530
G01 X52.1742 Y3.9413
G01 X52.1644 Y3.9304
G01 X52.1535 Y3.9205
G01 X52.1417 Y3.9118
G01 X52.1291 Y3.9043
G01 X52.1159 Y3.8980
G01 X52.1021 Y3.8931
G01 X52.0879 Y3.8895
G01 X52.0733 Y3.8873
G01 X52.0587 Y3.8866
G01 X52.0441 Y3.8873
G01 X52.0295 Y3.8895
G01 X52.0153 Y3.8931
G01 X52.0015 Y3.8980
G01 X51.9883 Y3.9043
G01 X51.9757 Y3.9118
G01 X51.9639 Y3.9205
G01 X51.9530 Y3.9304
G01 X51.9432 Y3.9413
G01 X51.9344 Y3.9530
G01 X51.9269 Y3.9656
G01 X51.9206 Y3.9789
G01 X51.9157 Y3.9927
G01 X51.9121 Y4.0069
G01 X51.9100 Y4.0214
G01 X51.9093 Y4.0361
G01 X51.9100 Y4.0507
G01 X51.9121 Y4.0652
G01 X51.9157 Y4.0794
G01 X51.9206 Y4.0932
G01 X51.9269 Y4.1065
G01 X51.9344 Y4.1191
G01 X51.9432 Y4.1309
G01 X51.9530 Y4.1417
G01 X51.9639 Y4.1516
G01 X51.9757 Y4.1603
G01 X51.9883 Y4.1679
G01 X52.0015 Y4.1741
G01 X52.0153 Y4.1791
G01 X52.0295 Y4.1826
G01 X52.0441 Y4.1848
G01 X52.0587 Y4.1855
G01 X52.0733 Y4.1848
G01 X52.0879 Y4.1826
G01 X52.1021 Y4.1791
G01 X52.1159 Y4.1741
G01 X52.1291 Y4.1679
G01 X52.1417 Y4.1603
G01 X52.1535 Y4.1516
G01 X52.1644 Y4.1417
G01 X52.1742 Y4.1309
G01 X52.1830 Y4.1191
G01 X52.1905 Y4.1065
G01 X52.1968 Y4.0932
G01 X52.2017 Y4.0794
G01 X52.2053 Y4.0652
G01 X52.2074 Y4.0507
G01 X52.2081 Y4.0361
G00 X52.2081 Y4.0361
G01 F800.00
G01 Z-1.8000
G01 F350.00
G01 X52.2074 Y4.0214
G01 X52.2053 Y4.0069
G01 X52.2017 Y3.9927
G01 X52.1968 Y3.9789
G01 X52.1905 Y3.9656
G01 X52.1830 Y3.9530
G01 X52.1742 Y3.9413
G01 X52.1644 Y3.9304
G01 X52.1535 Y3.9205
G01 X52.1417 Y3.9118
G01 X52.1291 Y3.9043
G01 X52.1159 Y3.8980
G01 X52.1021 Y3.8931
G01 X52.0879 Y3.8895
G01 X52.0733 Y3.8873
G01 X52.0587 Y3.8866
G01 X52.0441 Y3.8873
G01 X52.0295 Y3.8895
G01 X52.0153 Y3.8931
G01 X52.0015 Y3.8980
G01 X51.9883 Y3.9043
G01 X51.9757 Y3.9118
G01 X51.9639 Y3.9205
G01 X51.9530 Y3.9304
G01 X51.9432 Y3.9413
G01 X51.9344 Y3.9530
G01 X51.9269 Y3.9656
G01 X51.9206 Y3.9789
G01 X51.9157 Y3.9927
G01 X51.9121 Y4.0069
G01 X51.9100 Y4.0214
G01 X51.9093 Y4.0361
G01 X51.9100 Y4.0507
G01 X51.9121 Y4.0652
G01 X51.9157 Y4.0794
G01 X51.9206 Y4.0932
G01 X51.9269 Y4.1065
G01 X51.9344 Y4.1191
G01 X51.9432 Y4.1309
G01 X51.9530 Y4.1417
G01 X51.9639 Y4.1516
G01 X51.9757 Y4.1603
G01 X51.9883 Y4.1679
G01 X52.0015 Y4.1741
G01 X52.0153 Y4.1791
G01 X52.0295 Y4.1826
G01 X52.0441 Y4.1848
G01 X52.0587 Y4.1855
G01 X52.0733 Y4.1848
G01 X52.0879 Y4.1826
G01 X52.1021 Y4.1791
G01 X52.1159 Y4.1741
G01 X52.1291 Y4.1679
G01 X52.1417 Y4.1603
G01 X52.1535 Y4.1516
G01 X52.1644 Y4.1417
G01 X52.1742 Y4.1309
G01 X52.1830 Y4.1191
G01 X52.1905 Y4.1065
G01 X52.1968 Y4.0932
G01 X52.2017 Y4.0794
G01 X52.2053 Y4.0652
G01 X52.2074 Y4.0507
G01 X52.2081 Y4.0361
G00 Z2.0000
G00 X56.0181 Y4.0361
G01 F800.00
G01 Z-0.9000
G01 F350.00
G01 X56.0174 Y4.0214
G01 X56.0153 Y4.0069
G01 X56.0117 Y3.9927
G01 X56.0068 Y3.9789
G01 X56.0005 Y3.9656
G01 X55.9930 Y3.9530
G01 X55.9842 Y3.9413
G01 X55.9744 Y3.9304
G01 X55.9635 Y3.9205
G01 X55.9517 Y3.9118
G01 X55.9391 Y3.9043
G01 X55.9259 Y3.8980
G01 X55.9121 Y3.8931
G01 X55.8979 Y3.8895
G01 X55.8833 Y3.8873
G01 X55.8687 Y3.8866
G01 X55.8541 Y3.8873
G01 X55.8395 Y3.8895
G01 X55.8253 Y3.8931
G01 X55.8115 Y3.8980
G01 X55.7983 Y3.9043
G01 X55.7857 Y3.9118
G01 X55.7739 Y3.9205
G01 X55.7630 Y3.9304
G01 X55.7532 Y3.9413
G01 X55.7444 Y3.9530
G01 X55.7369 Y3.9656
G01 X55.7306 Y3.9789
G01 X55.7257 Y3.9927
G01 X55.7221 Y4.0069
G01 X55.7200 Y4.0214
G01 X55.7193 Y4.0361
G01 X55.7200 Y4.0507
G01 X55.7221 Y4.0652
G01 X55.7257 Y4.0794
G01 X55.7306 Y4.0932
G01 X55.7369 Y4.1065
G01 X55.7444 Y4.1191
G01 X55.7532 Y4.1309
G01 X55.7630 Y4.1417
G01 X55.7739 Y4.1516
G01 X55.7857 Y4.1603
G01 X55.7983 Y4.1679
G01 X55.8115 Y4.1741
G01 X55.8253 Y4.1791
G01 X55.8395 Y4.1826
G01 X55.8541 Y4.1848
G01 X55.8687 Y4.1855
G01 X55.8833 Y4.1848
G01 X55.8979 Y4.1826
G01 X55.9121 Y4.1791
G01 X55.9259 Y4.1741
G01 X55.9391 Y4.1679
G01 X55.9517 Y4.1603
G01 X55.9635 Y4.1516
G01 X55.9744 Y4.1417
G01 X55.9842 Y4.1309
G01 X55.9930 Y4.1191
G01 X56.0005 Y4.1065
G01 X56.0068 Y4.0932
G01 X56.0117 Y4.0794
G01 X56.0153 Y4.0652
G01 X56.0174 Y4.0507
G01 X56.0181 Y4.0361
G00 X56.0181 Y4.0361
G01 F800.00
G01 Z-1.8000
G01 F350.00
G01 X56.0174 Y4.0214
G01 X56.0153 Y4.0069
G01 X56.0117 Y3.9927
G01 X56.0068 Y3.9789
G01 X56.0005 Y3.9656
G01 X55.9930 Y3.9530
G01 X55.9842 Y3.9413
G01 X55.9744 Y3.9304
G01 X55.9635 Y3.9205
G01 X55.9517 Y3.9118
G01 X55.9391 Y3.9043
G01 X55.9259 Y3.8980
G01 X55.9121 Y3.8931
G01 X55.8979 Y3.8895
G01 X55.8833 Y3.8873
G01 X55.8687 Y3.8866
G01 X55.8541 Y3.8873
G01 X55.8395 Y3.8895
G01 X55.8253 Y3.8931
G01 X55.8115 Y3.8980
G01 X55.7983 Y3.9043
G01 X55.7857 Y3.9118
G01 X55.7739 Y3.9205
G01 X55.7630 Y3.9304
G01 X55.7532 Y3.9413
G01 X55.7444 Y3.9530
G01 X55.7369 Y3.9656
G01 X55.7306 Y3.9789
G01 X55.7257 Y3.9927
G01 X55.7221 Y4.0069
G01 X55.7200 Y4.0214
G01 X55.7193 Y4.0361
G01 X55.7200 Y4.0507
G01 X55.7221 Y4.0652
G01 X55.7257 Y4.0794
G01 X55.7306 Y4.0932
G01 X55.7369 Y4.1065
G01 X55.7444 Y4.1191
G01 X55.7532 Y4.1309
G01 X55.7630 Y4.1417
G01 X55.7739 Y4.1516
G01 X55.7857 Y4.1603
G01 X55.7983 Y4.1679
G01 X55.8115 Y4.1741
G01 X55.8253 Y4.1791
G01 X55.8395 Y4.1826
G01 X55.8541 Y4.1848
G01 X55.8687 Y4.1855
G01 X55.8833 Y4.1848
G01 X55.8979 Y4.1826
G01 X55.9121 Y4.1791
G01 X55.9259 Y4.1741
G01 X55.9391 Y4.1679
G01 X55.9517 Y4.1603
G01 X55.9635 Y4.1516
G01 X55.9744 Y4.1417
G01 X55.9842 Y4.1309
G01 X55.9930 Y4.1191
G01 X56.0005 Y4.1065
G01 X56.0068 Y4.0932
G01 X56.0117 Y4.0794
G01 X56.0153 Y4.0652
G01 X56.0174 Y4.0507
G01 X56.0181 Y4.0361
G00 Z2.0000
G00 X63.1505 Y11.0007
G01 F800.00
G01 Z-0.9000
G01 F350.00
G01 X63.1449 Y10.8880
G01 X63.1284 Y10.7763
G01 X63.1009 Y10.6669
G01 X63.0629 Y10.5606
G01 X63.0146 Y10.4585
G01 X62.9566 Y10.3617
G01 X62.8894 Y10.2711
G01 X62.8136 Y10.1874
G01 X62.7299 Y10.1116
G01 X62.6393 Y10.0444
G01 X62.5425 Y9.9864
G01 X62.4404 Y9.9381
G01 X62.3341 Y9.9001
G01 X62.2247 Y9.8726
G01 X62.1130 Y9.8561
G01 X62.0003 Y9.8505
G01 X61.8875 Y9.8561
G01 X61.7759 Y9.8726
G01 X61.6664 Y9.9001
G01 X61.5601 Y9.9381
G01 X61.4581 Y9.9864
G01 X61.3612 Y10.0444
G01 X61.2706 Y10.1116
G01 X61.1869 Y10.1874
G01 X61.1111 Y10.2711
G01 X61.0439 Y10.3617
G01 X60.9859 Y10.4585
G01 X60.9376 Y10.5606
G01 X60.8996 Y10.6669
G01 X60.8722 Y10.7763
G01 X60.8556 Y10.8880
G01 X60.8501 Y11.0007
G01 X60.8556 Y11.1135
G01 X60.8722 Y11.2251
G01 X60.8996 Y11.3346
G01 X60.9376 Y11.4409
G01 X60.9859 Y11.5429
G01 X61.0439 Y11.6398
G01 X61.1111 Y11.7304
G01 X61.1869 Y11.8141
G01 X61.2706 Y11.8899
G01 X61.3612 Y11.9571
G01 X61.4581 Y12.0151
G01 X61.5601 Y12.0634
G01 X61.6664 Y12.1014
G01 X61.7759 Y12.1288
G01 X61.8875 Y12.1454
G01 X62.0003 Y12.1509
G01 X62.1130 Y12.1454
G01 X62.2247 Y12.1288
G01 X62.3341 Y12.1014
G01 X62.4404 Y12.0634
G01 X62.5425 Y12.0151
G01 X62.6393 Y11.9571
G01 X62.7299 Y11.8899
G01 X62.8136 Y11.8141
G01 X62.8894 Y11.7304
G01 X62.9566 Y11.6398
G01 X63.0146 Y11.5429
G01 X63.0629 Y11.4409
G01 X63.1009 Y11.3346
G01 X63.1284 Y11.2251
G01 X63.1449 Y11.1135
G01 X63.1505 Y11.0007
G00 X63.1505 Y11.0007
G01 F800.00
G01 Z-1.8000
G01 F350.00
G01 X63.1449 Y10.8880
G01 X63.1284 Y10.7763
G01 X63.1009 Y10.6669
G01 X63.0629 Y10.5606
G01 X63.0146 Y10.4585
G01 X62.9566 Y10.3617
G01 X62.8894 Y10.2711
G01 X62.8136 Y10.1874
G01 X62.7299 Y10.1116
G01 X62.6393 Y10.0444
G01 X62.5425 Y9.9864
G01 X62.4404 Y9.9381
G01 X62.3341 Y9.9001
G01 X62.2247 Y9.8726
G01 X62.1130 Y9.8561
G01 X62.0003 Y9.8505
G01 X61.8875 Y9.8561
G01 X61.7759 Y9.8726
G01 X61.6664 Y9.9001
G01 X61.5601 Y9.9381
G01 X61.4581 Y9.9864
G01 X61.3612 Y10.0444
G01 X61.2706 Y10.1116
G01 X61.1869 Y10.1874
G01 X61.1111 Y10.2711
G01 X61.0439 Y10.3617
G01 X60.9859 Y10.4585
G01 X60.9376 Y10.5606
G01 X60.8996 Y10.6669
G01 X60.8722 Y10.7763
G01 X60.8556 Y10.8880
G01 X60.8501 Y11.0007
G01 X60.8556 Y11.1135
G01 X60.8722 Y11.2251
G01 X60.8996 Y11.3346
G01 X60.9376 Y11.4409
G01 X60.9859 Y11.5429
G01 X61.0439 Y11.6398
G01 X61.1111 Y11.7304
G01 X61.1869 Y11.8141
G01 X61.2706 Y11.8899
G01 X61.3612 Y11.9571
G01 X61.4581 Y12.0151
G01 X61.5601 Y12.0634
G01 X61.6664 Y12.1014
G01 X61.7759 Y12.1288
G01 X61.8875 Y12.1454
G01 X62.0003 Y12.1509
G01 X62.1130 Y12.1454
G01 X62.2247 Y12.1288
G01 X62.3341 Y12.1014
G01 X62.4404 Y12.0634
G01 X62.5425 Y12.0151
G01 X62.6393 Y11.9571
G01 X62.7299 Y11.8899
G01 X62.8136 Y11.8141
G01 X62.8894 Y11.7304
G01 X62.9566 Y11.6398
G01 X63.0146 Y11.5429
G01 X63.0629 Y11.4409
G01 X63.1009 Y11.3346
G01 X63.1284 Y11.2251
G01 X63.1449 Y11.1135
G01 X63.1505 Y11.0007
G00 Z2.0000
G00 X52.5510 Y17.2491
G01 F800.00
G01 Z-0.9000
G01 F350.00
G01 X52.5501 Y17.2393
G01 X52.5472 Y17.2299
G01 X52.5425 Y17.2212
G01 X52.5363 Y17.2135
G01 X52.5286 Y17.2073
G01 X52.5199 Y17.2026
G01 X52.5105 Y17.1997
G01 X52.5007 Y17.1988
G01 X52.4908 Y17.1997
G01 X52.4814 Y17.2026
G01 X52.4727 Y17.2073
G01 X52.4650 Y17.2135
G01 X52.4588 Y17.2212
G01 X52.4541 Y17.2299
G01 X52.4512 Y17.2393
G01 X52.4503 Y17.2491
G01 X52.4512 Y17.2590
G01 X52.4541 Y17.2684
G01 X52.4588 Y17.2771
G01 X52.4650 Y17.2848
G01 X52.4727 Y17.2910
G01 X52.4814 Y17.2957
G01 X52.4908 Y17.2986
G01 X52.5007 Y17.2995
G01 X52.5105 Y17.2986
G01 X52.5199 Y17.2957
G01 X52.5286 Y17.2910
G01 X52.5363 Y17.2848
G01 X52.5425 Y17.2771
G01 X52.5472 Y17.2684
G01 X52.5501 Y17.2590
G01 X52.5510 Y17.2491
G00 X52.5510 Y17.2491
G01 F800.00
G01 Z-1.8000
G01 F350.00
G01 X52.5501 Y17.2393
G01 X52.5472 Y17.2299
G01 X52.5425 Y17.2212
G01 X52.5363 Y17.2135
G01 X52.5286 Y17.2073
G01 X52.5199 Y17.2026
G01 X52.5105 Y17.1997
G01 X52.5007 Y17.1988
G01 X52.4908 Y17.1997
G01 X52.4814 Y17.2026
G01 X52.4727 Y17.2073
G01 X52.4650 Y17.2135
G01 X52.4588 Y17.2212
G01 X52.4541 Y17.2299
G01 X52.4512 Y17.2393
G01 X52.4503 Y17.2491
G01 X52.4512 Y17.2590
G01 X52.4541 Y17.2684
G01 X52.4588 Y17.2771
G01 X52.4650 Y17.2848
G01 X52.4727 Y17.2910
G01 X52.4814 Y17.2957
G01 X52.4908 Y17.2986
G01 X52.5007 Y17.2995
G01 X52.5105 Y17.2986
G01 X52.5199 Y17.2957
G01 X52.5286 Y17.2910
G01 X52.5363 Y17.2848
G01 X52.5425 Y17.2771
G01 X52.5472 Y17.2684
G01 X52.5501 Y17.2590
G01 X52.5510 Y17.2491
G00 Z2.0000
G00 X50.0110 Y17.2491
G01 F800.00
G01 Z-0.9000
G01 F350.00
G01 X50.0101 Y17.2393
G01 X50.0072 Y17.2299
G01 X50.0025 Y17.2212
G01 X49.9963 Y17.2135
G01 X49.9886 Y17.2073
G01 X49.9799 Y17.2026
G01 X49.9705 Y17.1997
G01 X49.9607 Y17.1988
G01 X49.9508 Y17.1997
G01 X49.9414 Y17.2026
G01 X49.9327 Y17.2073
G01 X49.9250 Y17.2135
G01 X49.9188 Y17.2212
G01 X49.9141 Y17.2299
G01 X49.9112 Y17.2393
G01 X49.9103 Y17.2491
G01 X49.9112 Y17.2590
G01 X49.9141 Y17.2684
G01 X49.9188 Y17.2771
G01 X49.9250 Y17.2848
G01 X49.9327 Y17.2910
G01 X49.9414 Y17.2957
G01 X49.9508 Y17.2986
G01 X49.9607 Y17.2995
G01 X49.9705 Y17.2986
G01 X49.9799 Y17.2957
G01 X49.9886 Y17.2910
G01 X49.9963 Y17.2848
G01 X50.0025 Y17.2771
G01 X50.0072 Y17.2684
G01 X50.0101 Y17.2590
G01 X50.0110 Y17.2491
G00 X50.0110 Y17.2491
G01 F800.00
G01 Z-1.8000
G01 F350.00
G01 X50.0101 Y17.2393
G01 X50.0072 Y17.2299
G01 X50.0025 Y17.2212
G01 X49.9963 Y17.2135
G01 X49.9886 Y17.2073
G01 X49.9799 Y17.2026
G01 X49.9705 Y17.1997
G01 X49.9607 Y17.1988
G01 X49.9508 Y17.1997
G01 X49.9414 Y17.2026
G01 X49.9327 Y17.2073
G01 X49.9250 Y17.2135
G01 X49.9188 Y17.2212
G01 X49.9141 Y17.2299
G01 X49.9112 Y17.2393
G01 X49.9103 Y17.2491
G01 X49.9112 Y17.2590
G01 X49.9141 Y17.2684
G01 X49.9188 Y17.2771
G01 X49.9250 Y17.2848
G01 X49.9327 Y17.2910
G01 X49.9414 Y17.2957
G01 X49.9508 Y17.2986
G01 X49.9607 Y17.2995
G01 X49.9705 Y17.2986
G01 X49.9799 Y17.2957
G01 X49.9886 Y17.2910
G01 X49.9963 Y17.2848
G01 X50.0025 Y17.2771
G01 X50.0072 Y17.2684
G01 X50.0101 Y17.2590
G01 X50.0110 Y17.2491
G00 Z2.0000
G00 X47.4710 Y17.2491
G01 F800.00
G01 Z-0.9000
G01 F350.00
G01 X47.4701 Y17.2393
G01 X47.4672 Y17.2299
G01 X47.4625 Y17.2212
G01 X47.4563 Y17.2135
G01 X47.4486 Y17.2073
G01 X47.4399 Y17.2026
G01 X47.4305 Y17.1997
G01 X47.4207 Y17.1988
G01 X47.4108 Y17.1997
G01 X47.4014 Y17.2026
G01 X47.3927 Y17.2073
G01 X47.3850 Y17.2135
G01 X47.3788 Y17.2212
G01 X47.3741 Y17.2299
G01 X47.3712 Y17.2393
G01 X47.3703 Y17.2491
G01 X47.3712 Y17.2590
G01 X47.3741 Y17.2684
G01 X47.3788 Y17.2771
G01 X47.3850 Y17.2848
G01 X47.3927 Y17.2910
G01 X47.4014 Y17.2957
G01 X47.4108 Y17.2986
G01 X47.4207 Y17.2995
G01 X47.4305 Y17.2986
G01 X47.4399 Y17.2957
G01 X47.4486 Y17.2910
G01 X47.4563 Y17.2848
G01 X47.4625 Y17.2771
G01 X47.4672 Y17.2684
G01 X47.4701 Y17.2590
G01 X47.4710 Y17.2491
G00 X47.4710 Y17.2491
G01 F800.00
G01 Z-1.8000
G01 F350.00
G01 X47.4701 Y17.2393
G01 X47.4672 Y17.2299
G01 X47.4625 Y17.2212
G01 X47.4563 Y17.2135
G01 X47.4486 Y17.2073
G01 X47.4399 Y17.2026
G01 X47.4305 Y17.1997
G01 X47.4207 Y17.1988
G01 X47.4108 Y17.1997
G01 X47.4014 Y17.2026
G01 X47.3927 Y17.2073
G01 X47.3850 Y17.2135
G01 X47.3788 Y17.2212
G01 X47.3741 Y17.2299
G01 X47.3712 Y17.2393
G01 X47.3703 Y17.2491
G01 X47.3712 Y17.2590
G01 X47.3741 Y17.2684
G01 X47.3788 Y17.2771
G01 X47.3850 Y17.2848
G01 X47.3927 Y17.2910
G01 X47.4014 Y17.2957
G01 X47.4108 Y17.2986
G01 X47.4207 Y17.2995
G01 X47.4305 Y17.2986
G01 X47.4399 Y17.2957
G01 X47.4486 Y17.2910
G01 X47.4563 Y17.2848
G01 X47.4625 Y17.2771
G01 X47.4672 Y17.2684
G01 X47.4701 Y17.2590
G01 X47.4710 Y17.2491
G00 Z2.0000
G00 X44.9310 Y17.2491
G01 F800.00
G01 Z-0.9000
G01 F350.00
G01 X44.9301 Y17.2393
G01 X44.9272 Y17.2299
G01 X44.9225 Y17.2212
G01 X44.9163 Y17.2135
G01 X44.9086 Y17.2073
G01 X44.8999 Y17.2026
G01 X44.8905 Y17.1997
G01 X44.8807 Y17.1988
G01 X44.8708 Y17.1997
G01 X44.8614 Y17.2026
G01 X44.8527 Y17.2073
G01 X44.8450 Y17.2135
G01 X44.8388 Y17.2212
G01 X44.8341 Y17.2299
G01 X44.8312 Y17.2393
G01 X44.8303 Y17.2491
G01 X44.8312 Y17.2590
G01 X44.8341 Y17.2684
G01 X44.8388 Y17.2771
G01 X44.8450 Y17.2848
G01 X44.8527 Y17.2910
G01 X44.8614 Y17.2957
G01 X44.8708 Y17.2986
G01 X44.8807 Y17.2995
G01 X44.8905 Y17.2986
G01 X44.8999 Y17.2957
G01 X44.9086 Y17.2910
G01 X44.9163 Y17.2848
G01 X44.9225 Y17.2771
G01 X44.9272 Y17.2684
G01 X44.9301 Y17.2590
G01 X44.9310 Y17.2491
G00 X44.9310 Y17.2491
G01 F800.00
G01 Z-1.8000
G01 F350.00
G01 X44.9301 Y17.2393
G01 X44.9272 Y17.2299
G01 X44.9225 Y17.2212
G01 X44.9163 Y17.2135
G01 X44.9086 Y17.2073
G01 X44.8999 Y17.2026
G01 X44.8905 Y17.1997
G01 X44.8807 Y17.1988
G01 X44.8708 Y17.1997
G01 X44.8614 Y17.2026
G01 X44.8527 Y17.2073
G01 X44.8450 Y17.2135
G01 X44.8388 Y17.2212
G01 X44.8341 Y17.2299
G01 X44.8312 Y17.2393
G01 X44.8303 Y17.2491
G01 X44.8312 Y17.2590
G01 X44.8341 Y17.2684
G01 X44.8388 Y17.2771
G01 X44.8450 Y17.2848
G01 X44.8527 Y17.2910
G01 X44.8614 Y17.2957
G01 X44.8708 Y17.2986
G01 X44.8807 Y17.2995
G01 X44.8905 Y17.2986
G01 X44.8999 Y17.2957
G01 X44.9086 Y17.2910
G01 X44.9163 Y17.2848
G01 X44.9225 Y17.2771
G01 X44.9272 Y17.2684
G01 X44.9301 Y17.2590
G01 X44.9310 Y17.2491
G00 Z2.0000
G00 X42.3910 Y17.2491
G01 F800.00
G01 Z-0.9000
G01 F350.00
G01 X42.3901 Y17.2393
G01 X42.3872 Y17.2299
G01 X42.3825 Y17.2212
G01 X42.3763 Y17.2135
G01 X42.3686 Y17.2073
G01 X42.3599 Y17.2026
G01 X42.3505 Y17.1997
G01 X42.3407 Y17.1988
G01 X42.3308 Y17.1997
G01 X42.3214 Y17.2026
G01 X42.3127 Y17.2073
G01 X42.3050 Y17.2135
G01 X42.2988 Y17.2212
G01 X42.2941 Y17.2299
G01 X42.2912 Y17.2393
G01 X42.2903 Y17.2491
G01 X42.2912 Y17.2590
G01 X42.2941 Y17.2684
G01 X42.2988 Y17.2771
G01 X42.3050 Y17.2848
G01 X42.3127 Y17.2910
G01 X42.3214 Y17.2957
G01 X42.3308 Y17.2986
G01 X42.3407 Y17.2995
G01 X42.3505 Y17.2986
G01 X42.3599 Y17.2957
G01 X42.3686 Y17.2910
G01 X42.3763 Y17.2848
G01 X42.3825 Y17.2771
G01 X42.3872 Y17.2684
G01 X42.3901 Y17.2590
G01 X42.3910 Y17.2491
G00 X42.3910 Y17.2491
G01 F800.00
G01 Z-1.8000
G01 F350.00
G01 X42.3901 Y17.2393
G01 X42.3872 Y17.2299
G01 X42.3825 Y17.2212
G01 X42.3763 Y17.2135
G01 X42.3686 Y17.2073
G01 X42.3599 Y17.2026
G01 X42.3505 Y17.1997
G01 X42.3407 Y17.1988
G01 X42.3308 Y17.1997
G01 X42.3214 Y17.2026
G01 X42.3127 Y17.2073
G01 X42.3050 Y17.2135
G01 X42.2988 Y17.2212
G01 X42.2941 Y17.2299
G01 X42.2912 Y17.2393
G01 X42.2903 Y17.2491
G01 X42.2912 Y17.2590
G01 X42.2941 Y17.2684
G01 X42.2988 Y17.2771
G01 X42.3050 Y17.2848
G01 X42.3127 Y17.2910
G01 X42.3214 Y17.2957
G01 X42.3308 Y17.2986
G01 X42.3407 Y17.2995
G01 X42.3505 Y17.2986
G01 X42.3599 Y17.2957
G01 X42.3686 Y17.2910
G01 X42.3763 Y17.2848
G01 X42.3825 Y17.2771
G01 X42.3872 Y17.2684
G01 X42.3901 Y17.2590
G01 X42.3910 Y17.2491
G00 Z2.0000
G00 X39.8510 Y17.2491
G01 F800.00
G01 Z-0.9000
G01 F350.00
G01 X39.8501 Y17.2393
G01 X39.8472 Y17.2299
G01 X39.8425 Y17.2212
G01 X39.8363 Y17.2135
G01 X39.8286 Y17.2073
G01 X39.8199 Y17.2026
G01 X39.8105 Y17.1997
G01 X39.8007 Y17.1988
G01 X39.7908 Y17.1997
G01 X39.7814 Y17.2026
G01 X39.7727 Y17.2073
G01 X39.7650 Y17.2135
G01 X39.7588 Y17.2212
G01 X39.7541 Y17.2299
G01 X39.7512 Y17.2393
G01 X39.7503 Y17.2491
G01 X39.7512 Y17.2590
G01 X39.7541 Y17.2684
G01 X39.7588 Y17.2771
G01 X39.7650 Y17.2848
G01 X39.7727 Y17.2910
G01 X39.7814 Y17.2957
G01 X39.7908 Y17.2986
G01 X39.8007 Y17.2995
G01 X39.8105 Y17.2986
G01 X39.8199 Y17.2957
G01 X39.8286 Y17.2910
G01 X39.8363 Y17.2848
G01 X39.8425 Y17.2771
G01 X39.8472 Y17.2684
G01 X39.8501 Y17.2590
G01 X39.8510 Y17.2491
G00 X39.8510 Y17.2491
G01 F800.00
G01 Z-1.8000
G01 F350.00
G01 X39.8501 Y17.2393
G01 X39.8472 Y17.2299
G01 X39.8425 Y17.2212
G01 X39.8363 Y17.2135
G01 X39.8286 Y17.2073
G01 X39.8199 Y17.2026
G01 X39.8105 Y17.1997
G01 X39.8007 Y17.1988
G01 X39.7908 Y17.1997
G01 X39.7814 Y17.2026
G01 X39.7727 Y17.2073
G01 X39.7650 Y17.2135
G01 X39.7588 Y17.2212
G01 X39.7541 Y17.2299
G01 X39.7512 Y17.2393
G01 X39.7503 Y17.2491
G01 X39.7512 Y17.2590
G01 X39.7541 Y17.2684
G01 X39.7588 Y17.2771
G01 X39.7650 Y17.2848
G01 X39.7727 Y17.2910
G01 X39.7814 Y17.2957
G01 X39.7908 Y17.2986
G01 X39.8007 Y17.2995
G01 X39.8105 Y17.2986
G01 X39.8199 Y17.2957
G01 X39.8286 Y17.2910
G01 X39.8363 Y17.2848
G01 X39.8425 Y17.2771
G01 X39.8472 Y17.2684
G01 X39.8501 Y17.2590
G01 X39.8510 Y17.2491
G00 Z2.0000
G00 X24.3012 Y17.2491
G01 F800.00
G01 Z-0.9000
G01 F350.00
G01 X24.3002 Y17.2393
G01 X24.2973 Y17.2299
G01 X24.2927 Y17.2212
G01 X24.2864 Y17.2135
G01 X24.2788 Y17.2073
G01 X24.2701 Y17.2026
G01 X24.2606 Y17.1997
G01 X24.2508 Y17.1988
G01 X24.2410 Y17.1997
G01 X24.2315 Y17.2026
G01 X24.2228 Y17.2073
G01 X24.2152 Y17.2135
G01 X24.2089 Y17.2212
G01 X24.2042 Y17.2299
G01 X24.2014 Y17.2393
G01 X24.2004 Y17.2491
G01 X24.2014 Y17.2590
G01 X24.2042 Y17.2684
G01 X24.2089 Y17.2771
G01 X24.2152 Y17.2848
G01 X24.2228 Y17.2910
G01 X24.2315 Y17.2957
G01 X24.2410 Y17.2986
G01 X24.2508 Y17.2995
G01 X24.2606 Y17.2986
G01 X24.2701 Y17.2957
G01 X24.2788 Y17.2910
G01 X24.2864 Y17.2848
G01 X24.2927 Y17.2771
G01 X24.2973 Y17.2684
G01 X24.3002 Y17.2590
G01 X24.3012 Y17.2491
G00 X24.3012 Y17.2491
G01 F800.00
G01 Z-1.8000
G01 F350.00
G01 X24.3002 Y17.2393
G01 X24.2973 Y17.2299
G01 X24.2927 Y17.2212
G01 X24.2864 Y17.2135
G01 X24.2788 Y17.2073
G01 X24.2701 Y17.2026
G01 X24.2606 Y17.1997
G01 X24.2508 Y17.1988
G01 X24.2410 Y17.1997
G01 X24.2315 Y17.2026
G01 X24.2228 Y17.2073
G01 X24.2152 Y17.2135
G01 X24.2089 Y17.2212
G01 X24.2042 Y17.2299
G01 X24.2014 Y17.2393
G01 X24.2004 Y17.2491
G01 X24.2014 Y17.2590
G01 X24.2042 Y17.2684
G01 X24.2089 Y17.2771
G01 X24.2152 Y17.2848
G01 X24.2228 Y17.2910
G01 X24.2315 Y17.2957
G01 X24.2410 Y17.2986
G01 X24.2508 Y17.2995
G01 X24.2606 Y17.2986
G01 X24.2701 Y17.2957
G01 X24.2788 Y17.2910
G01 X24.2864 Y17.2848
G01 X24.2927 Y17.2771
G01 X24.2973 Y17.2684
G01 X24.3002 Y17.2590
G01 X24.3012 Y17.2491
G00 Z2.0000
G00 X21.7612 Y17.2491
G01 F800.00
G01 Z-0.9000
G01 F350.00
G01 X21.7602 Y17.2393
G01 X21.7573 Y17.2299
G01 X21.7527 Y17.2212
G01 X21.7464 Y17.2135
G01 X21.7388 Y17.2073
G01 X21.7301 Y17.2026
G01 X21.7206 Y17.1997
G01 X21.7108 Y17.1988
G01 X21.7010 Y17.1997
G01 X21.6915 Y17.2026
G01 X21.6828 Y17.2073
G01 X21.6752 Y17.2135
G01 X21.6689 Y17.2212
G01 X21.6642 Y17.2299
G01 X21.6614 Y17.2393
G01 X21.6604 Y17.2491
G01 X21.6614 Y17.2590
G01 X21.6642 Y17.2684
G01 X21.6689 Y17.2771
G01 X21.6752 Y17.2848
G01 X21.6828 Y17.2910
G01 X21.6915 Y17.2957
G01 X21.7010 Y17.2986
G01 X21.7108 Y17.2995
G01 X21.7206 Y17.2986
G01 X21.7301 Y17.2957
G01 X21.7388 Y17.2910
G01 X21.7464 Y17.2848
G01 X21.7527 Y17.2771
G01 X21.7573 Y17.2684
G01 X21.7602 Y17.2590
G01 X21.7612 Y17.2491
G00 X21.7612 Y17.2491
G01 F800.00
G01 Z-1.8000
G01 F350.00
G01 X21.7602 Y17.2393
G01 X21.7573 Y17.2299
G01 X21.7527 Y17.2212
G01 X21.7464 Y17.2135
G01 X21.7388 Y17.2073
G01 X21.7301 Y17.2026
G01 X21.7206 Y17.1997
G01 X21.7108 Y17.1988
G01 X21.7010 Y17.1997
G01 X21.6915 Y17.2026
G01 X21.6828 Y17.2073
G01 X21.6752 Y17.2135
G01 X21.6689 Y17.2212
G01 X21.6642 Y17.2299
G01 X21.6614 Y17.2393
G01 X21.6604 Y17.2491
G01 X21.6614 Y17.2590
G01 X21.6642 Y17.2684
G01 X21.6689 Y17.2771
G01 X21.6752 Y17.2848
G01 X21.6828 Y17.2910
G01 X21.6915 Y17.2957
G01 X21.7010 Y17.2986
G01 X21.7108 Y17.2995
G01 X21.7206 Y17.2986
G01 X21.7301 Y17.2957
G01 X21.7388 Y17.2910
G01 X21.7464 Y17.2848
G01 X21.7527 Y17.2771
G01 X21.7573 Y17.2684
G01 X21.7602 Y17.2590
G01 X21.7612 Y17.2491
G00 Z2.0000
G00 X19.2212 Y17.2491
G01 F800.00
G01 Z-0.9000
G01 F350.00
G01 X19.2202 Y17.2393
G01 X19.2173 Y17.2299
G01 X19.2127 Y17.2212
G01 X19.2064 Y17.2135
G01 X19.1988 Y17.2073
G01 X19.1901 Y17.2026
G01 X19.1806 Y17.1997
G01 X19.1708 Y17.1988
G01 X19.1610 Y17.1997
G01 X19.1515 Y17.2026
G01 X19.1428 Y17.2073
G01 X19.1352 Y17.2135
G01 X19.1289 Y17.2212
G01 X19.1242 Y17.2299
G01 X19.1214 Y17.2393
G01 X19.1204 Y17.2491
G01 X19.1214 Y17.2590
G01 X19.1242 Y17.2684
G01 X19.1289 Y17.2771
G01 X19.1352 Y17.2848
G01 X19.1428 Y17.2910
G01 X19.1515 Y17.2957
G01 X19.1610 Y17.2986
G01 X19.1708 Y17.2995
G01 X19.1806 Y17.2986
G01 X19.1901 Y17.2957
G01 X19.1988 Y17.2910
G01 X19.2064 Y17.2848
G01 X19.2127 Y17.2771
G01 X19.2173 Y17.2684
G01 X19.2202 Y17.2590
G01 X19.2212 Y17.2491
G00 X19.2212 Y17.2491
G01 F800.00
G01 Z-1.8000
G01 F350.00
G01 X19.2202 Y17.2393
G01 X19.2173 Y17.2299
G01 X19.2127 Y17.2212
G01 X19.2064 Y17.2135
G01 X19.1988 Y17.2073
G01 X19.1901 Y17.2026
G01 X19.1806 Y17.1997
G01 X19.1708 Y17.1988
G01 X19.1610 Y17.1997
G01 X19.1515 Y17.2026
G01 X19.1428 Y17.2073
G01 X19.1352 Y17.2135
G01 X19.1289 Y17.2212
G01 X19.1242 Y17.2299
G01 X19.1214 Y17.2393
G01 X19.1204 Y17.2491
G01 X19.1214 Y17.2590
G01 X19.1242 Y17.2684
G01 X19.1289 Y17.2771
G01 X19.1352 Y17.2848
G01 X19.1428 Y17.2910
G01 X19.1515 Y17.2957
G01 X19.1610 Y17.2986
G01 X19.1708 Y17.2995
G01 X19.1806 Y17.2986
G01 X19.1901 Y17.2957
G01 X19.1988 Y17.2910
G01 X19.2064 Y17.2848
G01 X19.2127 Y17.2771
G01 X19.2173 Y17.2684
G01 X19.2202 Y17.2590
G01 X19.2212 Y17.2491
G00 Z2.0000
G00 X16.6812 Y17.2491
G01 F800.00
G01 Z-0.9000
G01 F350.00
G01 X16.6802 Y17.2393
G01 X16.6773 Y17.2299
G01 X16.6727 Y17.2212
G01 X16.6664 Y17.2135
G01 X16.6588 Y17.2073
G01 X16.6501 Y17.2026
G01 X16.6406 Y17.1997
G01 X16.6308 Y17.1988
G01 X16.6210 Y17.1997
G01 X16.6115 Y17.2026
G01 X16.6028 Y17.2073
G01 X16.5952 Y17.2135
G01 X16.5889 Y17.2212
G01 X16.5842 Y17.2299
G01 X16.5814 Y17.2393
G01 X16.5804 Y17.2491
G01 X16.5814 Y17.2590
G01 X16.5842 Y17.2684
G01 X16.5889 Y17.2771
G01 X16.5952 Y17.2848
G01 X16.6028 Y17.2910
G01 X16.6115 Y17.2957
G01 X16.6210 Y17.2986
G01 X16.6308 Y17.2995
G01 X16.6406 Y17.2986
G01 X16.6501 Y17.2957
G01 X16.6588 Y17.2910
G01 X16.6664 Y17.2848
G01 X16.6727 Y17.2771
G01 X16.6773 Y17.2684
G01 X16.6802 Y17.2590
G01 X16.6812 Y17.2491
G00 X16.6812 Y17.2491
G01 F800.00
G01 Z-1.8000
G01 F350.00
G01 X16.6802 Y17.2393
G01 X16.6773 Y17.2299
G01 X16.6727 Y17.2212
G01 X16.6664 Y17.2135
G01 X16.6588 Y17.2073
G01 X16.6501 Y17.2026
G01 X16.6406 Y17.1997
G01 X16.6308 Y17.1988
G01 X16.6210 Y17.1997
G01 X16.6115 Y17.2026
G01 X16.6028 Y17.2073
G01 X16.5952 Y17.2135
G01 X16.5889 Y17.2212
G01 X16.5842 Y17.2299
G01 X16.5814 Y17.2393
G01 X16.5804 Y17.2491
G01 X16.5814 Y17.2590
G01 X16.5842 Y17.2684
G01 X16.5889 Y17.2771
G01 X16.5952 Y17.2848
G01 X16.6028 Y17.2910
G01 X16.6115 Y17.2957
G01 X16.6210 Y17.2986
G01 X16.6308 Y17.2995
G01 X16.6406 Y17.2986
G01 X16.6501 Y17.2957
G01 X16.6588 Y17.2910
G01 X16.6664 Y17.2848
G01 X16.6727 Y17.2771
G01 X16.6773 Y17.2684
G01 X16.6802 Y17.2590
G01 X16.6812 Y17.2491
G00 Z2.0000
G00 X14.1412 Y17.2491
G01 F800.00
G01 Z-0.9000
G01 F350.00
G01 X14.1402 Y17.2393
G01 X14.1373 Y17.2299
G01 X14.1327 Y17.2212
G01 X14.1264 Y17.2135
G01 X14.1188 Y17.2073
G01 X14.1101 Y17.2026
G01 X14.1006 Y17.1997
G01 X14.0908 Y17.1988
G01 X14.0810 Y17.1997
G01 X14.0715 Y17.2026
G01 X14.0628 Y17.2073
G01 X14.0552 Y17.2135
G01 X14.0489 Y17.2212
G01 X14.0442 Y17.2299
G01 X14.0414 Y17.2393
G01 X14.0404 Y17.2491
G01 X14.0414 Y17.2590
G01 X14.0442 Y17.2684
G01 X14.0489 Y17.2771
G01 X14.0552 Y17.2848
G01 X14.0628 Y17.2910
G01 X14.0715 Y17.2957
G01 X14.0810 Y17.2986
G01 X14.0908 Y17.2995
G01 X14.1006 Y17.2986
G01 X14.1101 Y17.2957
G01 X14.1188 Y17.2910
G01 X14.1264 Y17.2848
G01 X14.1327 Y17.2771
G01 X14.1373 Y17.2684
G01 X14.1402 Y17.2590
G01 X14.1412 Y17.2491
G00 X14.1412 Y17.2491
G01 F800.00
G01 Z-1.8000
G01 F350.00
G01 X14.1402 Y17.2393
G01 X14.1373 Y17.2299
G01 X14.1327 Y17.2212
G01 X14.1264 Y17.2135
G01 X14.1188 Y17.2073
G01 X14.1101 Y17.2026
G01 X14.1006 Y17.1997
G01 X14.0908 Y17.1988
G01 X14.0810 Y17.1997
G01 X14.0715 Y17.2026
G01 X14.0628 Y17.2073
G01 X14.0552 Y17.2135
G01 X14.0489 Y17.2212
G01 X14.0442 Y17.2299
G01 X14.0414 Y17.2393
G01 X14.0404 Y17.2491
G01 X14.0414 Y17.2590
G01 X14.0442 Y17.2684
G01 X14.0489 Y17.2771
G01 X14.0552 Y17.2848
G01 X14.0628 Y17.2910
G01 X14.0715 Y17.2957
G01 X14.0810 Y17.2986
G01 X14.0908 Y17.2995
G01 X14.1006 Y17.2986
G01 X14.1101 Y17.2957
G01 X14.1188 Y17.2910
G01 X14.1264 Y17.2848
G01 X14.1327 Y17.2771
G01 X14.1373 Y17.2684
G01 X14.1402 Y17.2590
G01 X14.1412 Y17.2491
G00 Z2.0000
G00 X11.6012 Y17.2491
G01 F800.00
G01 Z-0.9000
G01 F350.00
G01 X11.6002 Y17.2393
G01 X11.5973 Y17.2299
G01 X11.5927 Y17.2212
G01 X11.5864 Y17.2135
G01 X11.5788 Y17.2073
G01 X11.5701 Y17.2026
G01 X11.5606 Y17.1997
G01 X11.5508 Y17.1988
G01 X11.5410 Y17.1997
G01 X11.5315 Y17.2026
G01 X11.5228 Y17.2073
G01 X11.5152 Y17.2135
G01 X11.5089 Y17.2212
G01 X11.5042 Y17.2299
G01 X11.5014 Y17.2393
G01 X11.5004 Y17.2491
G01 X11.5014 Y17.2590
G01 X11.5042 Y17.2684
G01 X11.5089 Y17.2771
G01 X11.5152 Y17.2848
G01 X11.5228 Y17.2910
G01 X11.5315 Y17.2957
G01 X11.5410 Y17.2986
G01 X11.5508 Y17.2995
G01 X11.5606 Y17.2986
G01 X11.5701 Y17.2957
G01 X11.5788 Y17.2910
G01 X11.5864 Y17.2848
G01 X11.5927 Y17.2771
G01 X11.5973 Y17.2684
G01 X11.6002 Y17.2590
G01 X11.6012 Y17.2491
G00 X11.6012 Y17.2491
G01 F800.00
G01 Z-1.8000
G01 F350.00
G01 X11.6002 Y17.2393
G01 X11.5973 Y17.2299
G01 X11.5927 Y17.2212
G01 X11.5864 Y17.2135
G01 X11.5788 Y17.2073
G01 X11.5701 Y17.2026
G01 X11.5606 Y17.1997
G01 X11.5508 Y17.1988
G01 X11.5410 Y17.1997
G01 X11.5315 Y17.2026
G01 X11.5228 Y17.2073
G01 X11.5152 Y17.2135
G01 X11.5089 Y17.2212
G01 X11.5042 Y17.2299
G01 X11.5014 Y17.2393
G01 X11.5004 Y17.2491
G01 X11.5014 Y17.2590
G01 X11.5042 Y17.2684
G01 X11.5089 Y17.2771
G01 X11.5152 Y17.2848
G01 X11.5228 Y17.2910
G01 X11.5315 Y17.2957
G01 X11.5410 Y17.2986
G01 X11.5508 Y17.2995
G01 X11.5606 Y17.2986
G01 X11.5701 Y17.2957
G01 X11.5788 Y17.2910
G01 X11.5864 Y17.2848
G01 X11.5927 Y17.2771
G01 X11.5973 Y17.2684
G01 X11.6002 Y17.2590
G01 X11.6012 Y17.2491
G00 Z2.0000
G00 X4.1513 Y11.0007
G01 F800.00
G01 Z-0.9000
G01 F350.00
G01 X4.1458 Y10.8880
G01 X4.1292 Y10.7763
G01 X4.1018 Y10.6669
G01 X4.0638 Y10.5606
G01 X4.0155 Y10.4585
G01 X3.9575 Y10.3617
G01 X3.8903 Y10.2711
G01 X3.8145 Y10.1874
G01 X3.7308 Y10.1116
G01 X3.6402 Y10.0444
G01 X3.5433 Y9.9864
G01 X3.4413 Y9.9381
G01 X3.3350 Y9.9001
G01 X3.2255 Y9.8726
G01 X3.1139 Y9.8561
G01 X3.0011 Y9.8505
G01 X2.8884 Y9.8561
G01 X2.7767 Y9.8726
G01 X2.6673 Y9.9001
G01 X2.5610 Y9.9381
G01 X2.4589 Y9.9864
G01 X2.3621 Y10.0444
G01 X2.2715 Y10.1116
G01 X2.1878 Y10.1874
G01 X2.1120 Y10.2711
G01 X2.0448 Y10.3617
G01 X1.9868 Y10.4585
G01 X1.9385 Y10.5606
G01 X1.9005 Y10.6669
G01 X1.8730 Y10.7763
G01 X1.8565 Y10.8880
G01 X1.8509 Y11.0007
G01 X1.8565 Y11.1135
G01 X1.8730 Y11.2251
G01 X1.9005 Y11.3346
G01 X1.9385 Y11.4409
G01 X1.9868 Y11.5429
G01 X2.0448 Y11.6398
G01 X2.1120 Y11.7304
G01 X2.1878 Y11.8141
G01 X2.2715 Y11.8899
G01 X2.3621 Y11.9571
G01 X2.4589 Y12.0151
G01 X2.5610 Y12.0634
G01 X2.6673 Y12.1014
G01 X2.7767 Y12.1288
G01 X2.8884 Y12.1454
G01 X3.0011 Y12.1509
G01 X3.1139 Y12.1454
G01 X3.2255 Y12.1288
G01 X3.3350 Y12.1014
G01 X3.4413 Y12.0634
G01 X3.5433 Y12.0151
G01 X3.6402 Y11.9571
G01 X3.7308 Y11.8899
G01 X3.8145 Y11.8141
G01 X3.8903 Y11.7304
G01 X3.9575 Y11.6398
G01 X4.0155 Y11.5429
G01 X4.0638 Y11.4409
G01 X4.1018 Y11.3346
G01 X4.1292 Y11.2251
G01 X4.1458 Y11.1135
G01 X4.1513 Y11.0007
G00 X4.1513 Y11.0007
G01 F800.00
G01 Z-1.8000
G01 F350.00
G01 X4.1458 Y10.8880
G01 X4.1292 Y10.7763
G01 X4.1018 Y10.6669
G01 X4.0638 Y10.5606
G01 X4.0155 Y10.4585
G01 X3.9575 Y10.3617
G01 X3.8903 Y10.2711
G01 X3.8145 Y10.1874
G01 X3.7308 Y10.1116
G01 X3.6402 Y10.0444
G01 X3.5433 Y9.9864
G01 X3.4413 Y9.9381
G01 X3.3350 Y9.9001
G01 X3.2255 Y9.8726
G01 X3.1139 Y9.8561
G01 X3.0011 Y9.8505
G01 X2.8884 Y9.8561
G01 X2.7767 Y9.8726
G01 X2.6673 Y9.9001
G01 X2.5610 Y9.9381
G01 X2.4589 Y9.9864
G01 X2.3621 Y10.0444
G01 X2.2715 Y10.1116
G01 X2.1878 Y10.1874
G01 X2.1120 Y10.2711
G01 X2.0448 Y10.3617
G01 X1.9868 Y10.4585
G01 X1.9385 Y10.5606
G01 X1.9005 Y10.6669
G01 X1.8730 Y10.7763
G01 X1.8565 Y10.8880
G01 X1.8509 Y11.0007
G01 X1.8565 Y11.1135
G01 X1.8730 Y11.2251
G01 X1.9005 Y11.3346
G01 X1.9385 Y11.4409
G01 X1.9868 Y11.5429
G01 X2.0448 Y11.6398
G01 X2.1120 Y11.7304
G01 X2.1878 Y11.8141
G01 X2.2715 Y11.8899
G01 X2.3621 Y11.9571
G01 X2.4589 Y12.0151
G01 X2.5610 Y12.0634
G01 X2.6673 Y12.1014
G01 X2.7767 Y12.1288
G01 X2.8884 Y12.1454
G01 X3.0011 Y12.1509
G01 X3.1139 Y12.1454
G01 X3.2255 Y12.1288
G01 X3.3350 Y12.1014
G01 X3.4413 Y12.0634
G01 X3.5433 Y12.0151
G01 X3.6402 Y11.9571
G01 X3.7308 Y11.8899
G01 X3.8145 Y11.8141
G01 X3.8903 Y11.7304
G01 X3.9575 Y11.6398
G01 X4.0155 Y11.5429
G01 X4.0638 Y11.4409
G01 X4.1018 Y11.3346
G01 X4.1292 Y11.2251
G01 X4.1458 Y11.1135
G01 X4.1513 Y11.0007
G00 Z2.0000
M05
G00 Z2.0000
G00 Z15.00
G00 X0.0 Y0.0

M05
M09