(G-CODE GENERATED BY FLATCAM v8.991 - www.flatcam.org - Version Date: 2019/12/27)

(Name: 05 - 1mm Cutout Board)
(Type: G-code from Geometry)
(Units: MM)

(Created on Monday, 16 March 2020 at 11:59)

(TOOL DIAMETER: 1.0 mm)
(Feedrate: 350.0 mm/min)
(Feedrate_Z: 800.0 mm/min)
(Feedrate rapids 1500.0 mm/min)

(Z_Cut: -1.8 mm)
(DepthPerCut: 0.9 mm <=>2 passes)
(Z_Move: 2.0 mm)
(Z Toolchange: 15.0 mm)
(X,Y Toolchange: 0.0000, 0.0000 mm)
(Z Start: None mm)
(Z End: 15.0 mm)
(Steps per circle: 64)
(Preprocessor Geometry: default)

(X range:   -1.0250 ...   66.0250  mm)
(Y range:   -0.5250 ...   22.0250  mm)

(Spindle Speed: 24000 RPM)
G21
G90
G94

M08


G01 F350.00
G00 Z2.0000

M03 S24000
G00 X5.4750 Y3.9750
G01 F800.00
G01 Z-0.9000
G01 F350.00
G01 X5.4750 Y0.5000
G01 X5.4756 Y0.4742
G01 X5.4780 Y0.4252
G01 X5.4801 Y0.3983
G01 X5.4831 Y0.3740
G01 X5.4903 Y0.3254
G01 X5.4950 Y0.2988
G01 X5.5003 Y0.2749
G01 X5.5123 Y0.2273
G01 X5.5188 Y0.2036
G01 X5.5272 Y0.1780
G01 X5.5437 Y0.1318
G01 X5.5535 Y0.1066
G01 X5.5635 Y0.0842
G01 X5.5844 Y0.0398
G01 X5.5955 Y0.0179
G01 X5.6087 Y-0.0056
G01 X5.6339 Y-0.0477
G01 X5.6484 Y-0.0705
G01 X5.6626 Y-0.0905
G01 X5.6918 Y-0.1299
G01 X5.7085 Y-0.1512
G01 X5.7245 Y-0.1698
G01 X5.7574 Y-0.2061
G01 X5.7744 Y-0.2239
G01 X5.7939 Y-0.2426
G01 X5.8302 Y-0.2755
G01 X5.8507 Y-0.2931
G01 X5.8701 Y-0.3082
G01 X5.9095 Y-0.3374
G01 X5.9295 Y-0.3516
G01 X5.9523 Y-0.3661
G01 X5.9944 Y-0.3913
G01 X6.0179 Y-0.4045
G01 X6.0398 Y-0.4156
G01 X6.0842 Y-0.4365
G01 X6.1066 Y-0.4465
G01 X6.1318 Y-0.4563
G01 X6.1780 Y-0.4728
G01 X6.2036 Y-0.4812
G01 X6.2273 Y-0.4877
G01 X6.2749 Y-0.4997
G01 X6.3012 Y-0.5055
G01 X6.3254 Y-0.5097
G01 X6.3740 Y-0.5169
G01 X6.4008 Y-0.5202
G01 X6.4252 Y-0.5220
G01 X6.4742 Y-0.5244
G01 X6.5000 Y-0.5250
G01 X58.5000 Y-0.5250
G01 X58.5258 Y-0.5244
G01 X58.5748 Y-0.5220
G01 X58.6017 Y-0.5199
G01 X58.6260 Y-0.5169
G01 X58.6746 Y-0.5097
G01 X58.7012 Y-0.5050
G01 X58.7251 Y-0.4997
G01 X58.7727 Y-0.4877
G01 X58.7987 Y-0.4805
G01 X58.8220 Y-0.4728
G01 X58.8682 Y-0.4563
G01 X58.8934 Y-0.4465
G01 X58.9158 Y-0.4365
G01 X58.9602 Y-0.4156
G01 X58.9843 Y-0.4034
G01 X59.0056 Y-0.3913
G01 X59.0477 Y-0.3661
G01 X59.0705 Y-0.3516
G01 X59.0905 Y-0.3374
G01 X59.1299 Y-0.3082
G01 X59.1493 Y-0.2931
G01 X59.1698 Y-0.2755
G01 X59.2061 Y-0.2426
G01 X59.2256 Y-0.2239
G01 X59.2426 Y-0.2061
G01 X59.2755 Y-0.1698
G01 X59.2931 Y-0.1493
G01 X59.3082 Y-0.1299
G01 X59.3374 Y-0.0905
G01 X59.3516 Y-0.0705
G01 X59.3661 Y-0.0477
G01 X59.3913 Y-0.0056
G01 X59.4045 Y0.0179
G01 X59.4156 Y0.0398
G01 X59.4365 Y0.0842
G01 X59.4474 Y0.1089
G01 X59.4563 Y0.1318
G01 X59.4728 Y0.1780
G01 X59.4805 Y0.2013
G01 X59.4877 Y0.2273
G01 X59.4997 Y0.2749
G01 X59.5055 Y0.3012
G01 X59.5097 Y0.3254
G01 X59.5169 Y0.3740
G01 X59.5202 Y0.4008
G01 X59.5220 Y0.4252
G01 X59.5244 Y0.4742
G01 X59.5250 Y0.5000
G01 X59.5250 Y3.9750
G01 X63.5123 Y3.9751
G01 X63.7218 Y3.9853
G01 X63.7463 Y3.9871
G01 X63.7731 Y3.9903
G01 X63.9672 Y4.0191
G01 X63.9938 Y4.0238
G01 X64.0177 Y4.0292
G01 X64.2081 Y4.0768
G01 X64.2318 Y4.0834
G01 X64.2574 Y4.0918
G01 X64.4422 Y4.1579
G01 X64.4674 Y4.1677
G01 X64.4898 Y4.1776
G01 X64.6673 Y4.2616
G01 X64.6914 Y4.2737
G01 X64.7127 Y4.2858
G01 X64.8811 Y4.3867
G01 X64.9038 Y4.4012
G01 X64.9239 Y4.4154
G01 X65.0815 Y4.5323
G01 X65.1028 Y4.5489
G01 X65.1214 Y4.5650
G01 X65.2668 Y4.6968
G01 X65.2846 Y4.7137
G01 X65.3032 Y4.7332
G01 X65.4350 Y4.8786
G01 X65.4526 Y4.8991
G01 X65.4677 Y4.9185
G01 X65.5846 Y5.0761
G01 X65.6001 Y5.0982
G01 X65.6133 Y5.1189
G01 X65.7142 Y5.2873
G01 X65.7274 Y5.3108
G01 X65.7384 Y5.3327
G01 X65.8224 Y5.5102
G01 X65.8332 Y5.5349
G01 X65.8421 Y5.5578
G01 X65.9082 Y5.7426
G01 X65.9166 Y5.7682
G01 X65.9232 Y5.7919
G01 X65.9708 Y5.9823
G01 X65.9767 Y6.0086
G01 X65.9809 Y6.0328
G01 X66.0097 Y6.2269
G01 X66.0129 Y6.2537
G01 X66.0147 Y6.2782
G01 X66.0244 Y6.4742
G01 X66.0250 Y6.5000
G01 X66.0250 Y19.5000
G01 X66.0244 Y19.5258
G01 X66.0147 Y19.7218
G01 X66.0127 Y19.7487
G01 X66.0097 Y19.7731
G01 X65.9809 Y19.9672
G01 X65.9762 Y19.9938
G01 X65.9708 Y20.0177
G01 X65.9232 Y20.2081
G01 X65.9159 Y20.2341
G01 X65.9082 Y20.2574
G01 X65.8421 Y20.4422
G01 X65.8323 Y20.4674
G01 X65.8224 Y20.4898
G01 X65.7384 Y20.6673
G01 X65.7263 Y20.6914
G01 X65.7142 Y20.7127
G01 X65.6133 Y20.8811
G01 X65.5988 Y20.9038
G01 X65.5846 Y20.9239
G01 X65.4677 Y21.0815
G01 X65.4526 Y21.1009
G01 X65.4350 Y21.1214
G01 X65.3032 Y21.2668
G01 X65.2846 Y21.2863
G01 X65.2668 Y21.3032
G01 X65.1214 Y21.4350
G01 X65.1009 Y21.4526
G01 X65.0815 Y21.4677
G01 X64.9239 Y21.5846
G01 X64.9018 Y21.6001
G01 X64.8811 Y21.6133
G01 X64.7127 Y21.7142
G01 X64.6892 Y21.7274
G01 X64.6673 Y21.7384
G01 X64.4898 Y21.8224
G01 X64.4674 Y21.8323
G01 X64.4422 Y21.8421
G01 X64.2574 Y21.9082
G01 X64.2318 Y21.9166
G01 X64.2081 Y21.9232
G01 X64.0177 Y21.9708
G01 X63.9914 Y21.9767
G01 X63.9672 Y21.9809
G01 X63.7731 Y22.0097
G01 X63.7463 Y22.0129
G01 X63.7218 Y22.0147
G01 X63.5135 Y22.0248
G01 X1.5000 Y22.0250
G01 X1.4742 Y22.0244
G01 X1.2782 Y22.0147
G01 X1.2513 Y22.0127
G01 X1.2269 Y22.0097
G01 X1.0328 Y21.9809
G01 X1.0062 Y21.9762
G01 X0.9823 Y21.9708
G01 X0.7919 Y21.9232
G01 X0.7659 Y21.9159
G01 X0.7426 Y21.9082
G01 X0.5578 Y21.8421
G01 X0.5326 Y21.8323
G01 X0.5102 Y21.8224
G01 X0.3327 Y21.7384
G01 X0.3086 Y21.7263
G01 X0.2873 Y21.7142
G01 X0.1189 Y21.6133
G01 X0.0982 Y21.6001
G01 X0.0761 Y21.5846
G01 X-0.0815 Y21.4677
G01 X-0.1028 Y21.4511
G01 X-0.1214 Y21.4350
G01 X-0.2668 Y21.3032
G01 X-0.2863 Y21.2846
G01 X-0.3032 Y21.2668
G01 X-0.4350 Y21.1214
G01 X-0.4511 Y21.1028
G01 X-0.4677 Y21.0815
G01 X-0.5846 Y20.9239
G01 X-0.6001 Y20.9018
G01 X-0.6133 Y20.8811
G01 X-0.7142 Y20.7127
G01 X-0.7274 Y20.6892
G01 X-0.7384 Y20.6673
G01 X-0.8224 Y20.4898
G01 X-0.8323 Y20.4674
G01 X-0.8421 Y20.4422
G01 X-0.9082 Y20.2574
G01 X-0.9166 Y20.2318
G01 X-0.9232 Y20.2081
G01 X-0.9708 Y20.0177
G01 X-0.9767 Y19.9914
G01 X-0.9809 Y19.9672
G01 X-1.0097 Y19.7731
G01 X-1.0127 Y19.7487
G01 X-1.0147 Y19.7218
G01 X-1.0244 Y19.5258
G01 X-1.0250 Y19.5000
G01 X-1.0250 Y6.5000
G01 X-1.0244 Y6.4742
G01 X-1.0147 Y6.2782
G01 X-1.0127 Y6.2513
G01 X-1.0097 Y6.2269
G01 X-0.9809 Y6.0328
G01 X-0.9762 Y6.0062
G01 X-0.9708 Y5.9823
G01 X-0.9232 Y5.7919
G01 X-0.9159 Y5.7659
G01 X-0.9082 Y5.7426
G01 X-0.8421 Y5.5578
G01 X-0.8323 Y5.5326
G01 X-0.8224 Y5.5102
G01 X-0.7384 Y5.3327
G01 X-0.7263 Y5.3086
G01 X-0.7142 Y5.2873
G01 X-0.6133 Y5.1189
G01 X-0.5988 Y5.0962
G01 X-0.5846 Y5.0761
G01 X-0.4677 Y4.9185
G01 X-0.4511 Y4.8972
G01 X-0.4350 Y4.8786
G01 X-0.3032 Y4.7332
G01 X-0.2863 Y4.7154
G01 X-0.2668 Y4.6968
G01 X-0.1214 Y4.5650
G01 X-0.1009 Y4.5474
G01 X-0.0815 Y4.5323
G01 X0.0761 Y4.4154
G01 X0.0982 Y4.3999
G01 X0.1189 Y4.3867
G01 X0.2873 Y4.2858
G01 X0.3108 Y4.2726
G01 X0.3327 Y4.2616
G01 X0.5102 Y4.1776
G01 X0.5349 Y4.1668
G01 X0.5578 Y4.1579
G01 X0.7426 Y4.0918
G01 X0.7682 Y4.0834
G01 X0.7919 Y4.0768
G01 X0.9823 Y4.0292
G01 X1.0086 Y4.0233
G01 X1.0328 Y4.0191
G01 X1.2269 Y3.9903
G01 X1.2537 Y3.9871
G01 X1.2782 Y3.9853
G01 X1.4877 Y3.9751
G01 X5.4750 Y3.9750
G00 X5.4750 Y3.9750
G01 F800.00
G01 Z-1.8000
G01 F350.00
G01 X5.4750 Y0.5000
G01 X5.4756 Y0.4742
G01 X5.4780 Y0.4252
G01 X5.4801 Y0.3983
G01 X5.4831 Y0.3740
G01 X5.4903 Y0.3254
G01 X5.4950 Y0.2988
G01 X5.5003 Y0.2749
G01 X5.5123 Y0.2273
G01 X5.5188 Y0.2036
G01 X5.5272 Y0.1780
G01 X5.5437 Y0.1318
G01 X5.5535 Y0.1066
G01 X5.5635 Y0.0842
G01 X5.5844 Y0.0398
G01 X5.5955 Y0.0179
G01 X5.6087 Y-0.0056
G01 X5.6339 Y-0.0477
G01 X5.6484 Y-0.0705
G01 X5.6626 Y-0.0905
G01 X5.6918 Y-0.1299
G01 X5.7085 Y-0.1512
G01 X5.7245 Y-0.1698
G01 X5.7574 Y-0.2061
G01 X5.7744 Y-0.2239
G01 X5.7939 Y-0.2426
G01 X5.8302 Y-0.2755
G01 X5.8507 Y-0.2931
G01 X5.8701 Y-0.3082
G01 X5.9095 Y-0.3374
G01 X5.9295 Y-0.3516
G01 X5.9523 Y-0.3661
G01 X5.9944 Y-0.3913
G01 X6.0179 Y-0.4045
G01 X6.0398 Y-0.4156
G01 X6.0842 Y-0.4365
G01 X6.1066 Y-0.4465
G01 X6.1318 Y-0.4563
G01 X6.1780 Y-0.4728
G01 X6.2036 Y-0.4812
G01 X6.2273 Y-0.4877
G01 X6.2749 Y-0.4997
G01 X6.3012 Y-0.5055
G01 X6.3254 Y-0.5097
G01 X6.3740 Y-0.5169
G01 X6.4008 Y-0.5202
G01 X6.4252 Y-0.5220
G01 X6.4742 Y-0.5244
G01 X6.5000 Y-0.5250
G01 X58.5000 Y-0.5250
G01 X58.5258 Y-0.5244
G01 X58.5748 Y-0.5220
G01 X58.6017 Y-0.5199
G01 X58.6260 Y-0.5169
G01 X58.6746 Y-0.5097
G01 X58.7012 Y-0.5050
G01 X58.7251 Y-0.4997
G01 X58.7727 Y-0.4877
G01 X58.7987 Y-0.4805
G01 X58.8220 Y-0.4728
G01 X58.8682 Y-0.4563
G01 X58.8934 Y-0.4465
G01 X58.9158 Y-0.4365
G01 X58.9602 Y-0.4156
G01 X58.9843 Y-0.4034
G01 X59.0056 Y-0.3913
G01 X59.0477 Y-0.3661
G01 X59.0705 Y-0.3516
G01 X59.0905 Y-0.3374
G01 X59.1299 Y-0.3082
G01 X59.1493 Y-0.2931
G01 X59.1698 Y-0.2755
G01 X59.2061 Y-0.2426
G01 X59.2256 Y-0.2239
G01 X59.2426 Y-0.2061
G01 X59.2755 Y-0.1698
G01 X59.2931 Y-0.1493
G01 X59.3082 Y-0.1299
G01 X59.3374 Y-0.0905
G01 X59.3516 Y-0.0705
G01 X59.3661 Y-0.0477
G01 X59.3913 Y-0.0056
G01 X59.4045 Y0.0179
G01 X59.4156 Y0.0398
G01 X59.4365 Y0.0842
G01 X59.4474 Y0.1089
G01 X59.4563 Y0.1318
G01 X59.4728 Y0.1780
G01 X59.4805 Y0.2013
G01 X59.4877 Y0.2273
G01 X59.4997 Y0.2749
G01 X59.5055 Y0.3012
G01 X59.5097 Y0.3254
G01 X59.5169 Y0.3740
G01 X59.5202 Y0.4008
G01 X59.5220 Y0.4252
G01 X59.5244 Y0.4742
G01 X59.5250 Y0.5000
G01 X59.5250 Y3.9750
G01 X63.5123 Y3.9751
G01 X63.7218 Y3.9853
G01 X63.7463 Y3.9871
G01 X63.7731 Y3.9903
G01 X63.9672 Y4.0191
G01 X63.9938 Y4.0238
G01 X64.0177 Y4.0292
G01 X64.2081 Y4.0768
G01 X64.2318 Y4.0834
G01 X64.2574 Y4.0918
G01 X64.4422 Y4.1579
G01 X64.4674 Y4.1677
G01 X64.4898 Y4.1776
G01 X64.6673 Y4.2616
G01 X64.6914 Y4.2737
G01 X64.7127 Y4.2858
G01 X64.8811 Y4.3867
G01 X64.9038 Y4.4012
G01 X64.9239 Y4.4154
G01 X65.0815 Y4.5323
G01 X65.1028 Y4.5489
G01 X65.1214 Y4.5650
G01 X65.2668 Y4.6968
G01 X65.2846 Y4.7137
G01 X65.3032 Y4.7332
G01 X65.4350 Y4.8786
G01 X65.4526 Y4.8991
G01 X65.4677 Y4.9185
G01 X65.5846 Y5.0761
G01 X65.6001 Y5.0982
G01 X65.6133 Y5.1189
G01 X65.7142 Y5.2873
G01 X65.7274 Y5.3108
G01 X65.7384 Y5.3327
G01 X65.8224 Y5.5102
G01 X65.8332 Y5.5349
G01 X65.8421 Y5.5578
G01 X65.9082 Y5.7426
G01 X65.9166 Y5.7682
G01 X65.9232 Y5.7919
G01 X65.9708 Y5.9823
G01 X65.9767 Y6.0086
G01 X65.9809 Y6.0328
G01 X66.0097 Y6.2269
G01 X66.0129 Y6.2537
G01 X66.0147 Y6.2782
G01 X66.0244 Y6.4742
G01 X66.0250 Y6.5000
G01 X66.0250 Y19.5000
G01 X66.0244 Y19.5258
G01 X66.0147 Y19.7218
G01 X66.0127 Y19.7487
G01 X66.0097 Y19.7731
G01 X65.9809 Y19.9672
G01 X65.9762 Y19.9938
G01 X65.9708 Y20.0177
G01 X65.9232 Y20.2081
G01 X65.9159 Y20.2341
G01 X65.9082 Y20.2574
G01 X65.8421 Y20.4422
G01 X65.8323 Y20.4674
G01 X65.8224 Y20.4898
G01 X65.7384 Y20.6673
G01 X65.7263 Y20.6914
G01 X65.7142 Y20.7127
G01 X65.6133 Y20.8811
G01 X65.5988 Y20.9038
G01 X65.5846 Y20.9239
G01 X65.4677 Y21.0815
G01 X65.4526 Y21.1009
G01 X65.4350 Y21.1214
G01 X65.3032 Y21.2668
G01 X65.2846 Y21.2863
G01 X65.2668 Y21.3032
G01 X65.1214 Y21.4350
G01 X65.1009 Y21.4526
G01 X65.0815 Y21.4677
G01 X64.9239 Y21.5846
G01 X64.9018 Y21.6001
G01 X64.8811 Y21.6133
G01 X64.7127 Y21.7142
G01 X64.6892 Y21.7274
G01 X64.6673 Y21.7384
G01 X64.4898 Y21.8224
G01 X64.4674 Y21.8323
G01 X64.4422 Y21.8421
G01 X64.2574 Y21.9082
G01 X64.2318 Y21.9166
G01 X64.2081 Y21.9232
G01 X64.0177 Y21.9708
G01 X63.9914 Y21.9767
G01 X63.9672 Y21.9809
G01 X63.7731 Y22.0097
G01 X63.7463 Y22.0129
G01 X63.7218 Y22.0147
G01 X63.5135 Y22.0248
G01 X1.5000 Y22.0250
G01 X1.4742 Y22.0244
G01 X1.2782 Y22.0147
G01 X1.2513 Y22.0127
G01 X1.2269 Y22.0097
G01 X1.0328 Y21.9809
G01 X1.0062 Y21.9762
G01 X0.9823 Y21.9708
G01 X0.7919 Y21.9232
G01 X0.7659 Y21.9159
G01 X0.7426 Y21.9082
G01 X0.5578 Y21.8421
G01 X0.5326 Y21.8323
G01 X0.5102 Y21.8224
G01 X0.3327 Y21.7384
G01 X0.3086 Y21.7263
G01 X0.2873 Y21.7142
G01 X0.1189 Y21.6133
G01 X0.0982 Y21.6001
G01 X0.0761 Y21.5846
G01 X-0.0815 Y21.4677
G01 X-0.1028 Y21.4511
G01 X-0.1214 Y21.4350
G01 X-0.2668 Y21.3032
G01 X-0.2863 Y21.2846
G01 X-0.3032 Y21.2668
G01 X-0.4350 Y21.1214
G01 X-0.4511 Y21.1028
G01 X-0.4677 Y21.0815
G01 X-0.5846 Y20.9239
G01 X-0.6001 Y20.9018
G01 X-0.6133 Y20.8811
G01 X-0.7142 Y20.7127
G01 X-0.7274 Y20.6892
G01 X-0.7384 Y20.6673
G01 X-0.8224 Y20.4898
G01 X-0.8323 Y20.4674
G01 X-0.8421 Y20.4422
G01 X-0.9082 Y20.2574
G01 X-0.9166 Y20.2318
G01 X-0.9232 Y20.2081
G01 X-0.9708 Y20.0177
G01 X-0.9767 Y19.9914
G01 X-0.9809 Y19.9672
G01 X-1.0097 Y19.7731
G01 X-1.0127 Y19.7487
G01 X-1.0147 Y19.7218
G01 X-1.0244 Y19.5258
G01 X-1.0250 Y19.5000
G01 X-1.0250 Y6.5000
G01 X-1.0244 Y6.4742
G01 X-1.0147 Y6.2782
G01 X-1.0127 Y6.2513
G01 X-1.0097 Y6.2269
G01 X-0.9809 Y6.0328
G01 X-0.9762 Y6.0062
G01 X-0.9708 Y5.9823
G01 X-0.9232 Y5.7919
G01 X-0.9159 Y5.7659
G01 X-0.9082 Y5.7426
G01 X-0.8421 Y5.5578
G01 X-0.8323 Y5.5326
G01 X-0.8224 Y5.5102
G01 X-0.7384 Y5.3327
G01 X-0.7263 Y5.3086
G01 X-0.7142 Y5.2873
G01 X-0.6133 Y5.1189
G01 X-0.5988 Y5.0962
G01 X-0.5846 Y5.0761
G01 X-0.4677 Y4.9185
G01 X-0.4511 Y4.8972
G01 X-0.4350 Y4.8786
G01 X-0.3032 Y4.7332
G01 X-0.2863 Y4.7154
G01 X-0.2668 Y4.6968
G01 X-0.1214 Y4.5650
G01 X-0.1009 Y4.5474
G01 X-0.0815 Y4.5323
G01 X0.0761 Y4.4154
G01 X0.0982 Y4.3999
G01 X0.1189 Y4.3867
G01 X0.2873 Y4.2858
G01 X0.3108 Y4.2726
G01 X0.3327 Y4.2616
G01 X0.5102 Y4.1776
G01 X0.5349 Y4.1668
G01 X0.5578 Y4.1579
G01 X0.7426 Y4.0918
G01 X0.7682 Y4.0834
G01 X0.7919 Y4.0768
G01 X0.9823 Y4.0292
G01 X1.0086 Y4.0233
G01 X1.0328 Y4.0191
G01 X1.2269 Y3.9903
G01 X1.2537 Y3.9871
G01 X1.2782 Y3.9853
G01 X1.4877 Y3.9751
G01 X5.4750 Y3.9750
G00 Z2.0000
M05
G00 Z2.0000
G00 Z15.00
G00 X0.0 Y0.0

M05
M09